; generated by Slic3r Prusa Edition 1.40.1+win64 on 2018-08-18 at 22:19:43

; 

; external perimeters extrusion width = 0.45mm
; perimeters extrusion width = 0.45mm
; infill extrusion width = 0.45mm
; solid infill extrusion width = 0.45mm
; top infill extrusion width = 0.40mm
; first layer extrusion width = 0.42mm

M107
M115 U3.2.1 ; tell printer latest fw version
M201 X1000 Y1000 Z200 E5000 ; sets maximum accelerations, mm/sec^2
M203 X200 Y200 Z12 E120 ; sets maximum feedrates, mm/sec
M204 S1250 T1250 ; sets acceleration (S) and retract acceleration (T)
M205 X10 Y10 Z0.4 E2.5 ; sets the jerk limits, mm/sec
M205 S0 T0 ; sets the minimum extruding and travel feed rate, mm/sec
M83  ; extruder relative mode
M104 S245 ; set extruder temp
M140 S60 ; set bed temp
M190 S60 ; wait for bed temp
M109 S245 ; wait for extruder temp
G28 W ; home all without mesh bed level
G80 ; mesh bed leveling
G1 Y-3.0 F1000.0 ; go outside print area
G92 E0.0
G1 X60.0 E9.0  F1000.0 ; intro line
G1 X100.0 E12.5  F1000.0 ; intro line
G92 E0.0
M221 S95
M900 K30; Filament gcode
G21 ; set units to millimeters
G90 ; use absolute coordinates
M83 ; use relative distances for extrusion
;BEFORE_LAYER_CHANGE
G92 E0.0
;0.2


G1 E-0.80000 F2100.00000
G1 Z0.600 F10800.000
;AFTER_LAYER_CHANGE
;0.2
G1 X96.571 Y78.019
G1 Z0.200
G1 E0.80000 F2100.00000
M204 S1000
G1 F1800
G1 X97.465 Y77.812 E0.02878
G1 X142.504 Y77.811 E1.41216
G1 X143.323 Y77.972 E0.02620
G1 X144.023 Y78.429 E0.02620
G1 X144.501 Y79.114 E0.02620
G1 X144.687 Y79.932 E0.02631
G1 X144.688 Y130.022 E1.57053
G1 X144.548 Y130.772 E0.02394
G1 X144.158 Y131.429 E0.02394
G1 X143.416 Y131.988 E0.02911
G1 X142.510 Y132.189 E0.02911
G1 X97.474 Y132.188 E1.41204
G1 X96.724 Y132.046 E0.02394
G1 X96.071 Y131.658 E0.02383
G1 X95.512 Y130.916 E0.02911
G1 X95.311 Y130.010 E0.02911
G1 X95.312 Y79.978 E1.56870
G1 X95.452 Y79.228 E0.02394
G1 X95.842 Y78.571 E0.02394
G1 X96.523 Y78.055 E0.02678
G1 F8640
G1 X97.465 Y77.812 E-0.22464
G1 X99.783 Y77.812 E-0.53536
G1 E-0.04000 F2100.00000
G1 Z0.800 F10800.000
G1 X98.913 Y88.913
G1 Z0.200
G1 E0.80000 F2100.00000
G1 F1800
G1 X111.087 Y88.913 E0.38171
G1 X111.087 Y120.087 E0.97744
G1 X98.913 Y120.087 E0.38171
G1 X98.913 Y88.973 E0.97556
G1 X99.290 Y89.290 F10800.000
G1 F1800
G1 X110.710 Y89.290 E0.35807
G1 X110.710 Y119.710 E0.95380
G1 X99.290 Y119.710 E0.35807
G1 X99.290 Y89.350 E0.95192
G1 X99.242 Y88.893 F10800.000
G1 F8640
G1 X102.581 Y89.333 E-0.76000
G1 E-0.04000 F2100.00000
G1 Z0.800 F10800.000
G1 X113.913 Y88.913
G1 Z0.200
G1 E0.80000 F2100.00000
G1 F1800
G1 X126.087 Y88.913 E0.38171
G1 X126.087 Y120.087 E0.97744
G1 X113.913 Y120.087 E0.38171
G1 X113.913 Y88.973 E0.97556
G1 X114.290 Y89.290 F10800.000
G1 F1800
G1 X125.710 Y89.290 E0.35807
G1 X125.710 Y119.710 E0.95380
G1 X114.290 Y119.710 E0.35807
G1 X114.290 Y89.350 E0.95192
G1 X114.242 Y88.893 F10800.000
G1 F8640
G1 X117.581 Y89.333 E-0.76000
G1 E-0.04000 F2100.00000
G1 Z0.800 F10800.000
G1 X128.913 Y88.913
G1 Z0.200
G1 E0.80000 F2100.00000
G1 F1800
G1 X141.087 Y88.913 E0.38171
G1 X141.087 Y120.087 E0.97744
G1 X128.913 Y120.087 E0.38171
G1 X128.913 Y88.973 E0.97556
G1 X129.290 Y89.290 F10800.000
G1 F1800
G1 X140.710 Y89.290 E0.35807
G1 X140.710 Y119.710 E0.95380
G1 X129.290 Y119.710 E0.35807
G1 X129.290 Y89.350 E0.95192
G1 X129.242 Y88.893 F10800.000
G1 F8640
G1 X132.581 Y89.333 E-0.76000
G1 E-0.04000 F2100.00000
G1 Z0.800 F10800.000
G1 X141.913 Y80.587
G1 Z0.200
G1 E0.80000 F2100.00000
G1 F1800
G1 X141.913 Y129.413 E1.53090
G1 X98.087 Y129.413 E1.37413
G1 X98.087 Y80.587 E1.53090
G1 X141.853 Y80.587 E1.37225
G1 X142.290 Y80.210 F10800.000
G1 F1800
G1 X142.290 Y129.790 E1.55455
G1 X97.710 Y129.790 E1.39777
G1 X97.710 Y80.210 E1.55455
G1 X142.230 Y80.210 E1.39589
G1 X142.193 Y80.598 F10800.000
G1 F8640
G1 X142.234 Y83.501 E-0.76000
G1 E-0.04000 F2100.00000
G1 Z0.800 F10800.000
G1 X141.800 Y81.463
G1 Z0.200
G1 E0.80000 F2100.00000
G1 F1800
G1 X141.207 Y80.870 E0.02629
G1 X140.674 Y80.870 E0.01673
G1 X141.630 Y81.826 E0.04242
G1 X141.630 Y82.360 E0.01673
G1 X140.140 Y80.870 E0.06607
G1 X139.607 Y80.870 E0.01673
G1 X141.630 Y82.893 E0.08973
G1 X141.630 Y83.426 E0.01673
G1 X139.074 Y80.870 E0.11339
G1 X138.540 Y80.870 E0.01673
G1 X141.630 Y83.960 E0.13704
G1 X141.630 Y84.493 E0.01673
G1 X138.007 Y80.870 E0.16070
G1 X137.473 Y80.870 E0.01673
G1 X141.630 Y85.027 E0.18435
G1 X141.630 Y85.560 E0.01673
G1 X136.940 Y80.870 E0.20801
G1 X136.407 Y80.870 E0.01673
G1 X141.630 Y86.093 E0.23166
G1 X141.630 Y86.627 E0.01673
G1 X135.873 Y80.870 E0.25532
G1 X135.340 Y80.870 E0.01673
G1 X141.630 Y87.160 E0.27898
G1 X141.630 Y87.693 E0.01673
G1 X134.807 Y80.870 E0.30263
G1 X134.273 Y80.870 E0.01673
G1 X141.630 Y88.227 E0.32629
G1 X141.630 Y88.442 E0.00673
G1 X141.312 Y88.442 E0.00999
G1 X133.740 Y80.870 E0.33581
G1 X133.206 Y80.870 E0.01673
G1 X140.967 Y88.630 E0.34417
G1 X140.433 Y88.630 E0.01673
G1 X132.673 Y80.870 E0.34417
G1 X132.140 Y80.870 E0.01673
G1 X139.900 Y88.630 E0.34417
G1 X139.367 Y88.630 E0.01673
G1 X131.606 Y80.870 E0.34417
G1 X131.073 Y80.870 E0.01673
G1 X138.833 Y88.630 E0.34417
G1 X138.300 Y88.630 E0.01673
G1 X130.539 Y80.870 E0.34417
G1 X130.006 Y80.870 E0.01673
G1 X137.766 Y88.630 E0.34417
G1 X137.233 Y88.630 E0.01673
G1 X129.473 Y80.870 E0.34417
G1 X128.939 Y80.870 E0.01673
G1 X136.700 Y88.630 E0.34417
G1 X136.166 Y88.630 E0.01673
G1 X128.406 Y80.870 E0.34417
G1 X127.873 Y80.870 E0.01673
G1 X135.633 Y88.630 E0.34417
G1 X135.099 Y88.630 E0.01673
G1 X127.339 Y80.870 E0.34417
G1 X126.806 Y80.870 E0.01673
G1 X134.566 Y88.630 E0.34417
G1 X134.033 Y88.630 E0.01673
G1 X126.272 Y80.870 E0.34417
G1 X125.739 Y80.870 E0.01673
G1 X133.499 Y88.630 E0.34417
G1 X132.966 Y88.630 E0.01673
G1 X125.206 Y80.870 E0.34417
G1 X124.672 Y80.870 E0.01673
G1 X132.433 Y88.630 E0.34417
G1 X131.899 Y88.630 E0.01673
G1 X124.139 Y80.870 E0.34417
G1 X123.606 Y80.870 E0.01673
G1 X131.366 Y88.630 E0.34417
G1 X130.832 Y88.630 E0.01673
G1 X123.072 Y80.870 E0.34417
G1 X122.539 Y80.870 E0.01673
G1 X130.299 Y88.630 E0.34417
G1 X129.766 Y88.630 E0.01673
G1 X122.005 Y80.870 E0.34417
G1 X121.472 Y80.870 E0.01673
G1 X129.232 Y88.630 E0.34417
G1 X128.699 Y88.630 E0.01673
G1 X120.939 Y80.870 E0.34417
G1 X120.405 Y80.870 E0.01673
G1 X128.630 Y89.095 E0.36478
G1 X128.630 Y89.628 E0.01673
G1 X119.872 Y80.870 E0.38843
G1 X119.339 Y80.870 E0.01673
G1 X128.630 Y90.161 E0.41209
G1 X128.630 Y90.695 E0.01673
G1 X118.805 Y80.870 E0.43574
G1 X118.272 Y80.870 E0.01673
G1 X128.630 Y91.228 E0.45940
G1 X128.630 Y91.762 E0.01673
G1 X126.370 Y89.501 E0.10024
G1 X126.370 Y90.035 E0.01673
G1 X128.630 Y92.295 E0.10024
G1 X128.630 Y92.828 E0.01673
G1 X126.370 Y90.568 E0.10024
G1 X126.370 Y91.101 E0.01673
G1 X128.630 Y93.362 E0.10024
G1 X128.630 Y93.895 E0.01673
G1 X126.370 Y91.635 E0.10024
G1 X126.370 Y92.168 E0.01673
G1 X128.630 Y94.429 E0.10024
G1 X128.630 Y94.962 E0.01673
G1 X126.370 Y92.702 E0.10024
G1 X126.370 Y93.235 E0.01673
G1 X128.630 Y95.495 E0.10024
G1 X128.630 Y96.029 E0.01673
G1 X126.370 Y93.768 E0.10024
G1 X126.370 Y94.302 E0.01673
G1 X128.630 Y96.562 E0.10024
G1 X128.630 Y97.095 E0.01673
G1 X126.370 Y94.835 E0.10024
G1 X126.370 Y95.369 E0.01673
G1 X128.630 Y97.629 E0.10024
G1 X128.630 Y98.162 E0.01673
G1 X126.370 Y95.902 E0.10024
G1 X126.370 Y96.435 E0.01673
G1 X128.630 Y98.696 E0.10024
G1 X128.630 Y99.229 E0.01673
G1 X126.370 Y96.969 E0.10024
G1 X126.370 Y97.502 E0.01673
G1 X128.630 Y99.762 E0.10024
G1 X128.630 Y100.296 E0.01673
G1 X126.370 Y98.035 E0.10024
G1 X126.370 Y98.569 E0.01673
G1 X128.630 Y100.829 E0.10024
G1 X128.630 Y101.362 E0.01673
G1 X126.370 Y99.102 E0.10024
G1 X126.370 Y99.636 E0.01673
G1 X128.630 Y101.896 E0.10024
G1 X128.630 Y102.429 E0.01673
G1 X126.370 Y100.169 E0.10024
G1 X126.370 Y100.702 E0.01673
G1 X128.630 Y102.963 E0.10024
G1 X128.630 Y103.496 E0.01673
G1 X126.370 Y101.236 E0.10024
G1 X126.370 Y101.769 E0.01673
G1 X128.630 Y104.029 E0.10024
G1 X128.630 Y104.563 E0.01673
G1 X126.370 Y102.302 E0.10024
G1 X126.370 Y102.836 E0.01673
G1 X128.630 Y105.096 E0.10024
G1 X128.630 Y105.629 E0.01673
G1 X126.370 Y103.369 E0.10024
G1 X126.370 Y103.903 E0.01673
G1 X128.630 Y106.163 E0.10024
G1 X128.630 Y106.696 E0.01673
G1 X126.370 Y104.436 E0.10024
G1 X126.370 Y104.969 E0.01673
G1 X128.630 Y107.230 E0.10024
G1 X128.630 Y107.763 E0.01673
G1 X126.370 Y105.503 E0.10024
G1 X126.370 Y106.036 E0.01673
G1 X128.630 Y108.296 E0.10024
G1 X128.630 Y108.830 E0.01673
G1 X126.370 Y106.569 E0.10024
G1 X126.370 Y107.103 E0.01673
G1 X128.630 Y109.363 E0.10024
G1 X128.630 Y109.897 E0.01673
G1 X126.370 Y107.636 E0.10024
G1 X126.370 Y108.170 E0.01673
G1 X128.630 Y110.430 E0.10024
G1 X128.630 Y110.963 E0.01673
G1 X126.370 Y108.703 E0.10024
G1 X126.370 Y109.236 E0.01673
G1 X128.630 Y111.497 E0.10024
G1 X128.630 Y112.030 E0.01673
G1 X126.370 Y109.770 E0.10024
G1 X126.370 Y110.303 E0.01673
G1 X128.630 Y112.563 E0.10024
G1 X128.630 Y113.097 E0.01673
G1 X126.370 Y110.837 E0.10024
G1 X126.370 Y111.370 E0.01673
G1 X128.630 Y113.630 E0.10024
G1 X128.630 Y114.164 E0.01673
G1 X126.370 Y111.903 E0.10024
G1 X126.370 Y112.437 E0.01673
G1 X128.630 Y114.697 E0.10024
G1 X128.630 Y115.230 E0.01673
G1 X126.370 Y112.970 E0.10024
G1 X126.370 Y113.503 E0.01673
G1 X128.630 Y115.764 E0.10024
G1 X128.630 Y116.297 E0.01673
G1 X126.370 Y114.037 E0.10024
G1 X126.370 Y114.570 E0.01673
G1 X128.630 Y116.830 E0.10024
G1 X128.630 Y117.364 E0.01673
G1 X126.370 Y115.104 E0.10024
G1 X126.370 Y115.637 E0.01673
G1 X128.630 Y117.897 E0.10024
G1 X128.630 Y118.431 E0.01673
G1 X126.370 Y116.170 E0.10024
G1 X126.370 Y116.704 E0.01673
G1 X128.630 Y118.964 E0.10024
G1 X128.630 Y119.497 E0.01673
G1 X126.370 Y117.237 E0.10024
G1 X126.370 Y117.770 E0.01673
G1 X137.730 Y129.130 E0.50381
G1 X138.263 Y129.130 E0.01673
G1 X129.503 Y120.370 E0.38852
G1 X130.036 Y120.370 E0.01673
G1 X138.796 Y129.130 E0.38852
G1 X139.330 Y129.130 E0.01673
G1 X130.569 Y120.370 E0.38852
G1 X131.103 Y120.370 E0.01673
G1 X139.863 Y129.130 E0.38852
G1 X140.396 Y129.130 E0.01673
G1 X131.636 Y120.370 E0.38852
G1 X132.170 Y120.370 E0.01673
G1 X140.930 Y129.130 E0.38852
G1 X141.463 Y129.130 E0.01673
G1 X132.703 Y120.370 E0.38852
G1 X133.236 Y120.370 E0.01673
G1 X141.630 Y128.764 E0.37227
G1 X141.630 Y128.230 E0.01673
G1 X133.770 Y120.370 E0.34862
G1 X134.303 Y120.370 E0.01673
G1 X141.630 Y127.697 E0.32496
G1 X141.630 Y127.164 E0.01673
G1 X134.836 Y120.370 E0.30130
G1 X135.370 Y120.370 E0.01673
G1 X141.630 Y126.630 E0.27765
G1 X141.630 Y126.097 E0.01673
G1 X135.903 Y120.370 E0.25399
G1 X136.437 Y120.370 E0.01673
G1 X141.630 Y125.563 E0.23034
G1 X141.630 Y125.030 E0.01673
G1 X136.970 Y120.370 E0.20668
G1 X137.503 Y120.370 E0.01673
G1 X141.630 Y124.497 E0.18303
G1 X141.630 Y123.963 E0.01673
G1 X138.037 Y120.370 E0.15937
G1 X138.570 Y120.370 E0.01673
G1 X141.630 Y123.430 E0.13571
G1 X141.630 Y122.897 E0.01673
G1 X139.104 Y120.370 E0.11206
G1 X139.637 Y120.370 E0.01673
G1 X141.630 Y122.363 E0.08840
G1 X141.630 Y121.830 E0.01673
G1 X140.170 Y120.370 E0.06475
G1 X140.704 Y120.370 E0.01673
G1 X141.630 Y121.296 E0.04109
G1 X141.630 Y120.763 E0.01673
G1 X141.256 Y120.389 E0.01660
G1 X141.500 Y120.276 F10800.000
G1 F1800
G1 X141.500 Y88.724 E1.17734
G1 F8640
G1 X141.500 Y92.016 E-0.76000
G1 E-0.04000 F2100.00000
G1 Z0.800 F10800.000
G1 X125.668 Y88.800
G1 Z0.200
G1 E0.80000 F2100.00000
G1 F1800
G1 X117.738 Y80.870 E0.35170
G1 X117.205 Y80.870 E0.01673
G1 X124.965 Y88.630 E0.34417
G1 X124.432 Y88.630 E0.01673
G1 X116.672 Y80.870 E0.34417
G1 X116.138 Y80.870 E0.01673
G1 X123.899 Y88.630 E0.34417
G1 X123.365 Y88.630 E0.01673
G1 X115.605 Y80.870 E0.34417
G1 X115.071 Y80.870 E0.01673
G1 X122.832 Y88.630 E0.34417
G1 X122.298 Y88.630 E0.01673
G1 X114.538 Y80.870 E0.34417
G1 X114.005 Y80.870 E0.01673
G1 X121.765 Y88.630 E0.34417
G1 X121.232 Y88.630 E0.01673
G1 X113.471 Y80.870 E0.34417
G1 X112.938 Y80.870 E0.01673
G1 X120.698 Y88.630 E0.34417
G1 X120.165 Y88.630 E0.01673
G1 X112.405 Y80.870 E0.34417
G1 X111.871 Y80.870 E0.01673
G1 X119.631 Y88.630 E0.34417
G1 X119.098 Y88.630 E0.01673
G1 X111.338 Y80.870 E0.34417
G1 X110.804 Y80.870 E0.01673
G1 X118.565 Y88.630 E0.34417
G1 X118.031 Y88.630 E0.01673
G1 X110.271 Y80.870 E0.34417
G1 X109.738 Y80.870 E0.01673
G1 X117.498 Y88.630 E0.34417
G1 X116.965 Y88.630 E0.01673
G1 X109.204 Y80.870 E0.34417
G1 X108.671 Y80.870 E0.01673
G1 X116.431 Y88.630 E0.34417
G1 X115.898 Y88.630 E0.01673
G1 X108.138 Y80.870 E0.34417
G1 X107.604 Y80.870 E0.01673
G1 X115.364 Y88.630 E0.34417
G1 X114.831 Y88.630 E0.01673
G1 X107.071 Y80.870 E0.34417
G1 X106.537 Y80.870 E0.01673
G1 X114.298 Y88.630 E0.34417
G1 X113.764 Y88.630 E0.01673
G1 X106.004 Y80.870 E0.34417
G1 X105.471 Y80.870 E0.01673
G1 X113.630 Y89.029 E0.36188
G1 X113.630 Y89.563 E0.01673
G1 X104.937 Y80.870 E0.38553
G1 X104.404 Y80.870 E0.01673
G1 X113.630 Y90.096 E0.40919
G1 X113.630 Y90.629 E0.01673
G1 X103.871 Y80.870 E0.43284
G1 X103.337 Y80.870 E0.01673
G1 X113.630 Y91.163 E0.45650
G1 X113.630 Y91.696 E0.01673
G1 X111.370 Y89.436 E0.10024
G1 X111.370 Y89.969 E0.01673
G1 X113.630 Y92.230 E0.10024
G1 X113.630 Y92.763 E0.01673
G1 X111.370 Y90.503 E0.10024
G1 X111.370 Y91.036 E0.01673
G1 X113.630 Y93.296 E0.10024
G1 X113.630 Y93.830 E0.01673
G1 X111.370 Y91.569 E0.10024
G1 X111.370 Y92.103 E0.01673
G1 X113.630 Y94.363 E0.10024
G1 X113.630 Y94.897 E0.01673
G1 X111.370 Y92.636 E0.10024
G1 X111.370 Y93.170 E0.01673
G1 X113.630 Y95.430 E0.10024
G1 X113.630 Y95.963 E0.01673
G1 X111.370 Y93.703 E0.10024
G1 X111.370 Y94.236 E0.01673
G1 X113.630 Y96.497 E0.10024
G1 X113.630 Y97.030 E0.01673
G1 X111.370 Y94.770 E0.10024
G1 X111.370 Y95.303 E0.01673
G1 X113.630 Y97.563 E0.10024
G1 X113.630 Y98.097 E0.01673
G1 X111.370 Y95.837 E0.10024
G1 X111.370 Y96.370 E0.01673
G1 X113.630 Y98.630 E0.10024
G1 X113.630 Y99.164 E0.01673
G1 X111.370 Y96.903 E0.10024
G1 X111.370 Y97.437 E0.01673
G1 X113.630 Y99.697 E0.10024
G1 X113.630 Y100.230 E0.01673
G1 X111.370 Y97.970 E0.10024
G1 X111.370 Y98.503 E0.01673
G1 X113.630 Y100.764 E0.10024
G1 X113.630 Y101.297 E0.01673
G1 X111.370 Y99.037 E0.10024
G1 X111.370 Y99.570 E0.01673
G1 X113.630 Y101.830 E0.10024
G1 X113.630 Y102.364 E0.01673
G1 X111.370 Y100.104 E0.10024
G1 X111.370 Y100.637 E0.01673
G1 X113.630 Y102.897 E0.10024
G1 X113.630 Y103.431 E0.01673
G1 X111.370 Y101.170 E0.10024
G1 X111.370 Y101.704 E0.01673
G1 X113.630 Y103.964 E0.10024
G1 X113.630 Y104.497 E0.01673
G1 X111.370 Y102.237 E0.10024
G1 X111.370 Y102.770 E0.01673
G1 X113.630 Y105.031 E0.10024
G1 X113.630 Y105.564 E0.01673
G1 X111.370 Y103.304 E0.10024
G1 X111.370 Y103.837 E0.01673
G1 X113.630 Y106.097 E0.10024
G1 X113.630 Y106.631 E0.01673
G1 X111.370 Y104.371 E0.10024
G1 X111.370 Y104.904 E0.01673
G1 X113.630 Y107.164 E0.10024
G1 X113.630 Y107.698 E0.01673
G1 X111.370 Y105.437 E0.10024
G1 X111.370 Y105.971 E0.01673
G1 X113.630 Y108.231 E0.10024
G1 X113.630 Y108.764 E0.01673
G1 X111.370 Y106.504 E0.10024
G1 X111.370 Y107.037 E0.01673
G1 X113.630 Y109.298 E0.10024
G1 X113.630 Y109.831 E0.01673
G1 X111.370 Y107.571 E0.10024
G1 X111.370 Y108.104 E0.01673
G1 X113.630 Y110.364 E0.10024
G1 X113.630 Y110.898 E0.01673
G1 X111.370 Y108.638 E0.10024
G1 X111.370 Y109.171 E0.01673
G1 X113.630 Y111.431 E0.10024
G1 X113.630 Y111.965 E0.01673
G1 X111.370 Y109.704 E0.10024
G1 X111.370 Y110.238 E0.01673
G1 X113.630 Y112.498 E0.10024
G1 X113.630 Y113.031 E0.01673
G1 X111.370 Y110.771 E0.10024
G1 X111.370 Y111.305 E0.01673
G1 X113.630 Y113.565 E0.10024
G1 X113.630 Y114.098 E0.01673
G1 X111.370 Y111.838 E0.10024
G1 X111.370 Y112.371 E0.01673
G1 X113.630 Y114.632 E0.10024
G1 X113.630 Y115.165 E0.01673
G1 X111.370 Y112.905 E0.10024
G1 X111.370 Y113.438 E0.01673
G1 X113.630 Y115.698 E0.10024
G1 X113.630 Y116.232 E0.01673
G1 X111.370 Y113.971 E0.10024
G1 X111.370 Y114.505 E0.01673
G1 X113.630 Y116.765 E0.10024
G1 X113.630 Y117.298 E0.01673
G1 X111.370 Y115.038 E0.10024
G1 X111.370 Y115.572 E0.01673
G1 X113.630 Y117.832 E0.10024
G1 X113.630 Y118.365 E0.01673
G1 X111.370 Y116.105 E0.10024
G1 X111.370 Y116.638 E0.01673
G1 X113.630 Y118.899 E0.10024
G1 X113.630 Y119.432 E0.01673
