; generated by Slic3r Prusa Edition 1.39.1-prusa3d-win64 on 2018-06-10 at 15:27:21

; 

; external perimeters extrusion width = 0.45mm
; perimeters extrusion width = 0.45mm
; infill extrusion width = 0.45mm
; solid infill extrusion width = 0.45mm
; top infill extrusion width = 0.40mm
; first layer extrusion width = 0.42mm

M107
M115 U3.1.1-RC5 ; tell printer latest fw version
M201 X1000 Y1000 Z200 E5000 ; sets maximum accelerations, mm/sec^2
M203 X200 Y200 Z12 E120 ; sets maximum feedrates, mm/sec
M204 S1250 T1250 ; sets acceleration (S) and retract acceleration (T)
M205 X10 Y10 Z0.4 E2.5 ; sets the jerk limits, mm/sec
M205 S0 T0 ; sets the minimum extruding and travel feed rate, mm/sec
M83  ; extruder relative mode
M104 S215 ; set extruder temp
M140 S60 ; set bed temp
M190 S60 ; wait for bed temp
M109 S215 ; wait for extruder temp
G28 W ; home all without mesh bed level
G80 ; mesh bed leveling
G1 Y-3.0 F1000.0 ; go outside print area
G92 E0.0
G1 X60.0 E9.0  F1000.0 ; intro line
G1 X100.0 E12.5  F1000.0 ; intro line
G92 E0.0
M221 S95
M900 K30; Filament gcode
G21 ; set units to millimeters
G90 ; use absolute coordinates
M83 ; use relative distances for extrusion
;BEFORE_LAYER_CHANGE
;0.2


G1 E-0.80000 F2100.00000
G1 Z0.600 F10200.000
;AFTER_LAYER_CHANGE
;0.2
G1 X152.980 Y131.836 F10200.000
G1 Z0.200 F10200.000
G1 E0.80000 F2100.00000
M204 S1000
G1 F1800
G1 X152.655 Y132.471 E0.02237
G1 X152.289 Y132.874 E0.01704
G1 X151.845 Y133.180 E0.01692
G1 X151.340 Y133.380 E0.01704
G1 X150.802 Y133.460 E0.01704
G1 X106.120 Y133.937 E1.40105
G1 X105.032 Y133.875 E0.03417
G1 X103.919 Y133.639 E0.03565
G1 X102.864 Y133.240 E0.03538
G1 X101.828 Y132.646 E0.03743
G1 X100.652 Y131.644 E0.04845
G1 X99.852 Y130.640 E0.04025
G1 X99.116 Y129.218 E0.05020
G1 X98.706 Y127.668 E0.05028
G1 X96.974 Y107.213 E0.64365
G1 X96.898 Y104.981 E0.07003
G1 X97.012 Y102.757 E0.06980
G1 X97.310 Y100.534 E0.07033
G1 X97.667 Y98.810 E0.05522
G1 X98.289 Y96.603 E0.07189
G1 X99.080 Y94.443 E0.07212
G1 X100.043 Y92.329 E0.07284
G1 X101.163 Y90.293 E0.07286
G1 X102.442 Y88.341 E0.07315
G1 X103.839 Y86.531 E0.07171
G1 X105.380 Y84.833 E0.07189
G1 X107.039 Y83.284 E0.07117
G1 X108.791 Y81.904 E0.06992
G1 X110.649 Y80.686 E0.06966
G1 X112.151 Y79.861 E0.05372
G1 X114.133 Y78.968 E0.06817
G1 X116.186 Y78.254 E0.06814
G1 X118.848 Y77.615 E0.08586
G1 X121.524 Y77.270 E0.08458
G1 X142.559 Y76.063 E0.66062
G1 X143.712 Y76.136 E0.03622
G1 X145.201 Y76.508 E0.04814
G1 X146.291 Y77.009 E0.03760
G1 X147.295 Y77.689 E0.03803
G1 X148.381 Y78.765 E0.04794
G1 X149.067 Y79.756 E0.03779
G1 X149.580 Y80.847 E0.03779
G1 X149.966 Y82.326 E0.04795
G1 X153.099 Y111.758 E0.92801
G1 X153.101 Y131.133 E0.60751
G1 X152.990 Y131.777 E0.02049
G1 F8160
G1 X152.655 Y132.471 E-0.18847
G1 F8160
G1 X152.289 Y132.874 E-0.13288
G1 F8160
G1 X151.845 Y133.180 E-0.13195
G1 F8160
G1 X151.340 Y133.380 E-0.13288
G1 F8160
G1 X150.802 Y133.460 E-0.13288
G1 F8160
G1 X150.635 Y133.461 E-0.04094
G1 E-0.04000 F2100.00000
G1 Z0.800 F10200.000
G1 X108.313 Y126.866 F10200.000
G1 Z0.200 F10200.000
G1 E0.80000 F2100.00000
G1 F1800
G1 X108.256 Y127.155 E0.00924
G1 X108.156 Y127.454 E0.00986
G1 X108.020 Y127.729 E0.00962
G1 X107.850 Y127.983 E0.00958
G1 X107.649 Y128.212 E0.00958
G1 X107.419 Y128.414 E0.00958
G1 X107.174 Y128.578 E0.00924
G1 X106.893 Y128.718 E0.00986
G1 X106.602 Y128.817 E0.00962
G1 X106.303 Y128.876 E0.00958
G1 X105.998 Y128.896 E0.00958
G1 X105.693 Y128.876 E0.00958
G1 X105.394 Y128.817 E0.00958
G1 X105.104 Y128.719 E0.00958
G1 X104.830 Y128.584 E0.00958
G1 X104.577 Y128.414 E0.00958
G1 X104.347 Y128.212 E0.00958
G1 X104.146 Y127.983 E0.00958
G1 X103.976 Y127.729 E0.00958
G1 X103.841 Y127.455 E0.00958
G1 X103.743 Y127.166 E0.00958
G1 X103.683 Y126.866 E0.00958
G1 X103.663 Y126.561 E0.00958
G1 X103.683 Y126.257 E0.00958
G1 X103.743 Y125.957 E0.00958
G1 X103.841 Y125.668 E0.00958
G1 X103.976 Y125.394 E0.00958
G1 X104.140 Y125.149 E0.00924
G1 X104.346 Y124.911 E0.00986
G1 X104.577 Y124.709 E0.00962
G1 X104.830 Y124.539 E0.00958
G1 X105.104 Y124.404 E0.00958
G1 X105.394 Y124.306 E0.00958
G1 X105.693 Y124.246 E0.00958
G1 X105.987 Y124.227 E0.00924
G1 X106.301 Y124.246 E0.00986
G1 X106.602 Y124.306 E0.00962
G1 X106.892 Y124.404 E0.00958
G1 X107.166 Y124.539 E0.00958
G1 X107.419 Y124.709 E0.00958
G1 X107.649 Y124.910 E0.00958
G1 X107.850 Y125.140 E0.00958
G1 X108.020 Y125.394 E0.00958
G1 X108.155 Y125.668 E0.00958
G1 X108.253 Y125.957 E0.00958
G1 X108.313 Y126.257 E0.00958
G1 X108.333 Y126.561 E0.00958
G1 X108.317 Y126.806 E0.00770
G1 X107.941 Y126.782 F10200.000
G1 F1800
G1 X107.890 Y127.058 E0.00882
G1 X107.806 Y127.310 E0.00831
G1 X107.693 Y127.540 E0.00804
G1 X107.551 Y127.753 E0.00803
G1 X107.382 Y127.945 E0.00803
G1 X107.189 Y128.114 E0.00803
G1 X106.985 Y128.251 E0.00772
G1 X106.747 Y128.369 E0.00831
G1 X106.505 Y128.452 E0.00804
G1 X106.253 Y128.502 E0.00803
G1 X105.998 Y128.518 E0.00803
G1 X105.743 Y128.502 E0.00803
G1 X105.491 Y128.452 E0.00803
G1 X105.249 Y128.369 E0.00803
G1 X105.019 Y128.256 E0.00803
G1 X104.807 Y128.114 E0.00803
G1 X104.614 Y127.945 E0.00803
G1 X104.445 Y127.753 E0.00803
G1 X104.303 Y127.540 E0.00803
G1 X104.190 Y127.310 E0.00803
G1 X104.108 Y127.068 E0.00803
G1 X104.058 Y126.817 E0.00803
G1 X104.041 Y126.561 E0.00803
G1 X104.058 Y126.306 E0.00803
G1 X104.108 Y126.055 E0.00803
G1 X104.190 Y125.812 E0.00803
G1 X104.303 Y125.583 E0.00803
G1 X104.440 Y125.378 E0.00772
G1 X104.614 Y125.178 E0.00831
G1 X104.807 Y125.009 E0.00804
G1 X105.019 Y124.866 E0.00803
G1 X105.249 Y124.753 E0.00803
G1 X105.491 Y124.671 E0.00803
G1 X105.743 Y124.621 E0.00803
G1 X105.988 Y124.605 E0.00772
G1 X106.253 Y124.621 E0.00831
G1 X106.505 Y124.671 E0.00804
G1 X106.747 Y124.753 E0.00803
G1 X106.977 Y124.866 E0.00803
G1 X107.189 Y125.009 E0.00803
G1 X107.382 Y125.177 E0.00803
G1 X107.551 Y125.370 E0.00803
G1 X107.693 Y125.583 E0.00803
G1 X107.806 Y125.812 E0.00803
G1 X107.888 Y126.055 E0.00803
G1 X107.938 Y126.306 E0.00803
G1 X107.955 Y126.561 E0.00803
G1 X107.945 Y126.722 E0.00504
G1 X108.166 Y126.950 F10200.000
G1 F8160
G1 X107.890 Y127.058 E-0.08336
G1 F8160
G1 X107.806 Y127.310 E-0.06482
G1 F8160
G1 X107.693 Y127.540 E-0.06272
G1 F8160
G1 X107.551 Y127.753 E-0.06259
G1 F8160
G1 X107.382 Y127.945 E-0.06259
G1 F8160
G1 X107.189 Y128.114 E-0.06259
G1 F8160
G1 X106.985 Y128.251 E-0.06020
G1 F8160
G1 X106.747 Y128.369 E-0.06483
G1 F8160
G1 X106.505 Y128.452 E-0.06272
G1 F8160
G1 X106.253 Y128.502 E-0.06259
G1 F8160
G1 X105.998 Y128.518 E-0.06259
G1 F8160
G1 X105.800 Y128.506 E-0.04840
G1 E-0.04000 F2100.00000
G1 Z0.800 F10200.000
G1 X141.261 Y85.298 F10200.000
G1 Z0.200 F10200.000
G1 E0.80000 F2100.00000
G1 F1800
G1 X141.023 Y85.092 E0.00987
G1 X140.821 Y84.861 E0.00963
G1 X140.657 Y84.616 E0.00925
G1 X140.516 Y84.334 E0.00987
G1 X140.418 Y84.043 E0.00963
G1 X140.360 Y83.754 E0.00925
G1 X140.338 Y83.440 E0.00987
G1 X140.358 Y83.134 E0.00963
G1 X140.418 Y82.834 E0.00958
G1 X140.516 Y82.544 E0.00958
G1 X140.651 Y82.270 E0.00958
G1 X140.821 Y82.016 E0.00958
G1 X141.022 Y81.786 E0.00958
G1 X141.252 Y81.585 E0.00958
G1 X141.506 Y81.415 E0.00958
G1 X141.780 Y81.280 E0.00958
G1 X142.070 Y81.182 E0.00958
G1 X142.370 Y81.122 E0.00958
G1 X142.664 Y81.103 E0.00925
G1 X142.978 Y81.122 E0.00987
G1 X143.279 Y81.182 E0.00963
G1 X143.569 Y81.280 E0.00958
G1 X143.843 Y81.415 E0.00958
G1 X144.097 Y81.585 E0.00958
G1 X144.327 Y81.786 E0.00958
G1 X144.528 Y82.016 E0.00958
G1 X144.692 Y82.261 E0.00925
G1 X144.833 Y82.543 E0.00987
G1 X144.932 Y82.834 E0.00963
G1 X144.991 Y83.134 E0.00958
G1 X145.011 Y83.439 E0.00958
G1 X144.991 Y83.744 E0.00958
G1 X144.932 Y84.043 E0.00958
G1 X144.833 Y84.333 E0.00958
G1 X144.698 Y84.607 E0.00958
G1 X144.528 Y84.861 E0.00958
G1 X144.327 Y85.091 E0.00958
G1 X144.097 Y85.292 E0.00958
G1 X143.843 Y85.462 E0.00958
G1 X143.569 Y85.597 E0.00958
G1 X143.279 Y85.696 E0.00958
G1 X142.990 Y85.753 E0.00925
G1 X142.676 Y85.775 E0.00987
G1 X142.370 Y85.755 E0.00963
G1 X142.070 Y85.696 E0.00958
G1 X141.780 Y85.597 E0.00958
G1 X141.506 Y85.462 E0.00958
G1 X141.311 Y85.332 E0.00737
G1 X141.521 Y85.018 F10200.000
G1 F1800
G1 X141.290 Y84.824 E0.00945
G1 X141.121 Y84.631 E0.00805
G1 X140.984 Y84.426 E0.00773
G1 X140.865 Y84.189 E0.00832
G1 X140.783 Y83.946 E0.00805
G1 X140.735 Y83.704 E0.00773
G1 X140.716 Y83.439 E0.00832
G1 X140.733 Y83.183 E0.00805
G1 X140.783 Y82.932 E0.00803
G1 X140.865 Y82.689 E0.00803
G1 X140.978 Y82.459 E0.00803
G1 X141.121 Y82.246 E0.00803
G1 X141.290 Y82.054 E0.00803
G1 X141.482 Y81.885 E0.00803
G1 X141.695 Y81.742 E0.00803
G1 X141.925 Y81.629 E0.00803
G1 X142.168 Y81.547 E0.00803
G1 X142.419 Y81.497 E0.00803
G1 X142.665 Y81.480 E0.00773
G1 X142.930 Y81.497 E0.00832
G1 X143.182 Y81.547 E0.00805
G1 X143.424 Y81.629 E0.00803
G1 X143.654 Y81.742 E0.00803
G1 X143.867 Y81.885 E0.00803
G1 X144.060 Y82.054 E0.00803
G1 X144.229 Y82.246 E0.00803
G1 X144.366 Y82.451 E0.00773
G1 X144.484 Y82.688 E0.00832
G1 X144.567 Y82.932 E0.00805
G1 X144.617 Y83.183 E0.00803
G1 X144.633 Y83.439 E0.00803
G1 X144.617 Y83.694 E0.00803
G1 X144.567 Y83.946 E0.00803
G1 X144.484 Y84.188 E0.00803
G1 X144.371 Y84.418 E0.00803
G1 X144.229 Y84.631 E0.00803
G1 X144.060 Y84.824 E0.00803
G1 X143.867 Y84.993 E0.00803
G1 X143.654 Y85.135 E0.00803
G1 X143.424 Y85.248 E0.00803
G1 X143.182 Y85.331 E0.00803
G1 X142.940 Y85.379 E0.00773
G1 X142.675 Y85.397 E0.00832
G1 X142.419 Y85.381 E0.00805
G1 X142.168 Y85.331 E0.00803
G1 X141.925 Y85.248 E0.00803
G1 X141.570 Y85.051 E0.01272
G1 X141.247 Y85.144 F10200.000
G1 F8160
G1 X141.290 Y84.824 E-0.08827
G1 F8160
G1 X141.121 Y84.631 E-0.06277
G1 F8160
G1 X140.984 Y84.426 E-0.06025
G1 F8160
G1 X140.865 Y84.189 E-0.06488
G1 F8160
G1 X140.783 Y83.946 E-0.06277
G1 F8160
G1 X140.735 Y83.704 E-0.06025
G1 F8160
G1 X140.716 Y83.439 E-0.06488
G1 F8160
G1 X140.733 Y83.183 E-0.06277
G1 F8160
G1 X140.783 Y82.932 E-0.06264
G1 F8160
G1 X140.865 Y82.689 E-0.06264
G1 F8160
G1 X140.978 Y82.459 E-0.06264
G1 F8160
G1 X141.081 Y82.305 E-0.04524
G1 E-0.04000 F2100.00000
G1 Z0.800 F10200.000
G1 X150.015 Y112.402 F10200.000
G1 Z0.200 F10200.000
G1 E0.80000 F2100.00000
G1 F1800
G1 X150.138 Y112.420 E0.00389
G1 X150.138 Y130.497 E0.56679
G1 X125.329 Y130.497 E0.77787
G1 X124.528 Y130.486 E0.02511
G1 X122.961 Y130.400 E0.04921
G1 X122.211 Y130.326 E0.02362
G1 X120.728 Y130.112 E0.04699
G1 X120.020 Y129.977 E0.02260
G1 X118.618 Y129.642 E0.04521
G1 X117.949 Y129.448 E0.02182
G1 X116.629 Y128.998 E0.04375
G1 X115.362 Y128.477 E0.04296
G1 X114.051 Y127.843 E0.04566
G1 X113.601 Y127.768 E0.01428
G1 X113.207 Y127.736 E0.01239
G1 X112.812 Y127.736 E0.01239
G1 X112.421 Y127.768 E0.01231
G1 X112.029 Y127.833 E0.01247
G1 X111.646 Y127.930 E0.01240
G1 X111.272 Y128.058 E0.01239
G1 X110.910 Y128.217 E0.01239
G1 X110.562 Y128.405 E0.01239
G1 X110.233 Y128.619 E0.01231
G1 X109.919 Y128.863 E0.01247
G1 X109.627 Y129.130 E0.01241
G1 X109.131 Y129.669 E0.02296
G1 X108.883 Y129.900 E0.01061
G1 X108.619 Y130.111 E0.01060
G1 X108.340 Y130.301 E0.01060
G1 X108.047 Y130.469 E0.01060
G1 X107.742 Y130.615 E0.01060
G1 X107.429 Y130.735 E0.01052
G1 X107.102 Y130.833 E0.01068
G1 X106.772 Y130.905 E0.01059
G1 X106.437 Y130.952 E0.01060
G1 X106.100 Y130.973 E0.01060
G1 X105.762 Y130.968 E0.01060
G1 X105.428 Y130.937 E0.01052
G1 X105.092 Y130.880 E0.01068
G1 X104.764 Y130.798 E0.01059
G1 X104.446 Y130.692 E0.01052
G1 X104.132 Y130.560 E0.01068
G1 X103.831 Y130.405 E0.01059
G1 X103.544 Y130.228 E0.01060
G1 X103.270 Y130.030 E0.01060
G1 X103.013 Y129.811 E0.01060
G1 X102.774 Y129.574 E0.01052
G1 X102.552 Y129.317 E0.01068
G1 X102.351 Y129.045 E0.01059
G1 X102.171 Y128.758 E0.01060
G1 X102.014 Y128.459 E0.01060
G1 X101.881 Y128.148 E0.01060
G1 X101.772 Y127.831 E0.01052
G1 X101.687 Y127.501 E0.01068
G1 X101.628 Y127.169 E0.01059
G1 X101.594 Y126.835 E0.01052
G1 X101.586 Y126.494 E0.01068
G1 X101.604 Y126.157 E0.01059
G1 X101.648 Y125.822 E0.01060
G1 X101.717 Y125.491 E0.01060
G1 X101.811 Y125.169 E0.01052
G1 X101.931 Y124.850 E0.01068
G1 X102.074 Y124.544 E0.01059
G1 X102.240 Y124.249 E0.01060
G1 X102.428 Y123.968 E0.01059
G1 X102.907 Y123.360 E0.02430
G1 X103.152 Y122.999 E0.01368
G1 X103.370 Y122.620 E0.01368
G1 X103.559 Y122.227 E0.01368
G1 X103.720 Y121.822 E0.01368
G1 X103.850 Y121.405 E0.01368
G1 X103.950 Y120.980 E0.01368
G1 X104.018 Y120.549 E0.01368
G1 X104.055 Y120.114 E0.01368
G1 X104.060 Y119.678 E0.01368
G1 X104.033 Y119.242 E0.01368
G1 X103.975 Y118.810 E0.01368
G1 X103.869 Y118.306 E0.01613
G1 X103.065 Y116.974 E0.04878
G1 X102.605 Y116.132 E0.03010
G1 X102.178 Y115.275 E0.03002
G1 X101.783 Y114.404 E0.02998
G1 X101.422 Y113.520 E0.02996
G1 X101.096 Y112.625 E0.02986
G1 X100.673 Y111.248 E0.04516
G1 X100.440 Y110.322 E0.02996
G1 X100.244 Y109.381 E0.03014
G1 X100.088 Y108.428 E0.03026
G1 X99.972 Y107.465 E0.03041
G1 X99.897 Y106.493 E0.03058
G1 X99.864 Y105.515 E0.03068
G1 X99.892 Y104.023 E0.04678
G1 X99.963 Y103.029 E0.03126
G1 X100.076 Y102.034 E0.03139
G1 X100.327 Y100.520 E0.04812
G1 X100.545 Y99.521 E0.03207
G1 X100.805 Y98.522 E0.03236
G1 X101.104 Y97.529 E0.03253
G1 X101.444 Y96.543 E0.03268
G1 X101.822 Y95.568 E0.03279
G1 X102.239 Y94.606 E0.03287
G1 X102.692 Y93.659 E0.03292
G1 X103.181 Y92.730 E0.03292
G1 X103.704 Y91.821 E0.03289
G1 X104.260 Y90.934 E0.03283
G1 X104.849 Y90.072 E0.03272
G1 X105.467 Y89.236 E0.03259
G1 X106.115 Y88.430 E0.03243
G1 X106.791 Y87.655 E0.03225
G1 X107.493 Y86.912 E0.03204
G1 X108.216 Y86.209 E0.03162
G1 X109.358 Y85.207 E0.04763
G1 X110.139 Y84.592 E0.03118
G1 X110.941 Y84.016 E0.03097
G1 X112.189 Y83.219 E0.04644
G1 X113.037 Y82.741 E0.03051
G1 X113.904 Y82.303 E0.03047
G1 X114.786 Y81.905 E0.03034
G1 X115.683 Y81.548 E0.03025
G1 X116.592 Y81.232 E0.03018
G1 X117.513 Y80.957 E0.03013
G1 X118.444 Y80.723 E0.03011
G1 X119.385 Y80.530 E0.03010
G1 X120.330 Y80.378 E0.03002
G1 X121.771 Y80.224 E0.04543
G1 X122.730 Y80.171 E0.03012
G1 X123.695 Y80.158 E0.03026
G1 X124.658 Y80.183 E0.03022
G1 X126.112 Y80.293 E0.04572
G1 X127.072 Y80.412 E0.03031
G1 X128.029 Y80.569 E0.03042
G1 X128.980 Y80.763 E0.03042
G1 X129.922 Y80.991 E0.03040
G1 X130.851 Y81.255 E0.03027
G1 X132.227 Y81.716 E0.04550
G1 X133.565 Y82.251 E0.04518
G1 X134.529 Y82.690 E0.03320
G1 X134.985 Y82.746 E0.01442
G1 X135.379 Y82.761 E0.01237
G1 X135.774 Y82.742 E0.01237
G1 X136.165 Y82.690 E0.01237
G1 X136.548 Y82.605 E0.01229
G1 X136.926 Y82.486 E0.01245
G1 X137.292 Y82.336 E0.01238
G1 X137.641 Y82.157 E0.01229
G1 X137.977 Y81.946 E0.01245
G1 X138.293 Y81.709 E0.01238
G1 X138.587 Y81.446 E0.01238
G1 X138.858 Y81.157 E0.01244
G1 X139.310 Y80.583 E0.02289
G1 X139.539 Y80.334 E0.01062
G1 X139.786 Y80.103 E0.01060
G1 X140.050 Y79.892 E0.01060
G1 X140.329 Y79.701 E0.01060
G1 X140.622 Y79.533 E0.01060
G1 X140.927 Y79.387 E0.01060
G1 X141.240 Y79.266 E0.01052
G1 X141.566 Y79.168 E0.01068
G1 X141.896 Y79.095 E0.01059
G1 X142.231 Y79.048 E0.01060
G1 X142.568 Y79.027 E0.01060
G1 X142.904 Y79.032 E0.01052
G1 X143.243 Y79.063 E0.01068
G1 X143.576 Y79.119 E0.01059
G1 X143.904 Y79.201 E0.01060
G1 X144.225 Y79.307 E0.01060
G1 X144.537 Y79.438 E0.01060
G1 X144.837 Y79.592 E0.01060
G1 X145.123 Y79.768 E0.01052
G1 X145.399 Y79.968 E0.01068
G1 X145.657 Y80.186 E0.01059
G1 X145.897 Y80.424 E0.01060
G1 X146.118 Y80.680 E0.01060
G1 X146.319 Y80.952 E0.01060
G1 X146.499 Y81.238 E0.01060
G1 X146.655 Y81.535 E0.01052
G1 X146.790 Y81.848 E0.01068
G1 X146.900 Y82.167 E0.01059
G1 X146.985 Y82.494 E0.01060
G1 X147.045 Y82.827 E0.01060
G1 X147.079 Y83.163 E0.01060
G1 X147.087 Y83.499 E0.01052
G1 X147.069 Y83.839 E0.01068
G1 X147.025 Y84.174 E0.01059
G1 X146.956 Y84.505 E0.01060
G1 X146.862 Y84.830 E0.01060
G1 X146.743 Y85.146 E0.01060
G1 X146.601 Y85.452 E0.01060
G1 X146.436 Y85.746 E0.01054
G1 X145.958 Y86.452 E0.02672
G1 X145.695 Y86.888 E0.01599
G1 X145.455 Y87.339 E0.01603
G1 X145.241 Y87.804 E0.01603
G1 X145.053 Y88.279 E0.01603
G1 X144.891 Y88.764 E0.01603
G1 X144.757 Y89.257 E0.01603
G1 X144.650 Y89.757 E0.01603
G1 X144.572 Y90.263 E0.01603
G1 X144.522 Y90.771 E0.01603
G1 X144.500 Y91.282 E0.01603
