; generated by Slic3r Prusa Edition 1.39.1-prusa3d-win64 on 2018-06-09 at 16:28:34

; 

; external perimeters extrusion width = 0.45mm
; perimeters extrusion width = 0.45mm
; infill extrusion width = 0.45mm
; solid infill extrusion width = 0.45mm
; top infill extrusion width = 0.40mm
; first layer extrusion width = 0.42mm

M107
M115 U3.1.1-RC5 ; tell printer latest fw version
M201 X1000 Y1000 Z200 E5000 ; sets maximum accelerations, mm/sec^2
M203 X200 Y200 Z12 E120 ; sets maximum feedrates, mm/sec
M204 S1250 T1250 ; sets acceleration (S) and retract acceleration (T)
M205 X10 Y10 Z0.4 E2.5 ; sets the jerk limits, mm/sec
M205 S0 T0 ; sets the minimum extruding and travel feed rate, mm/sec
M83  ; extruder relative mode
M104 S215 ; set extruder temp
M140 S60 ; set bed temp
M190 S60 ; wait for bed temp
M109 S215 ; wait for extruder temp
G28 W ; home all without mesh bed level
G80 ; mesh bed leveling
G1 Y-3.0 F1000.0 ; go outside print area
G92 E0.0
G1 X60.0 E9.0  F1000.0 ; intro line
G1 X100.0 E12.5  F1000.0 ; intro line
G92 E0.0
M221 S95
M900 K30; Filament gcode
G21 ; set units to millimeters
G90 ; use absolute coordinates
M83 ; use relative distances for extrusion
;BEFORE_LAYER_CHANGE
;0.2


G1 E-0.80000 F2100.00000
G1 Z0.600 F10200.000
;AFTER_LAYER_CHANGE
;0.2
G1 X97.691 Y80.545 F10200.000
G1 Z0.200 F10200.000
G1 E0.80000 F2100.00000
M204 S1000
G1 F1800
G1 X98.912 Y79.368 E0.05317
G1 X100.366 Y78.502 E0.05305
G1 X102.012 Y77.984 E0.05412
G1 X103.074 Y77.861 E0.03351
G1 X125.407 Y76.866 E0.70093
G1 X127.484 Y76.934 E0.06515
G1 X129.074 Y77.097 E0.05013
G1 X130.672 Y77.362 E0.05078
G1 X132.237 Y77.727 E0.05040
G1 X133.787 Y78.196 E0.05077
G1 X135.743 Y78.954 E0.06577
G1 X137.225 Y79.661 E0.05148
G1 X138.651 Y80.462 E0.05128
G1 X140.021 Y81.353 E0.05124
G1 X141.360 Y82.353 E0.05243
G1 X142.997 Y83.772 E0.06790
G1 X144.194 Y84.970 E0.05311
G1 X145.314 Y86.234 E0.05295
G1 X146.374 Y87.584 E0.05382
G1 X147.628 Y89.420 E0.06971
G1 X148.507 Y90.905 E0.05411
G1 X149.769 Y93.459 E0.08932
G1 X150.785 Y96.107 E0.08892
G1 X151.540 Y98.819 E0.08827
G1 X152.020 Y101.547 E0.08687
G1 X153.970 Y123.100 E0.67855
G1 X153.968 Y124.158 E0.03315
G1 X153.813 Y125.200 E0.03303
G1 X153.623 Y125.895 E0.02261
G1 X153.222 Y126.881 E0.03338
G1 X152.696 Y127.776 E0.03255
G1 X152.259 Y128.351 E0.02261
G1 X151.530 Y129.105 E0.03291
G1 X150.702 Y129.744 E0.03279
G1 X150.083 Y130.114 E0.02261
G1 X149.128 Y130.541 E0.03279
G1 X147.448 Y130.936 E0.05412
G1 X126.696 Y133.001 E0.65389
G1 X124.981 Y133.112 E0.05389
G1 X98.384 Y133.134 E0.83390
G1 X97.849 Y133.068 E0.01692
G1 X97.338 Y132.882 E0.01704
G1 X96.803 Y132.514 E0.02036
G1 X96.387 Y132.015 E0.02036
G1 X96.122 Y131.423 E0.02036
G1 X96.027 Y130.781 E0.02036
G1 X96.012 Y85.203 E1.42904
G1 X96.204 Y83.556 E0.05200
G1 X96.778 Y81.956 E0.05329
G1 X97.659 Y80.596 E0.05082
G1 F8160
G1 X98.912 Y79.368 E-0.42891
G1 F8160
G1 X100.075 Y78.675 E-0.33109
G1 E-0.04000 F2100.00000
G1 Z0.800 F10200.000
G1 X144.932 Y121.980 F10200.000
G1 Z0.200 F10200.000
G1 E0.80000 F2100.00000
G1 F1800
G1 X145.153 Y121.778 E0.00939
G1 X145.399 Y121.607 E0.00939
G1 X145.665 Y121.468 E0.00939
G1 X145.946 Y121.365 E0.00939
G1 X146.238 Y121.298 E0.00939
G1 X146.511 Y121.272 E0.00858
G1 X146.833 Y121.278 E0.01009
G1 X147.132 Y121.327 E0.00950
G1 X147.419 Y121.412 E0.00940
G1 X147.693 Y121.533 E0.00939
G1 X147.949 Y121.689 E0.00939
G1 X148.183 Y121.875 E0.00940
G1 X148.392 Y122.091 E0.00939
G1 X148.571 Y122.331 E0.00939
G1 X148.718 Y122.592 E0.00939
G1 X148.831 Y122.870 E0.00940
G1 X148.907 Y123.159 E0.00939
G1 X148.945 Y123.456 E0.00939
G1 X148.945 Y123.756 E0.00939
G1 X148.907 Y124.053 E0.00939
G1 X148.831 Y124.343 E0.00939
G1 X148.718 Y124.621 E0.00940
G1 X148.571 Y124.882 E0.00939
G1 X148.392 Y125.122 E0.00939
G1 X148.183 Y125.337 E0.00939
G1 X147.969 Y125.508 E0.00858
G1 X147.696 Y125.678 E0.01009
G1 X147.419 Y125.801 E0.00950
G1 X147.156 Y125.879 E0.00858
G1 X146.839 Y125.934 E0.01009
G1 X146.536 Y125.943 E0.00950
G1 X146.238 Y125.915 E0.00939
G1 X145.946 Y125.848 E0.00940
G1 X145.665 Y125.744 E0.00939
G1 X145.399 Y125.606 E0.00939
G1 X145.153 Y125.434 E0.00939
G1 X144.932 Y125.233 E0.00939
G1 X144.737 Y125.005 E0.00939
G1 X144.574 Y124.754 E0.00939
G1 X144.444 Y124.484 E0.00939
G1 X144.350 Y124.199 E0.00939
G1 X144.292 Y123.905 E0.00939
G1 X144.273 Y123.606 E0.00939
G1 X144.292 Y123.307 E0.00939
G1 X144.350 Y123.013 E0.00939
G1 X144.444 Y122.729 E0.00939
G1 X144.574 Y122.459 E0.00939
G1 X144.737 Y122.208 E0.00939
G1 X144.893 Y122.025 E0.00751
G1 X145.180 Y122.270 F10200.000
G1 F1800
G1 X145.389 Y122.074 E0.00899
G1 X145.595 Y121.930 E0.00788
G1 X145.818 Y121.814 E0.00788
G1 X146.054 Y121.727 E0.00788
G1 X146.298 Y121.671 E0.00788
G1 X146.525 Y121.649 E0.00713
G1 X146.798 Y121.655 E0.00857
G1 X147.048 Y121.695 E0.00792
G1 X147.288 Y121.767 E0.00788
G1 X147.518 Y121.868 E0.00788
G1 X147.733 Y121.998 E0.00788
G1 X147.929 Y122.155 E0.00788
G1 X148.104 Y122.336 E0.00788
G1 X148.254 Y122.537 E0.00788
G1 X148.378 Y122.756 E0.00788
G1 X148.472 Y122.989 E0.00788
G1 X148.536 Y123.232 E0.00788
G1 X148.568 Y123.481 E0.00788
G1 X148.568 Y123.732 E0.00788
G1 X148.536 Y123.981 E0.00788
G1 X148.472 Y124.224 E0.00788
G1 X148.378 Y124.457 E0.00788
G1 X148.254 Y124.676 E0.00788
G1 X148.104 Y124.877 E0.00788
G1 X147.929 Y125.058 E0.00788
G1 X147.751 Y125.199 E0.00714
G1 X147.519 Y125.344 E0.00857
G1 X147.288 Y125.446 E0.00791
G1 X147.070 Y125.511 E0.00714
G1 X146.801 Y125.558 E0.00857
G1 X146.549 Y125.566 E0.00791
G1 X146.298 Y125.542 E0.00788
G1 X146.054 Y125.486 E0.00788
G1 X145.818 Y125.399 E0.00788
G1 X145.595 Y125.283 E0.00788
G1 X145.389 Y125.139 E0.00788
G1 X145.203 Y124.970 E0.00788
G1 X145.040 Y124.779 E0.00788
G1 X144.903 Y124.568 E0.00788
G1 X144.794 Y124.342 E0.00788
G1 X144.715 Y124.104 E0.00788
G1 X144.667 Y123.857 E0.00788
G1 X144.651 Y123.606 E0.00788
G1 X144.667 Y123.356 E0.00788
G1 X144.715 Y123.109 E0.00788
G1 X144.794 Y122.871 E0.00788
G1 X144.903 Y122.644 E0.00788
G1 X145.141 Y122.315 E0.01272
G1 X145.092 Y121.997 F10200.000
G1 F8160
G1 X145.389 Y122.074 E-0.08470
G1 F8160
G1 X145.595 Y121.930 E-0.06142
G1 F8160
G1 X145.818 Y121.814 E-0.06142
G1 F8160
G1 X146.054 Y121.727 E-0.06142
G1 F8160
G1 X146.298 Y121.671 E-0.06142
G1 F8160
G1 X146.525 Y121.649 E-0.05563
G1 F8160
G1 X146.798 Y121.655 E-0.06686
G1 F8160
G1 X147.048 Y121.695 E-0.06172
G1 F8160
G1 X147.288 Y121.767 E-0.06142
G1 F8160
G1 X147.518 Y121.868 E-0.06141
G1 F8160
G1 X147.733 Y121.998 E-0.06142
G1 F8160
G1 X147.929 Y122.154 E-0.06117
G1 E-0.04000 F2100.00000
G1 Z0.800 F10200.000
G1 X136.225 Y113.905 F10200.000
G1 Z0.200 F10200.000
G1 E0.80000 F2100.00000
G1 F1800
G1 X135.541 Y113.669 E0.02270
G1 X135.541 Y114.658 E0.03101
G1 X134.882 Y115.296 E0.02874
G1 X134.324 Y115.788 E0.02333
G1 X133.850 Y116.176 E0.01920
G1 X133.307 Y116.583 E0.02128
G1 X132.748 Y116.968 E0.02128
G1 X132.173 Y117.329 E0.02128
G1 X131.584 Y117.665 E0.02128
G1 X130.981 Y117.977 E0.02128
G1 X129.541 Y118.647 E0.04977
G1 X129.541 Y118.611 E0.00112
G1 X128.109 Y119.065 E0.04713
G1 X126.863 Y119.354 E0.04010
G1 X125.598 Y119.545 E0.04010
G1 X123.891 Y119.679 E0.05370
G1 X122.009 Y119.545 E0.05914
G1 X120.744 Y119.354 E0.04010
G1 X119.499 Y119.065 E0.04010
G1 X118.066 Y118.611 E0.04713
G1 X118.066 Y118.647 E0.00112
G1 X116.627 Y117.977 E0.04977
G1 X116.024 Y117.665 E0.02128
G1 X115.433 Y117.328 E0.02132
G1 X114.804 Y116.930 E0.02333
G1 X114.300 Y116.583 E0.01920
G1 X113.757 Y116.176 E0.02128
G1 X113.231 Y115.746 E0.02128
G1 X112.724 Y115.295 E0.02128
G1 X112.066 Y114.658 E0.02870
G1 X112.066 Y113.669 E0.03101
G1 X111.382 Y113.905 E0.02270
G1 X110.769 Y113.122 E0.03120
G1 X110.362 Y112.555 E0.02189
G1 X109.980 Y111.970 E0.02189
G1 X109.624 Y111.370 E0.02189
G1 X109.294 Y110.755 E0.02189
G1 X108.990 Y110.126 E0.02189
G1 X108.713 Y109.485 E0.02189
G1 X108.465 Y108.833 E0.02189
G1 X108.244 Y108.171 E0.02189
G1 X108.052 Y107.499 E0.02189
G1 X107.889 Y106.821 E0.02189
G1 X107.755 Y106.136 E0.02189
G1 X107.651 Y105.445 E0.02189
G1 X107.576 Y104.751 E0.02189
G1 X107.531 Y104.055 E0.02189
G1 X107.516 Y103.357 E0.02189
G1 X107.531 Y102.659 E0.02189
G1 X107.576 Y101.962 E0.02189
G1 X107.651 Y101.268 E0.02189
G1 X107.755 Y100.578 E0.02189
G1 X107.889 Y99.892 E0.02189
G1 X108.052 Y99.214 E0.02189
G1 X108.244 Y98.542 E0.02189
G1 X108.465 Y97.880 E0.02189
G1 X108.713 Y97.228 E0.02189
G1 X108.990 Y96.587 E0.02189
G1 X109.294 Y95.958 E0.02189
G1 X109.624 Y95.343 E0.02189
G1 X109.980 Y94.743 E0.02189
G1 X110.363 Y94.158 E0.02192
G1 X110.811 Y93.537 E0.02400
G1 X111.382 Y92.808 E0.02905
G1 X112.066 Y93.044 E0.02270
G1 X112.066 Y92.055 E0.03101
G1 X112.724 Y91.418 E0.02870
G1 X113.231 Y90.967 E0.02128
G1 X113.757 Y90.537 E0.02128
G1 X114.300 Y90.130 E0.02128
G1 X114.859 Y89.745 E0.02128
G1 X115.434 Y89.384 E0.02128
G1 X116.024 Y89.047 E0.02132
G1 X116.687 Y88.708 E0.02333
G1 X118.066 Y88.066 E0.04768
G1 X118.066 Y88.102 E0.00112
G1 X119.499 Y87.648 E0.04713
G1 X120.744 Y87.359 E0.04010
G1 X122.004 Y87.169 E0.03995
G1 X122.709 Y87.107 E0.02217
G1 X123.716 Y87.055 E0.03164
G1 X123.716 Y87.034 E0.00067
G1 X125.598 Y87.168 E0.05914
G1 X126.863 Y87.359 E0.04010
G1 X128.109 Y87.648 E0.04010
G1 X129.541 Y88.102 E0.04713
G1 X129.541 Y88.062 E0.00124
G1 X131.040 Y88.766 E0.05190
G1 X131.584 Y89.048 E0.01920
G1 X132.173 Y89.384 E0.02128
G1 X132.748 Y89.745 E0.02128
G1 X133.307 Y90.130 E0.02128
G1 X133.850 Y90.537 E0.02128
G1 X134.376 Y90.967 E0.02128
G1 X134.883 Y91.418 E0.02128
G1 X135.541 Y92.055 E0.02870
G1 X135.541 Y93.044 E0.03101
G1 X136.225 Y92.808 E0.02270
G1 X136.838 Y93.591 E0.03120
G1 X137.245 Y94.159 E0.02189
G1 X137.627 Y94.743 E0.02189
G1 X137.983 Y95.343 E0.02189
G1 X138.313 Y95.958 E0.02189
G1 X138.617 Y96.587 E0.02189
G1 X138.894 Y97.228 E0.02189
G1 X139.142 Y97.880 E0.02189
G1 X139.363 Y98.542 E0.02189
G1 X139.555 Y99.214 E0.02189
G1 X139.718 Y99.892 E0.02189
G1 X139.852 Y100.578 E0.02189
G1 X139.956 Y101.268 E0.02189
G1 X140.031 Y101.962 E0.02189
G1 X140.076 Y102.659 E0.02189
G1 X140.091 Y103.357 E0.02189
G1 X140.076 Y104.055 E0.02189
G1 X140.031 Y104.751 E0.02189
G1 X139.956 Y105.445 E0.02189
G1 X139.852 Y106.136 E0.02189
G1 X139.718 Y106.821 E0.02189
G1 X139.555 Y107.499 E0.02189
G1 X139.363 Y108.171 E0.02189
G1 X139.142 Y108.833 E0.02189
G1 X138.894 Y109.485 E0.02189
G1 X138.617 Y110.126 E0.02189
G1 X138.313 Y110.755 E0.02189
G1 X137.983 Y111.370 E0.02189
G1 X137.627 Y111.970 E0.02189
G1 X137.245 Y112.555 E0.02189
G1 X136.838 Y113.122 E0.02189
G1 X136.262 Y113.858 E0.02931
G1 F8160
G1 X135.541 Y113.669 E-0.18230
G1 F8160
G1 X135.541 Y114.658 E-0.24181
G1 F8160
G1 X134.882 Y115.296 E-0.22408
G1 F8160
G1 X134.539 Y115.598 E-0.11181
G1 E-0.04000 F2100.00000
G1 Z0.800 F10200.000
G1 X123.514 Y115.299 F10200.000
G1 Z0.200 F10200.000
G1 E0.80000 F2100.00000
G1 F1800
G1 X123.514 Y119.274 E0.12463
G1 X122.051 Y119.170 E0.04598
G1 X120.815 Y118.984 E0.03917
G1 X119.598 Y118.701 E0.03917
G1 X118.269 Y118.280 E0.04374
G1 X118.269 Y113.950 E0.13576
G1 X119.068 Y114.317 E0.02758
G1 X119.575 Y114.523 E0.01716
G1 X120.091 Y114.705 E0.01716
G1 X120.615 Y114.863 E0.01716
G1 X121.145 Y114.997 E0.01714
G1 X121.734 Y115.115 E0.01882
G1 X122.768 Y115.252 E0.03272
G1 X123.454 Y115.295 E0.02153
G1 X123.913 Y115.313 F10200.000
G1 X124.094 Y115.299 F10200.000
G1 F1800
G1 X124.841 Y115.251 E0.02348
G1 X125.385 Y115.191 E0.01716
G1 X125.925 Y115.106 E0.01716
G1 X126.462 Y114.997 E0.01716
G1 X126.992 Y114.863 E0.01716
G1 X127.516 Y114.705 E0.01716
G1 X128.032 Y114.523 E0.01716
G1 X128.539 Y114.317 E0.01716
G1 X129.339 Y113.950 E0.02758
G1 X129.339 Y118.280 E0.13576
G1 X128.009 Y118.701 E0.04374
G1 X126.792 Y118.984 E0.03917
G1 X125.556 Y119.170 E0.03917
G1 X124.094 Y119.274 E0.04598
G1 X124.094 Y115.359 E0.12275
G1 X124.029 Y114.905 F10200.000
G1 F8160
G1 X124.841 Y115.251 E-0.18464
G1 F8160
G1 X125.385 Y115.191 E-0.13379
G1 F8160
G1 X125.925 Y115.106 E-0.13379
G1 F8160
G1 X126.462 Y114.997 E-0.13379
G1 F8160
G1 X126.992 Y114.863 E-0.13379
G1 F8160
G1 X127.150 Y114.815 E-0.04022
G1 E-0.04000 F2100.00000
G1 Z0.800 F10200.000
G1 X134.755 Y108.112 F10200.000
G1 Z0.200 F10200.000
G1 E0.80000 F2100.00000
G1 F1800
G1 X135.164 Y108.202 E0.01311
G1 X135.164 Y114.499 E0.19743
G1 X134.626 Y115.019 E0.02346
G1 X134.080 Y115.501 E0.02284
G1 X133.618 Y115.879 E0.01873
G1 X133.087 Y116.277 E0.02079
G1 X132.541 Y116.653 E0.02079
G1 X131.979 Y117.005 E0.02079
G1 X131.403 Y117.334 E0.02079
G1 X130.814 Y117.639 E0.02079
G1 X129.919 Y118.055 E0.03098
G1 X129.919 Y113.616 E0.13920
G1 X130.494 Y113.246 E0.02145
G1 X130.954 Y112.919 E0.01770
G1 X131.398 Y112.570 E0.01770
G1 X131.825 Y112.201 E0.01770
G1 X132.234 Y111.812 E0.01770
G1 X132.624 Y111.404 E0.01770
G1 X132.995 Y110.978 E0.01770
G1 X133.345 Y110.535 E0.01770
G1 X133.673 Y110.076 E0.01770
G1 X133.980 Y109.602 E0.01770
G1 X134.264 Y109.114 E0.01769
G1 X134.730 Y108.167 E0.03311
G1 X134.875 Y107.731 F10200.000
G1 F8160
G1 X135.164 Y108.202 E-0.10633
G1 F8160
G1 X135.164 Y110.876 E-0.65367
G1 E-0.04000 F2100.00000
G1 Z0.800 F10200.000
G1 X135.744 Y93.373 F10200.000
G1 Z0.200 F10200.000
G1 E0.80000 F2100.00000
G1 F1800
G1 X136.094 Y93.252 E0.01162
G1 X136.537 Y93.817 E0.02251
G1 X136.934 Y94.372 E0.02138
G1 X137.307 Y94.943 E0.02138
G1 X137.655 Y95.529 E0.02138
G1 X137.977 Y96.130 E0.02138
G1 X138.274 Y96.744 E0.02138
G1 X138.544 Y97.370 E0.02138
G1 X138.787 Y98.007 E0.02138
G1 X139.003 Y98.654 E0.02138
G1 X139.190 Y99.310 E0.02138
G1 X139.350 Y99.973 E0.02138
G1 X139.480 Y100.642 E0.02138
G1 X139.582 Y101.316 E0.02138
G1 X139.655 Y101.994 E0.02138
G1 X139.699 Y102.675 E0.02138
G1 X139.714 Y103.357 E0.02138
G1 X139.699 Y104.038 E0.02138
G1 X139.655 Y104.719 E0.02138
G1 X139.582 Y105.397 E0.02138
G1 X139.480 Y106.071 E0.02138
G1 X139.350 Y106.740 E0.02138
G1 X139.190 Y107.404 E0.02138
G1 X139.003 Y108.059 E0.02138
G1 X138.787 Y108.706 E0.02138
G1 X138.544 Y109.343 E0.02138
G1 X138.274 Y109.969 E0.02138
G1 X137.977 Y110.584 E0.02138
G1 X137.655 Y111.184 E0.02138
G1 X137.307 Y111.771 E0.02138
G1 X136.934 Y112.342 E0.02138
G1 X136.537 Y112.896 E0.02138
G1 X136.094 Y113.461 E0.02251
G1 X135.744 Y113.340 E0.01162
G1 X135.744 Y93.433 E0.62419
G1 X135.660 Y93.012 F10200.000
G1 F8160
G1 X136.094 Y93.252 E-0.09638
G1 F8160
G1 X136.537 Y93.817 E-0.17556
G1 F8160
G1 X136.934 Y94.372 E-0.16672
G1 F8160
G1 X137.307 Y94.943 E-0.16672
G1 F8160
G1 X137.629 Y95.486 E-0.15462
G1 E-0.04000 F2100.00000
G1 Z0.800 F10200.000
G1 X129.919 Y93.097 F10200.000
G1 Z0.200 F10200.000
G1 E0.80000 F2100.00000
G1 F1800
G1 X129.919 Y88.656 E0.13925
G1 X130.873 Y89.105 E0.03306
G1 X131.403 Y89.379 E0.01873
G1 X131.979 Y89.708 E0.02079
G1 X132.541 Y90.060 E0.02079
G1 X133.087 Y90.436 E0.02079
G1 X133.618 Y90.834 E0.02079
G1 X134.131 Y91.254 E0.02079
G1 X134.626 Y91.695 E0.02079
G1 X135.164 Y92.215 E0.02344
G1 X135.164 Y98.511 E0.19743
G1 X134.760 Y98.600 E0.01296
G1 X134.263 Y97.598 E0.03507
G1 X133.980 Y97.112 E0.01764
G1 X133.674 Y96.638 E0.01769
G1 X132.995 Y95.735 E0.03541
G1 X132.624 Y95.310 E0.01770
G1 X132.234 Y94.902 E0.01770
G1 X131.825 Y94.513 E0.01770
G1 X131.398 Y94.143 E0.01770
G1 X130.954 Y93.795 E0.01770
G1 X130.494 Y93.467 E0.01770
G1 X129.969 Y93.130 E0.01957
G1 X129.526 Y93.019 F10200.000
G1 X129.339 Y92.763 F10200.000
G1 F1800
G1 X128.539 Y92.396 E0.02758
G1 X128.032 Y92.190 E0.01716
G1 X127.516 Y92.009 E0.01714
G1 X126.941 Y91.837 E0.01882
G1 X125.923 Y91.606 E0.03272
G1 X125.385 Y91.522 E0.01709
G1 X124.841 Y91.462 E0.01716
G1 X124.094 Y91.414 E0.02348
G1 X124.094 Y87.439 E0.12463
G1 X125.556 Y87.543 E0.04598
G1 X126.792 Y87.730 E0.03917
G1 X128.009 Y88.012 E0.03917
G1 X129.339 Y88.433 E0.04374
G1 X129.339 Y92.703 E0.13388
G1 X129.261 Y93.156 F10200.000
G1 F8160
G1 X128.539 Y92.396 E-0.20936
G1 F8160
G1 X128.032 Y92.190 E-0.13379
G1 F8160
G1 X127.516 Y92.009 E-0.13368
G1 F8160
G1 X126.941 Y91.837 E-0.14677
G1 F8160
G1 X126.397 Y91.714 E-0.13641
G1 E-0.04000 F2100.00000
G1 Z0.800 F10200.000
G1 X123.514 Y91.414 F10200.000
G1 Z0.200 F10200.000
G1 E0.80000 F2100.00000
G1 F1800
