; generated by Slic3r Prusa Edition 1.39.1-prusa3d-win64 on 2018-06-09 at 17:33:04

; 

; external perimeters extrusion width = 0.45mm
; perimeters extrusion width = 0.45mm
; infill extrusion width = 0.45mm
; solid infill extrusion width = 0.45mm
; top infill extrusion width = 0.40mm
; first layer extrusion width = 0.42mm

M107
M115 U3.1.1-RC5 ; tell printer latest fw version
M201 X1000 Y1000 Z200 E5000 ; sets maximum accelerations, mm/sec^2
M203 X200 Y200 Z12 E120 ; sets maximum feedrates, mm/sec
M204 S1250 T1250 ; sets acceleration (S) and retract acceleration (T)
M205 X10 Y10 Z0.4 E2.5 ; sets the jerk limits, mm/sec
M205 S0 T0 ; sets the minimum extruding and travel feed rate, mm/sec
M83  ; extruder relative mode
M104 S215 ; set extruder temp
M140 S60 ; set bed temp
M190 S60 ; wait for bed temp
M109 S215 ; wait for extruder temp
G28 W ; home all without mesh bed level
G80 ; mesh bed leveling
G1 Y-3.0 F1000.0 ; go outside print area
G92 E0.0
G1 X60.0 E9.0  F1000.0 ; intro line
G1 X100.0 E12.5  F1000.0 ; intro line
G92 E0.0
M221 S95
M900 K30; Filament gcode
G21 ; set units to millimeters
G90 ; use absolute coordinates
M83 ; use relative distances for extrusion
;BEFORE_LAYER_CHANGE
;0.2


G1 E-0.80000 F2100.00000
G1 Z0.600 F10200.000
;AFTER_LAYER_CHANGE
;0.2
G1 X101.616 Y78.767 F10200.000
G1 Z0.200 F10200.000
G1 E0.80000 F2100.00000
M204 S1000
G1 F1800
G1 X102.702 Y77.691 E0.04794
G1 X103.706 Y77.010 E0.03803
G1 X104.798 Y76.509 E0.03767
G1 X106.289 Y76.136 E0.04818
G1 X107.450 Y76.063 E0.03648
G1 X128.534 Y77.274 E0.66218
G1 X130.140 Y77.451 E0.05066
G1 X131.716 Y77.725 E0.05013
G1 X134.117 Y78.347 E0.07777
G1 X135.728 Y78.914 E0.05357
G1 X137.957 Y79.916 E0.07660
G1 X139.451 Y80.746 E0.05359
G1 X141.509 Y82.124 E0.07765
G1 X142.869 Y83.205 E0.05448
G1 X144.713 Y84.929 E0.07913
G1 X145.903 Y86.228 E0.05525
G1 X147.487 Y88.243 E0.08036
G1 X148.484 Y89.722 E0.05592
G1 X149.773 Y91.968 E0.08121
G1 X150.867 Y94.316 E0.08120
G1 X151.506 Y95.992 E0.05625
G1 X152.240 Y98.437 E0.08003
G1 X152.623 Y100.167 E0.05556
G1 X152.979 Y102.663 E0.07906
G1 X153.096 Y104.655 E0.06257
G1 X153.013 Y107.361 E0.08487
G1 X151.295 Y127.660 E0.63874
G1 X150.886 Y129.212 E0.05032
G1 X150.149 Y130.637 E0.05032
G1 X149.352 Y131.640 E0.04017
G1 X148.170 Y132.646 E0.04866
G1 X147.138 Y133.238 E0.03731
G1 X146.086 Y133.638 E0.03529
G1 X144.970 Y133.875 E0.03577
G1 X143.880 Y133.937 E0.03422
G1 X99.200 Y133.460 E1.40100
G1 X98.666 Y133.382 E0.01692
G1 X98.160 Y133.183 E0.01704
G1 X97.712 Y132.875 E0.01704
G1 X97.346 Y132.473 E0.01704
G1 X97.021 Y131.838 E0.02237
G1 X96.898 Y131.136 E0.02237
G1 X96.901 Y111.758 E0.60757
G1 X100.033 Y82.328 E0.92796
G1 X100.417 Y80.853 E0.04779
G1 X100.931 Y79.759 E0.03791
G1 X101.582 Y78.817 E0.03591
G1 F8160
G1 X102.702 Y77.691 E-0.38826
G1 F8160
G1 X103.706 Y77.010 E-0.29652
G1 F8160
G1 X103.986 Y76.882 E-0.07521
G1 E-0.04000 F2100.00000
G1 Z0.800 F10200.000
G1 X142.546 Y124.736 F10200.000
G1 Z0.200 F10200.000
G1 E0.80000 F2100.00000
G1 F1800
G1 X142.791 Y124.565 E0.00938
G1 X143.056 Y124.426 E0.00938
G1 X143.337 Y124.323 E0.00938
G1 X143.629 Y124.256 E0.00938
G1 X143.901 Y124.230 E0.00857
G1 X144.222 Y124.237 E0.01008
G1 X144.521 Y124.285 E0.00949
G1 X144.808 Y124.370 E0.00938
G1 X145.082 Y124.491 E0.00938
G1 X145.337 Y124.646 E0.00938
G1 X145.571 Y124.833 E0.00938
G1 X145.780 Y125.048 E0.00938
G1 X145.958 Y125.288 E0.00938
G1 X146.105 Y125.548 E0.00938
G1 X146.218 Y125.826 E0.00938
G1 X146.293 Y126.115 E0.00938
G1 X146.332 Y126.412 E0.00938
G1 X146.332 Y126.711 E0.00938
G1 X146.293 Y127.008 E0.00938
G1 X146.218 Y127.297 E0.00938
G1 X146.105 Y127.574 E0.00938
G1 X145.958 Y127.835 E0.00938
G1 X145.780 Y128.075 E0.00938
G1 X145.571 Y128.290 E0.00938
G1 X145.337 Y128.476 E0.00938
G1 X145.082 Y128.632 E0.00938
G1 X144.808 Y128.753 E0.00938
G1 X144.521 Y128.838 E0.00938
G1 X144.226 Y128.886 E0.00938
G1 X143.927 Y128.895 E0.00938
G1 X143.629 Y128.866 E0.00938
G1 X143.337 Y128.800 E0.00938
G1 X143.056 Y128.696 E0.00938
G1 X142.791 Y128.558 E0.00938
G1 X142.546 Y128.387 E0.00938
G1 X142.324 Y128.186 E0.00938
G1 X142.147 Y127.978 E0.00857
G1 X141.969 Y127.710 E0.01008
G1 X141.837 Y127.438 E0.00949
G1 X141.743 Y127.154 E0.00938
G1 X141.686 Y126.860 E0.00938
G1 X141.667 Y126.561 E0.00938
G1 X141.686 Y126.263 E0.00938
G1 X141.743 Y125.969 E0.00938
G1 X141.837 Y125.685 E0.00938
G1 X141.967 Y125.416 E0.00938
G1 X142.130 Y125.165 E0.00938
G1 X142.324 Y124.937 E0.00938
G1 X142.501 Y124.776 E0.00750
G1 X142.755 Y125.055 F10200.000
G1 F1800
G1 X142.987 Y124.888 E0.00898
G1 X143.209 Y124.772 E0.00786
G1 X143.445 Y124.685 E0.00786
G1 X143.689 Y124.629 E0.00786
G1 X143.915 Y124.607 E0.00712
G1 X144.188 Y124.613 E0.00856
G1 X144.437 Y124.653 E0.00790
G1 X144.677 Y124.725 E0.00786
G1 X144.907 Y124.826 E0.00786
G1 X145.121 Y124.956 E0.00786
G1 X145.317 Y125.113 E0.00786
G1 X145.492 Y125.293 E0.00786
G1 X145.642 Y125.494 E0.00786
G1 X145.765 Y125.712 E0.00786
G1 X145.859 Y125.945 E0.00786
G1 X145.923 Y126.187 E0.00786
G1 X145.955 Y126.436 E0.00786
G1 X145.955 Y126.687 E0.00786
G1 X145.923 Y126.935 E0.00786
G1 X145.859 Y127.178 E0.00786
G1 X145.765 Y127.410 E0.00786
G1 X145.642 Y127.629 E0.00786
G1 X145.492 Y127.830 E0.00786
G1 X145.317 Y128.010 E0.00786
G1 X145.121 Y128.167 E0.00786
G1 X144.907 Y128.297 E0.00786
G1 X144.678 Y128.398 E0.00786
G1 X144.437 Y128.469 E0.00786
G1 X144.190 Y128.509 E0.00786
G1 X143.939 Y128.517 E0.00786
G1 X143.689 Y128.493 E0.00786
G1 X143.445 Y128.438 E0.00786
G1 X143.209 Y128.351 E0.00786
G1 X142.987 Y128.235 E0.00786
G1 X142.781 Y128.091 E0.00786
G1 X142.596 Y127.923 E0.00786
G1 X142.448 Y127.750 E0.00712
G1 X142.297 Y127.523 E0.00856
G1 X142.187 Y127.296 E0.00790
G1 X142.108 Y127.058 E0.00786
G1 X142.061 Y126.812 E0.00786
G1 X142.044 Y126.561 E0.00786
G1 X142.061 Y126.311 E0.00786
G1 X142.108 Y126.065 E0.00786
G1 X142.187 Y125.827 E0.00786
G1 X142.296 Y125.601 E0.00786
G1 X142.433 Y125.391 E0.00786
G1 X142.710 Y125.096 E0.01270
G1 X142.703 Y124.774 F10200.000
G1 F8160
G1 X142.987 Y124.888 E-0.08459
G1 F8160
G1 X143.209 Y124.772 E-0.06131
G1 F8160
G1 X143.445 Y124.685 E-0.06131
G1 F8160
G1 X143.689 Y124.629 E-0.06131
G1 F8160
G1 X143.915 Y124.607 E-0.05554
G1 F8160
G1 X144.188 Y124.613 E-0.06675
G1 F8160
G1 X144.437 Y124.653 E-0.06161
G1 F8160
G1 X144.677 Y124.725 E-0.06131
G1 F8160
G1 X144.907 Y124.826 E-0.06131
G1 F8160
G1 X145.121 Y124.956 E-0.06131
G1 F8160
G1 X145.317 Y125.113 E-0.06131
G1 F8160
G1 X145.492 Y125.293 E-0.06131
G1 F8160
G1 X145.494 Y125.296 E-0.00100
G1 E-0.04000 F2100.00000
G1 Z0.800 F10200.000
G1 X135.338 Y116.250 F10200.000
G1 Z0.200 F10200.000
G1 E0.80000 F2100.00000
G1 F1800
G1 X135.338 Y116.125 E0.00391
G1 X134.843 Y116.535 E0.02014
G1 X134.284 Y116.958 E0.02198
G1 X133.224 Y117.664 E0.03993
G1 X132.649 Y118.000 E0.02089
G1 X132.034 Y118.325 E0.02179
G1 X131.434 Y118.612 E0.02087
G1 X130.587 Y118.958 E0.02869
G1 X130.587 Y118.981 E0.00073
G1 X130.266 Y119.089 E0.01063
G1 X129.513 Y119.397 E0.02550
G1 X129.513 Y119.339 E0.00181
G1 X128.923 Y119.511 E0.01925
G1 X128.257 Y119.675 E0.02152
G1 X127.550 Y119.816 E0.02259
G1 X126.907 Y119.918 E0.02042
G1 X126.191 Y120.000 E0.02260
G1 X125.486 Y120.051 E0.02217
G1 X124.762 Y120.059 E0.02270
G1 X124.762 Y120.095 E0.00113
G1 X124.209 Y120.066 E0.01734
G1 X123.688 Y120.072 E0.01636
G1 X123.688 Y120.038 E0.00106
G1 X122.772 Y119.960 E0.02882
G1 X122.084 Y119.865 E0.02178
G1 X121.366 Y119.733 E0.02287
G1 X120.689 Y119.579 E0.02178
G1 X120.011 Y119.393 E0.02204
G1 X119.322 Y119.172 E0.02271
G1 X118.937 Y119.022 E0.01294
G1 X118.937 Y119.085 E0.00196
G1 X118.136 Y118.712 E0.02772
G1 X117.863 Y118.606 E0.00918
G1 X117.863 Y118.585 E0.00067
G1 X116.799 Y118.054 E0.03727
G1 X116.194 Y117.706 E0.02187
G1 X115.634 Y117.351 E0.02078
G1 X115.033 Y116.934 E0.02296
G1 X114.465 Y116.501 E0.02239
G1 X113.943 Y116.068 E0.02126
G1 X113.441 Y115.614 E0.02123
G1 X112.923 Y115.104 E0.02279
G1 X112.275 Y114.389 E0.03024
G1 X112.255 Y114.396 E0.00066
G1 X111.563 Y113.513 E0.03519
G1 X111.152 Y112.940 E0.02210
G1 X110.767 Y112.350 E0.02210
G1 X110.407 Y111.744 E0.02210
G1 X110.073 Y111.123 E0.02211
G1 X109.752 Y110.455 E0.02323
G1 X109.475 Y109.807 E0.02211
G1 X109.225 Y109.147 E0.02210
G1 X109.005 Y108.478 E0.02210
G1 X108.813 Y107.800 E0.02210
G1 X108.651 Y107.114 E0.02210
G1 X108.518 Y106.422 E0.02210
G1 X108.420 Y105.760 E0.02097
G1 X108.342 Y105.024 E0.02322
G1 X108.300 Y104.320 E0.02212
G1 X108.288 Y103.615 E0.02210
G1 X108.306 Y102.910 E0.02210
G1 X108.354 Y102.207 E0.02210
G1 X108.433 Y101.507 E0.02210
G1 X108.542 Y100.810 E0.02210
G1 X108.680 Y100.119 E0.02210
G1 X108.848 Y99.434 E0.02211
G1 X109.057 Y98.723 E0.02323
G1 X109.284 Y98.056 E0.02211
G1 X109.541 Y97.399 E0.02210
G1 X109.825 Y96.754 E0.02210
G1 X110.136 Y96.122 E0.02210
G1 X110.475 Y95.504 E0.02210
G1 X110.840 Y94.901 E0.02210
G1 X111.230 Y94.314 E0.02210
G1 X111.646 Y93.745 E0.02210
G1 X112.086 Y93.193 E0.02213
G1 X112.590 Y92.616 E0.02403
G1 X114.012 Y91.119 E0.06473
G1 X114.012 Y91.242 E0.00385
G1 X114.506 Y90.833 E0.02012
G1 X115.033 Y90.433 E0.02073
G1 X115.608 Y90.033 E0.02197
G1 X116.696 Y89.370 E0.03993
G1 X117.284 Y89.058 E0.02089
G1 X117.912 Y88.757 E0.02183
G1 X118.763 Y88.403 E0.02890
G1 X118.763 Y88.386 E0.00052
G1 X119.837 Y87.991 E0.03589
G1 X119.837 Y88.028 E0.00118
G1 X120.426 Y87.857 E0.01925
G1 X121.092 Y87.693 E0.02150
G1 X121.765 Y87.557 E0.02150
G1 X122.442 Y87.449 E0.02150
G1 X123.123 Y87.370 E0.02150
G1 X123.807 Y87.320 E0.02150
G1 X124.588 Y87.298 E0.02449
G1 X124.588 Y87.272 E0.00081
G1 X125.662 Y87.308 E0.03370
G1 X125.662 Y87.330 E0.00068
G1 X126.578 Y87.407 E0.02882
G1 X127.266 Y87.503 E0.02178
G1 X127.983 Y87.634 E0.02287
G1 X128.660 Y87.789 E0.02178
G1 X129.338 Y87.974 E0.02204
G1 X130.028 Y88.196 E0.02271
G1 X130.413 Y88.345 E0.01294
G1 X130.413 Y88.283 E0.00196
G1 X131.214 Y88.656 E0.02772
G1 X131.487 Y88.762 E0.00918
G1 X131.487 Y88.783 E0.00067
G1 X132.551 Y89.314 E0.03727
G1 X133.155 Y89.662 E0.02187
G1 X133.715 Y90.016 E0.02078
G1 X134.317 Y90.434 E0.02296
G1 X134.885 Y90.866 E0.02239
G1 X135.407 Y91.300 E0.02126
G1 X135.909 Y91.754 E0.02123
G1 X136.427 Y92.263 E0.02279
G1 X137.074 Y92.978 E0.03024
G1 X137.095 Y92.971 E0.00068
G1 X137.808 Y93.884 E0.03632
G1 X138.198 Y94.428 E0.02097
G1 X138.583 Y95.018 E0.02209
G1 X138.943 Y95.624 E0.02210
G1 X139.276 Y96.245 E0.02211
G1 X139.598 Y96.913 E0.02323
G1 X139.875 Y97.561 E0.02211
G1 X140.124 Y98.220 E0.02210
G1 X140.345 Y98.890 E0.02210
G1 X140.537 Y99.568 E0.02210
G1 X140.699 Y100.254 E0.02210
G1 X140.832 Y100.946 E0.02210
G1 X140.929 Y101.607 E0.02097
G1 X141.007 Y102.344 E0.02322
G1 X141.050 Y103.048 E0.02212
G1 X141.062 Y103.753 E0.02210
G1 X141.044 Y104.457 E0.02210
G1 X140.995 Y105.160 E0.02210
G1 X140.917 Y105.861 E0.02210
G1 X140.808 Y106.557 E0.02210
G1 X140.670 Y107.248 E0.02210
G1 X140.501 Y107.933 E0.02211
G1 X140.293 Y108.644 E0.02323
G1 X140.065 Y109.312 E0.02211
G1 X139.809 Y109.968 E0.02210
G1 X139.525 Y110.613 E0.02210
G1 X139.213 Y111.245 E0.02210
G1 X138.874 Y111.864 E0.02210
G1 X138.510 Y112.467 E0.02210
G1 X138.119 Y113.053 E0.02210
G1 X137.703 Y113.623 E0.02212
G1 X137.241 Y114.201 E0.02321
G1 X136.802 Y114.705 E0.02096
G1 X135.379 Y116.207 E0.06485
G1 X135.715 Y115.304 F10200.000
G1 F1800
G1 X135.715 Y115.266 E0.00120
G1 X135.132 Y115.806 E0.02490
G1 X134.609 Y116.239 E0.02131
G1 X134.065 Y116.650 E0.02137
G1 X133.024 Y117.344 E0.03922
G1 X132.465 Y117.670 E0.02029
G1 X131.865 Y117.988 E0.02131
G1 X131.281 Y118.267 E0.02028
G1 X129.890 Y118.835 E0.04712
G1 X129.890 Y118.818 E0.00056
G1 X128.825 Y119.146 E0.03493
G1 X128.175 Y119.307 E0.02101
G1 X127.484 Y119.445 E0.02209
G1 X126.856 Y119.544 E0.01993
G1 X126.156 Y119.625 E0.02209
G1 X125.470 Y119.674 E0.02156
G1 X124.385 Y119.698 E0.03404
G1 X123.491 Y119.650 E0.02807
G1 X122.816 Y119.585 E0.02127
G1 X122.144 Y119.492 E0.02127
G1 X121.442 Y119.364 E0.02235
G1 X120.781 Y119.213 E0.02127
G1 X120.119 Y119.032 E0.02153
G1 X119.448 Y118.816 E0.02211
G1 X118.560 Y118.472 E0.02985
G1 X118.560 Y118.493 E0.00068
G1 X117.615 Y118.053 E0.03267
G1 X116.980 Y117.723 E0.02245
G1 X116.389 Y117.383 E0.02137
G1 X115.843 Y117.037 E0.02029
G1 X115.254 Y116.629 E0.02245
G1 X114.699 Y116.206 E0.02188
G1 X114.190 Y115.783 E0.02077
G1 X113.699 Y115.340 E0.02073
G1 X113.195 Y114.843 E0.02220
G1 X112.415 Y113.982 E0.03643
G1 X112.415 Y113.941 E0.00128
G1 X112.385 Y113.951 E0.00098
G1 X111.864 Y113.287 E0.02648
G1 X111.463 Y112.727 E0.02159
G1 X111.087 Y112.150 E0.02159
G1 X110.735 Y111.558 E0.02159
G1 X110.410 Y110.952 E0.02159
G1 X110.095 Y110.299 E0.02271
G1 X109.824 Y109.666 E0.02159
G1 X109.581 Y109.022 E0.02159
G1 X109.365 Y108.368 E0.02159
G1 X109.178 Y107.705 E0.02159
G1 X109.019 Y107.035 E0.02159
G1 X108.890 Y106.359 E0.02159
G1 X108.794 Y105.713 E0.02047
G1 X108.718 Y104.993 E0.02271
G1 X108.677 Y104.305 E0.02160
G1 X108.665 Y103.616 E0.02159
G1 X108.683 Y102.928 E0.02159
G1 X108.730 Y102.241 E0.02159
G1 X108.807 Y101.557 E0.02159
G1 X108.913 Y100.876 E0.02159
G1 X109.048 Y100.201 E0.02159
G1 X109.212 Y99.532 E0.02159
G1 X109.416 Y98.837 E0.02271
G1 X109.639 Y98.185 E0.02159
G1 X109.889 Y97.544 E0.02159
G1 X110.167 Y96.914 E0.02159
G1 X110.471 Y96.296 E0.02159
G1 X110.802 Y95.692 E0.02159
G1 X111.158 Y95.103 E0.02159
G1 X111.540 Y94.530 E0.02159
G1 X111.946 Y93.973 E0.02159
G1 X112.375 Y93.435 E0.02160
G1 X112.869 Y92.870 E0.02352
G1 X113.635 Y92.064 E0.03486
G1 X113.635 Y92.102 E0.00118
G1 X114.217 Y91.562 E0.02490
G1 X114.741 Y91.129 E0.02130
G1 X115.255 Y90.738 E0.02023
G1 X115.814 Y90.349 E0.02137
G1 X116.882 Y89.698 E0.03922
G1 X117.454 Y89.395 E0.02029
G1 X118.067 Y89.101 E0.02132
G1 X119.140 Y88.657 E0.03640
G1 X119.460 Y88.539 E0.01069
G1 X120.524 Y88.221 E0.03483
G1 X121.175 Y88.061 E0.02101
G1 X121.832 Y87.928 E0.02101
G1 X122.493 Y87.823 E0.02101
G1 X123.159 Y87.746 E0.02101
G1 X123.827 Y87.696 E0.02101
G1 X124.965 Y87.670 E0.03569
G1 X125.859 Y87.718 E0.02807
G1 X126.534 Y87.782 E0.02127
G1 X127.206 Y87.875 E0.02127
G1 X127.907 Y88.004 E0.02235
G1 X128.568 Y88.155 E0.02127
G1 X129.231 Y88.336 E0.02153
G1 X129.902 Y88.552 E0.02211
G1 X130.790 Y88.896 E0.02985
G1 X130.790 Y88.874 E0.00068
G1 X131.734 Y89.314 E0.03267
G1 X132.370 Y89.644 E0.02245
G1 X132.960 Y89.984 E0.02137
G1 X133.507 Y90.331 E0.02029
G1 X134.095 Y90.739 E0.02245
G1 X134.650 Y91.162 E0.02188
G1 X135.160 Y91.585 E0.02077
G1 X135.650 Y92.028 E0.02073
G1 X136.155 Y92.524 E0.02220
G1 X136.935 Y93.386 E0.03643
G1 X136.935 Y93.427 E0.00128
G1 X136.964 Y93.416 E0.00098
G1 X137.506 Y94.110 E0.02759
G1 X137.886 Y94.641 E0.02047
G1 X138.263 Y95.217 E0.02159
G1 X138.614 Y95.809 E0.02159
G1 X138.940 Y96.416 E0.02159
G1 X139.254 Y97.069 E0.02271
G1 X139.525 Y97.702 E0.02159
G1 X139.769 Y98.346 E0.02159
G1 X139.984 Y99.000 E0.02159
G1 X140.172 Y99.663 E0.02159
G1 X140.330 Y100.333 E0.02159
G1 X140.460 Y101.009 E0.02159
G1 X140.555 Y101.655 E0.02047
G1 X140.631 Y102.375 E0.02271
G1 X140.673 Y103.063 E0.02160
G1 X140.685 Y103.751 E0.02159
G1 X140.667 Y104.439 E0.02159
G1 X140.620 Y105.126 E0.02159
G1 X140.543 Y105.811 E0.02159
G1 X140.437 Y106.491 E0.02159
G1 X140.301 Y107.166 E0.02159
G1 X140.137 Y107.835 E0.02159
G1 X139.933 Y108.530 E0.02271
G1 X139.711 Y109.182 E0.02159
G1 X139.461 Y109.824 E0.02159
G1 X139.183 Y110.454 E0.02159
G1 X138.878 Y111.071 E0.02159
G1 X138.548 Y111.675 E0.02159
G1 X138.191 Y112.264 E0.02159
G1 X137.810 Y112.838 E0.02159
G1 X137.404 Y113.394 E0.02160
G1 X136.951 Y113.960 E0.02270
G1 X136.523 Y114.452 E0.02047
G1 X135.756 Y115.261 E0.03494
G1 X135.678 Y115.315 F10200.000
G1 F8160
G1 X135.715 Y115.266 E-0.01018
G1 F8160
G1 X135.132 Y115.806 E-0.19413
G1 F8160
G1 X134.609 Y116.239 E-0.16616
G1 F8160
G1 X134.065 Y116.650 E-0.16666
G1 F8160
G1 X133.307 Y117.156 E-0.22288
G1 E-0.04000 F2100.00000
G1 Z0.800 F10200.000
G1 X108.896 Y85.168 F10200.000
G1 Z0.200 F10200.000
G1 E0.80000 F2100.00000
G1 F1800
G1 X108.662 Y85.355 E0.00939
G1 X108.406 Y85.510 E0.00939
G1 X108.132 Y85.631 E0.00939
G1 X107.845 Y85.717 E0.00939
G1 X107.549 Y85.764 E0.00939
