; generated by Slic3r Prusa Edition 1.40.1+win64 on 2018-08-12 at 23:38:58

; 

; external perimeters extrusion width = 0.45mm
; perimeters extrusion width = 0.45mm
; infill extrusion width = 0.45mm
; solid infill extrusion width = 0.45mm
; top infill extrusion width = 0.40mm
; first layer extrusion width = 0.42mm

M107
M115 U3.2.1 ; tell printer latest fw version
M201 X1000 Y1000 Z200 E5000 ; sets maximum accelerations, mm/sec^2
M203 X200 Y200 Z12 E120 ; sets maximum feedrates, mm/sec
M204 S1250 T1250 ; sets acceleration (S) and retract acceleration (T)
M205 X10 Y10 Z0.4 E2.5 ; sets the jerk limits, mm/sec
M205 S0 T0 ; sets the minimum extruding and travel feed rate, mm/sec
M83  ; extruder relative mode
M104 S210 ; set extruder temp
M140 S60 ; set bed temp
M190 S60 ; wait for bed temp
M109 S210 ; wait for extruder temp
G28 W ; home all without mesh bed level
G80 ; mesh bed leveling
G1 Y-3.0 F1000.0 ; go outside print area
G92 E0.0
G1 X60.0 E9.0  F1000.0 ; intro line
G1 X100.0 E12.5  F1000.0 ; intro line
G92 E0.0
M221 S95
M900 K30; Filament gcode
G21 ; set units to millimeters
G90 ; use absolute coordinates
M83 ; use relative distances for extrusion
;BEFORE_LAYER_CHANGE
G92 E0.0
;0.2


G1 E-0.80000 F2100.00000
G1 Z0.600 F10800.000
;AFTER_LAYER_CHANGE
;0.2
G1 X19.932 Y23.108
G1 Z0.200
G1 E0.80000 F2100.00000
M204 S1000
G1 F1800
G1 X21.323 Y21.908 E0.05761
G1 X23.304 Y20.362 E0.07876
G1 X25.402 Y18.887 E0.08041
G1 X27.480 Y17.572 E0.07711
G1 X29.712 Y16.310 E0.08041
G1 X31.957 Y15.183 E0.07876
G1 X34.206 Y14.187 E0.07711
G1 X36.498 Y13.302 E0.07704
G1 X38.931 Y12.496 E0.08036
G1 X41.352 Y11.826 E0.07876
G1 X43.803 Y11.275 E0.07876
G1 X46.260 Y10.849 E0.07819
G1 X48.827 Y10.533 E0.08110
G1 X51.280 Y10.353 E0.07711
G1 X53.780 Y10.292 E0.07842
G1 X155.279 Y10.292 E3.18244
G1 X158.640 Y10.353 E0.10539
G1 X162.000 Y10.537 E0.10550
G1 X165.350 Y10.844 E0.10550
G1 X168.688 Y11.273 E0.10550
G1 X172.007 Y11.824 E0.10550
G1 X175.304 Y12.495 E0.10550
G1 X178.574 Y13.287 E0.10550
G1 X181.775 Y14.186 E0.10424
G1 X185.014 Y15.224 E0.10664
G1 X187.758 Y16.216 E0.09148
G1 X191.338 Y17.645 E0.12087
G1 X194.374 Y19.001 E0.10425
G1 X197.394 Y20.485 E0.10550
G1 X200.357 Y22.078 E0.10550
G1 X203.261 Y23.778 E0.10550
G1 X206.101 Y25.583 E0.10550
G1 X208.873 Y27.490 E0.10550
G1 X211.573 Y29.498 E0.10550
G1 X214.198 Y31.602 E0.10550
G1 X216.745 Y33.802 E0.10550
G1 X219.209 Y36.092 E0.10550
G1 X221.588 Y38.472 E0.10550
G1 X223.852 Y40.906 E0.10424
G1 X226.076 Y43.480 E0.10664
G1 X228.004 Y45.884 E0.09663
G1 X230.213 Y48.841 E0.11572
G1 X232.098 Y51.580 E0.10425
G1 X233.903 Y54.419 E0.10550
G1 X235.603 Y57.323 E0.10550
G1 X237.204 Y60.303 E0.10607
G1 X238.679 Y63.307 E0.10492
G1 X240.035 Y66.342 E0.10424
G1 X241.311 Y69.499 E0.10676
G1 X242.455 Y72.663 E0.10550
G1 X243.446 Y75.751 E0.10167
G1 X244.393 Y79.106 E0.10933
G1 X245.184 Y82.373 E0.10539
G1 X245.767 Y85.232 E0.09147
G1 X246.407 Y88.993 E0.11963
G1 X246.836 Y92.330 E0.10550
G1 X247.140 Y95.641 E0.10423
G1 X247.328 Y99.070 E0.10768
G1 X247.389 Y102.401 E0.10447
G1 X247.389 Y153.212 E1.59313
G1 X247.325 Y155.640 E0.07614
G1 X247.136 Y158.041 E0.07553
G1 X246.816 Y160.477 E0.07703
G1 X246.372 Y162.874 E0.07645
G1 X245.804 Y165.242 E0.07634
G1 X245.094 Y167.629 E0.07809
G1 X244.168 Y170.191 E0.08542
G1 X243.366 Y172.124 E0.06560
G1 X242.345 Y174.265 E0.07439
G1 X241.159 Y176.454 E0.07805
G1 X239.897 Y178.515 E0.07577
G1 X238.509 Y180.537 E0.07691
G1 X237.024 Y182.471 E0.07645
G1 X235.443 Y184.323 E0.07634
G1 X233.727 Y186.128 E0.07809
G1 X232.001 Y187.764 E0.07458
G1 X230.195 Y189.308 E0.07450
G1 X228.265 Y190.793 E0.07634
G1 X226.215 Y192.205 E0.07805
G1 X224.136 Y193.479 E0.07645
G1 X221.996 Y194.640 E0.07634
G1 X219.747 Y195.711 E0.07809
G1 X217.496 Y196.639 E0.07634
G1 X215.254 Y197.433 E0.07458
G1 X212.976 Y198.108 E0.07450
G1 X210.556 Y198.692 E0.07805
G1 X208.162 Y199.135 E0.07634
G1 X205.744 Y199.454 E0.07645
G1 X203.292 Y199.646 E0.07714
G1 X200.887 Y199.708 E0.07542
G1 X90.105 Y199.708 E3.47349
G1 X86.834 Y199.647 E0.10259
G1 X83.544 Y199.462 E0.10330
G1 X80.300 Y199.157 E0.10216
G1 X77.092 Y198.734 E0.10146
G1 X73.781 Y198.171 E0.10530
G1 X70.615 Y197.509 E0.10142
G1 X67.435 Y196.720 E0.10273
G1 X64.287 Y195.812 E0.10273
G1 X61.214 Y194.799 E0.10147
G1 X58.066 Y193.629 E0.10530
G1 X55.078 Y192.390 E0.10142
G1 X52.101 Y191.022 E0.10273
G1 X49.177 Y189.544 E0.10272
G1 X46.345 Y187.977 E0.10147
G1 X43.496 Y186.258 E0.10433
G1 X40.731 Y184.444 E0.10369
G1 X38.095 Y182.569 E0.10142
G1 X35.529 Y180.598 E0.10147
G1 X32.976 Y178.480 E0.10399
G1 X30.505 Y176.266 E0.10403
G1 X28.178 Y174.020 E0.10142
G1 X25.935 Y171.687 E0.10147
G1 X23.726 Y169.212 E0.10399
G1 X21.613 Y166.654 E0.10404
G1 X19.647 Y164.085 E0.10142
G1 X17.777 Y161.444 E0.10147
G1 X15.963 Y158.668 E0.10399
G1 X14.256 Y155.823 E0.10404
G1 X12.695 Y152.989 E0.10142
G1 X11.240 Y150.099 E0.10147
G1 X9.861 Y147.083 E0.10399
G1 X8.597 Y144.015 E0.10404
G1 X7.477 Y140.980 E0.10142
G1 X6.470 Y137.905 E0.10147
G1 X5.556 Y134.717 E0.10399
G1 X4.765 Y131.503 E0.10376
G1 X4.101 Y128.286 E0.10301
G1 X3.566 Y125.096 E0.10142
G1 X3.149 Y121.886 E0.10147
G1 X2.844 Y118.584 E0.10399
G1 X2.666 Y115.298 E0.10319
G1 X2.611 Y112.273 E0.09486
G1 X2.611 Y61.470 E1.59290
G1 X2.675 Y58.925 E0.07983
G1 X2.864 Y56.400 E0.07938
G1 X3.166 Y53.959 E0.07711
G1 X3.585 Y51.538 E0.07704
G1 X4.145 Y49.033 E0.08048
G1 X4.831 Y46.562 E0.08041
G1 X5.604 Y44.227 E0.07711
G1 X6.487 Y41.935 E0.07704
G1 X7.526 Y39.587 E0.08048
G1 X8.680 Y37.297 E0.08041
G1 X9.893 Y35.158 E0.07711
G1 X11.209 Y33.079 E0.07716
G1 X12.681 Y30.985 E0.08025
G1 X14.227 Y29.005 E0.07876
G1 X15.870 Y27.100 E0.07888
G1 X17.602 Y25.281 E0.07876
G1 X19.421 Y23.548 E0.07876
G1 X19.887 Y23.147 E0.01927
G1 F8640
G1 X21.323 Y21.908 E-0.43808
G1 X22.423 Y21.050 E-0.32192
G1 E-0.04000 F2100.00000
G1 Z0.800 F10800.000
G1 X236.814 Y142.221
G1 Z0.200
G1 E0.80000 F2100.00000
G1 F1800
G1 X237.787 Y142.458 E0.03139
G1 X237.787 Y153.213 E0.33722
G1 X237.729 Y155.274 E0.06464
G1 X237.555 Y157.336 E0.06490
G1 X237.266 Y159.386 E0.06490
G1 X236.862 Y161.416 E0.06490
G1 X236.345 Y163.421 E0.06490
G1 X235.716 Y165.393 E0.06490
G1 X234.978 Y167.327 E0.06490
G1 X234.133 Y169.216 E0.06490
G1 X233.183 Y171.055 E0.06490
G1 X232.131 Y172.838 E0.06490
G1 X230.981 Y174.559 E0.06490
G1 X229.736 Y176.213 E0.06490
G1 X228.401 Y177.795 E0.06490
G1 X226.979 Y179.299 E0.06490
G1 X225.475 Y180.721 E0.06490
G1 X223.893 Y182.056 E0.06490
G1 X222.239 Y183.301 E0.06490
G1 X220.518 Y184.451 E0.06490
G1 X218.735 Y185.503 E0.06491
G1 X216.849 Y186.474 E0.06650
G1 X215.007 Y187.298 E0.06329
G1 X213.073 Y188.036 E0.06490
G1 X211.101 Y188.665 E0.06490
G1 X209.096 Y189.182 E0.06490
G1 X207.066 Y189.586 E0.06490
G1 X205.017 Y189.875 E0.06490
G1 X202.954 Y190.049 E0.06490
G1 X200.893 Y190.107 E0.06464
G1 X191.062 Y190.107 E0.30825
G1 X190.789 Y189.199 E0.02972
G1 X192.911 Y187.801 E0.07966
G1 X194.741 Y186.486 E0.07065
G1 X196.562 Y185.077 E0.07222
G1 X198.390 Y183.569 E0.07429
G1 X200.238 Y181.959 E0.07685
G1 X202.120 Y180.243 E0.07986
G1 X204.049 Y178.416 E0.08331
G1 X205.730 Y176.776 E0.07363
G1 X205.363 Y176.877 E0.01195
G1 X205.000 Y176.909 E0.01142
G1 X204.637 Y176.877 E0.01142
G1 X204.285 Y176.783 E0.01142
G1 X203.962 Y176.633 E0.01117
G1 X203.658 Y176.421 E0.01162
G1 X203.399 Y176.163 E0.01146
G1 X203.191 Y175.865 E0.01142
G1 X203.037 Y175.534 E0.01142
G1 X202.942 Y175.183 E0.01142
G1 X202.911 Y174.820 E0.01142
G1 X202.942 Y174.457 E0.01142
G1 X203.037 Y174.105 E0.01142
G1 X203.191 Y173.775 E0.01142
G1 X203.399 Y173.477 E0.01142
G1 X203.657 Y173.219 E0.01142
G1 X203.955 Y173.010 E0.01142
G1 X204.285 Y172.857 E0.01142
G1 X204.637 Y172.762 E0.01142
G1 X204.992 Y172.731 E0.01117
G1 X205.362 Y172.762 E0.01162
G1 X205.715 Y172.857 E0.01146
G1 X206.045 Y173.010 E0.01142
G1 X206.343 Y173.219 E0.01142
G1 X206.600 Y173.477 E0.01142
G1 X206.809 Y173.775 E0.01142
G1 X206.963 Y174.105 E0.01142
G1 X207.058 Y174.457 E0.01142
G1 X207.089 Y174.820 E0.01142
G1 X207.058 Y175.183 E0.01142
G1 X206.953 Y175.557 E0.01218
G1 X209.164 Y173.336 E0.09826
G1 X212.490 Y169.913 E0.14966
G1 X216.050 Y166.189 E0.16153
G1 X225.437 Y156.227 E0.42918
G1 X226.439 Y155.423 E0.04028
G1 X227.458 Y154.547 E0.04212
G1 X228.485 Y153.598 E0.04386
G1 X229.293 Y152.800 E0.03558
G1 X230.101 Y151.953 E0.03671
G1 X230.908 Y151.056 E0.03783
G1 X231.710 Y150.106 E0.03899
G1 X232.484 Y149.131 E0.03901
G1 X233.292 Y148.045 E0.04244
G1 X234.044 Y146.964 E0.04132
G1 X234.802 Y145.798 E0.04360
G1 X235.540 Y144.577 E0.04474
G1 X236.273 Y143.268 E0.04703
G1 X236.787 Y142.274 E0.03508
G1 X237.013 Y142.658 F10800.000
G1 F1800
G1 X237.410 Y142.754 E0.01281
G1 X237.410 Y153.208 E0.32776
G1 X237.353 Y155.253 E0.06415
G1 X237.180 Y157.294 E0.06424
G1 X236.894 Y159.323 E0.06424
G1 X236.494 Y161.332 E0.06424
G1 X235.983 Y163.316 E0.06424
G1 X235.360 Y165.268 E0.06424
G1 X234.630 Y167.182 E0.06424
G1 X233.793 Y169.052 E0.06424
G1 X232.853 Y170.873 E0.06424
G1 X231.812 Y172.637 E0.06424
G1 X230.673 Y174.341 E0.06424
G1 X229.441 Y175.978 E0.06424
G1 X228.120 Y177.543 E0.06424
G1 X226.712 Y179.032 E0.06424
G1 X225.223 Y180.439 E0.06424
G1 X223.658 Y181.761 E0.06424
G1 X222.021 Y182.993 E0.06424
G1 X220.317 Y184.132 E0.06424
G1 X218.553 Y185.173 E0.06424
G1 X216.686 Y186.134 E0.06583
G1 X214.862 Y186.950 E0.06264
G1 X212.948 Y187.680 E0.06424
G1 X210.996 Y188.302 E0.06424
G1 X209.012 Y188.814 E0.06424
G1 X207.003 Y189.214 E0.06424
G1 X204.974 Y189.500 E0.06424
G1 X202.933 Y189.672 E0.06424
G1 X200.888 Y189.730 E0.06415
G1 X191.342 Y189.730 E0.29928
G1 X191.231 Y189.359 E0.01213
G1 X193.124 Y188.111 E0.07110
G1 X194.966 Y186.789 E0.07109
G1 X196.798 Y185.371 E0.07261
G1 X198.634 Y183.856 E0.07464
G1 X200.489 Y182.240 E0.07714
G1 X202.376 Y180.519 E0.08010
G1 X204.311 Y178.688 E0.08351
G1 X206.304 Y176.743 E0.08732
G1 X209.433 Y173.600 E0.13904
G1 X212.762 Y170.174 E0.14978
G1 X216.324 Y166.448 E0.16162
G1 X225.694 Y156.504 E0.42839
G1 X226.680 Y155.713 E0.03966
G1 X227.709 Y154.829 E0.04253
G1 X228.746 Y153.870 E0.04427
G1 X229.562 Y153.065 E0.03595
G1 X230.378 Y152.210 E0.03707
G1 X231.192 Y151.303 E0.03819
G1 X232.002 Y150.345 E0.03935
G1 X232.783 Y149.361 E0.03937
G1 X233.598 Y148.266 E0.04281
G1 X234.357 Y147.174 E0.04169
G1 X235.121 Y145.998 E0.04398
G1 X235.866 Y144.766 E0.04513
G1 X236.605 Y143.447 E0.04742
G1 X236.986 Y142.711 E0.02598
G1 X237.141 Y142.279 F10800.000
G1 F8640
G1 X237.410 Y142.754 E-0.09852
G1 X237.410 Y145.619 E-0.66148
G1 E-0.04000 F2100.00000
G1 Z0.800 F10800.000
G1 X206.100 Y173.509
G1 Z0.200
G1 E0.80000 F2100.00000
G1 F1800
G1 X206.311 Y173.720 E0.00935
G1 X206.482 Y173.964 E0.00935
G1 X206.608 Y174.235 E0.00935
G1 X206.685 Y174.523 E0.00935
G1 X206.711 Y174.820 E0.00935
G1 X206.685 Y175.117 E0.00935
G1 X206.608 Y175.405 E0.00935
G1 X206.485 Y175.669 E0.00913
G1 X206.311 Y175.919 E0.00955
G1 X206.100 Y176.130 E0.00936
G1 X205.855 Y176.301 E0.00935
G1 X205.585 Y176.427 E0.00935
G1 X205.297 Y176.505 E0.00935
G1 X205.000 Y176.531 E0.00935
G1 X204.703 Y176.505 E0.00935
G1 X204.415 Y176.427 E0.00935
G1 X204.151 Y176.304 E0.00913
G1 X203.901 Y176.131 E0.00955
G1 X203.689 Y175.920 E0.00936
G1 X203.518 Y175.675 E0.00935
G1 X203.392 Y175.405 E0.00935
G1 X203.315 Y175.117 E0.00935
G1 X203.289 Y174.820 E0.00935
G1 X203.315 Y174.523 E0.00935
G1 X203.392 Y174.235 E0.00935
G1 X203.518 Y173.964 E0.00935
G1 X203.689 Y173.720 E0.00935
G1 X203.900 Y173.509 E0.00935
G1 X204.145 Y173.338 E0.00935
G1 X204.415 Y173.212 E0.00935
G1 X204.703 Y173.135 E0.00935
G1 X204.993 Y173.110 E0.00913
G1 X205.297 Y173.135 E0.00955
G1 X205.585 Y173.212 E0.00936
G1 X205.855 Y173.338 E0.00935
G1 X206.051 Y173.475 E0.00747
G1 X206.380 Y173.407 F10800.000
G1 F8640
G1 X206.311 Y173.720 E-0.08253
G1 X206.482 Y173.964 E-0.06886
G1 X206.608 Y174.235 E-0.06885
G1 X206.685 Y174.523 E-0.06885
G1 X206.711 Y174.820 E-0.06887
G1 X206.685 Y175.117 E-0.06886
G1 X206.608 Y175.405 E-0.06885
G1 X206.485 Y175.669 E-0.06725
G1 X206.311 Y175.919 E-0.07035
G1 X206.100 Y176.130 E-0.06896
G1 X205.895 Y176.274 E-0.05777
G1 E-0.04000 F2100.00000
G1 Z0.800 F10800.000
G1 X234.130 Y130.913
G1 Z0.200
G1 E0.80000 F2100.00000
G1 F1800
G1 X233.618 Y130.554 E0.01962
G1 X233.187 Y130.123 E0.01910
G1 X232.817 Y129.601 E0.02008
G1 X232.552 Y129.032 E0.01966
G1 X232.390 Y128.428 E0.01962
G1 X232.336 Y127.805 E0.01962
G1 X232.390 Y127.181 E0.01962
G1 X232.552 Y126.577 E0.01962
G1 X232.817 Y126.010 E0.01962
G1 X233.176 Y125.497 E0.01962
G1 X233.618 Y125.055 E0.01962
G1 X234.130 Y124.696 E0.01962
G1 X234.698 Y124.432 E0.01962
G1 X235.302 Y124.270 E0.01962
G1 X235.909 Y124.217 E0.01910
G1 X236.547 Y124.269 E0.02008
G1 X237.153 Y124.432 E0.01966
G1 X237.720 Y124.696 E0.01962
G1 X238.232 Y125.055 E0.01962
G1 X238.675 Y125.497 E0.01962
G1 X239.034 Y126.010 E0.01962
G1 X239.298 Y126.577 E0.01962
G1 X239.460 Y127.181 E0.01962
G1 X239.514 Y127.805 E0.01962
G1 X239.460 Y128.428 E0.01962
G1 X239.298 Y129.032 E0.01962
G1 X239.034 Y129.599 E0.01962
G1 X238.675 Y130.112 E0.01962
G1 X238.232 Y130.554 E0.01962
G1 X237.720 Y130.913 E0.01962
G1 X237.153 Y131.177 E0.01962
G1 X236.548 Y131.339 E0.01962
G1 X235.925 Y131.394 E0.01962
G1 X235.302 Y131.339 E0.01962
G1 X234.698 Y131.177 E0.01962
G1 X234.185 Y130.938 E0.01774
G1 X234.344 Y130.597 F10800.000
G1 F1800
G1 X233.861 Y130.264 E0.01838
G1 X233.476 Y129.879 E0.01706
G1 X233.145 Y129.410 E0.01801
G1 X232.908 Y128.903 E0.01756
G1 X232.763 Y128.362 E0.01755
G1 X232.714 Y127.805 E0.01755
G1 X232.763 Y127.247 E0.01755
G1 X232.908 Y126.706 E0.01755
G1 X233.145 Y126.199 E0.01755
G1 X233.466 Y125.741 E0.01755
G1 X233.861 Y125.345 E0.01755
G1 X234.320 Y125.024 E0.01755
G1 X234.827 Y124.787 E0.01755
G1 X235.368 Y124.643 E0.01755
G1 X235.910 Y124.595 E0.01706
G1 X236.482 Y124.642 E0.01801
G1 X237.023 Y124.787 E0.01756
G1 X237.531 Y125.024 E0.01755
G1 X237.989 Y125.345 E0.01755
G1 X238.385 Y125.741 E0.01755
G1 X238.706 Y126.199 E0.01755
G1 X238.942 Y126.706 E0.01755
G1 X239.087 Y127.247 E0.01755
G1 X239.136 Y127.805 E0.01755
G1 X239.087 Y128.362 E0.01755
G1 X238.942 Y128.903 E0.01755
G1 X238.706 Y129.410 E0.01755
G1 X238.385 Y129.868 E0.01755
G1 X237.989 Y130.264 E0.01755
G1 X237.531 Y130.585 E0.01755
G1 X237.023 Y130.822 E0.01755
G1 X236.483 Y130.967 E0.01755
G1 X235.925 Y131.015 E0.01755
G1 X235.368 Y130.967 E0.01755
G1 X234.827 Y130.822 E0.01755
G1 X234.399 Y130.622 E0.01482
G1 X233.999 Y130.799 F10800.000
G1 F8640
G1 X233.861 Y130.264 E-0.14905
G1 X233.476 Y129.879 E-0.12567
G1 X233.145 Y129.410 E-0.13263
G1 X232.908 Y128.903 E-0.12935
G1 X232.763 Y128.362 E-0.12923
G1 X232.728 Y127.956 E-0.09407
G1 E-0.04000 F2100.00000
G1 Z0.800 F10800.000
G1 X201.990 Y103.978
G1 Z0.200
G1 E0.80000 F2100.00000
G1 F1800
G1 X201.664 Y104.303 E0.01442
G1 X201.295 Y104.562 E0.01415
G1 X200.886 Y104.753 E0.01415
G1 X200.450 Y104.870 E0.01415
G1 X200.000 Y104.909 E0.01415
G1 X199.550 Y104.870 E0.01415
G1 X199.114 Y104.753 E0.01415
G1 X198.705 Y104.562 E0.01415
G1 X198.336 Y104.303 E0.01415
G1 X198.016 Y103.984 E0.01415
G1 X197.758 Y103.615 E0.01415
G1 X197.567 Y103.205 E0.01415
G1 X197.450 Y102.769 E0.01415
G1 X197.411 Y102.320 E0.01415
G1 X197.450 Y101.870 E0.01415
G1 X197.567 Y101.434 E0.01415
G1 X197.758 Y101.025 E0.01415
G1 X198.016 Y100.655 E0.01415
G1 X198.336 Y100.336 E0.01415
G1 X198.705 Y100.077 E0.01415
G1 X199.114 Y99.887 E0.01415
G1 X199.550 Y99.770 E0.01415
G1 X199.922 Y99.737 E0.01170
G1 X200.441 Y99.768 E0.01631
G1 X200.886 Y99.887 E0.01442
G1 X201.295 Y100.077 E0.01415
G1 X201.664 Y100.336 E0.01415
G1 X201.984 Y100.655 E0.01415
G1 X202.242 Y101.025 E0.01415
G1 X202.433 Y101.434 E0.01415
G1 X202.550 Y101.870 E0.01415
G1 X202.589 Y102.320 E0.01415
G1 X202.550 Y102.769 E0.01415
G1 X202.433 Y103.205 E0.01415
G1 X202.276 Y103.544 E0.01170
G1 X202.023 Y103.928 E0.01443
G1 X201.708 Y103.721 F10800.000
G1 F1800
G1 X201.421 Y104.013 E0.01284
G1 X201.105 Y104.234 E0.01208
G1 X200.756 Y104.397 E0.01208
G1 X200.384 Y104.497 E0.01208
G1 X200.000 Y104.531 E0.01208
G1 X199.616 Y104.497 E0.01208
