; generated by Slic3r Prusa Edition 1.40.1+win64 on 2018-08-18 at 22:20:52

; 

; external perimeters extrusion width = 0.45mm
; perimeters extrusion width = 0.45mm
; infill extrusion width = 0.45mm
; solid infill extrusion width = 0.45mm
; top infill extrusion width = 0.40mm
; first layer extrusion width = 0.42mm

M107
M115 U3.2.1 ; tell printer latest fw version
M201 X1000 Y1000 Z200 E5000 ; sets maximum accelerations, mm/sec^2
M203 X200 Y200 Z12 E120 ; sets maximum feedrates, mm/sec
M204 S1250 T1250 ; sets acceleration (S) and retract acceleration (T)
M205 X10 Y10 Z0.4 E2.5 ; sets the jerk limits, mm/sec
M205 S0 T0 ; sets the minimum extruding and travel feed rate, mm/sec
M83  ; extruder relative mode
M104 S245 ; set extruder temp
M140 S60 ; set bed temp
M190 S60 ; wait for bed temp
M109 S245 ; wait for extruder temp
G28 W ; home all without mesh bed level
G80 ; mesh bed leveling
G1 Y-3.0 F1000.0 ; go outside print area
G92 E0.0
G1 X60.0 E9.0  F1000.0 ; intro line
G1 X100.0 E12.5  F1000.0 ; intro line
G92 E0.0
M221 S95
M900 K30; Filament gcode
G21 ; set units to millimeters
G90 ; use absolute coordinates
M83 ; use relative distances for extrusion
;BEFORE_LAYER_CHANGE
G92 E0.0
;0.2


G1 E-0.80000 F2100.00000
G1 Z0.600 F10800.000
;AFTER_LAYER_CHANGE
;0.2
G1 X95.273 Y72.760
G1 Z0.200
G1 E0.80000 F2100.00000
M204 S1000
G1 F1800
G1 X95.590 Y72.150 E0.02157
G1 X95.931 Y71.784 E0.01567
G1 X96.345 Y71.506 E0.01567
G1 X96.812 Y71.329 E0.01567
G1 X97.311 Y71.262 E0.01578
G1 X145.654 Y71.261 E1.51574
G1 X146.207 Y71.333 E0.01749
G1 X146.720 Y71.541 E0.01737
G1 X147.168 Y71.874 E0.01749
G1 X147.517 Y72.308 E0.01749
G1 X154.589 Y85.535 E0.47026
G1 X154.820 Y86.266 E0.02405
G1 X154.838 Y136.568 E1.57719
G1 X154.726 Y137.243 E0.02146
G1 X154.410 Y137.850 E0.02146
G1 X154.064 Y138.220 E0.01589
G1 X153.642 Y138.501 E0.01589
G1 X153.170 Y138.676 E0.01578
G1 X152.667 Y138.738 E0.01589
G1 X97.335 Y138.738 E1.73488
G1 X96.660 Y138.627 E0.02146
G1 X96.050 Y138.310 E0.02157
G1 X95.680 Y137.964 E0.01589
G1 X95.399 Y137.542 E0.01589
G1 X95.224 Y137.070 E0.01578
G1 X95.162 Y136.567 E0.01589
G1 X95.162 Y73.435 E1.97944
G1 X95.263 Y72.819 E0.01957
G1 F8640
G1 X95.590 Y72.150 E-0.17206
G1 X95.931 Y71.784 E-0.11536
G1 X96.345 Y71.506 E-0.11536
G1 X96.812 Y71.329 E-0.11536
G1 X97.311 Y71.262 E-0.11620
G1 X97.855 Y71.262 E-0.12564
G1 E-0.04000 F2100.00000
G1 Z0.800 F10800.000
G1 X106.913 Y97.063
G1 Z0.200
G1 E0.80000 F2100.00000
G1 F1800
G1 X136.087 Y97.063 E0.91474
G1 X136.087 Y122.893 E0.80989
G1 X130.243 Y128.737 E0.25913
G1 X112.757 Y128.737 E0.54827
G1 X106.913 Y122.893 E0.25913
G1 X106.913 Y97.123 E0.80801
G1 X107.290 Y97.440 F10800.000
G1 F1800
G1 X135.710 Y97.440 E0.89109
G1 X135.710 Y122.737 E0.79317
G1 X130.087 Y128.360 E0.24933
G1 X112.913 Y128.360 E0.53848
G1 X107.290 Y122.737 E0.24933
G1 X107.290 Y97.500 E0.79129
G1 X107.266 Y97.041 F10800.000
G1 F8640
G1 X110.581 Y97.493 E-0.76000
G1 E-0.04000 F2100.00000
G1 Z0.800 F10800.000
G1 X104.208 Y110.411
G1 Z0.200
G1 E0.80000 F2100.00000
G1 F1800
G1 X104.510 Y110.517 E0.01003
G1 X104.802 Y110.664 E0.01025
G1 X105.060 Y110.835 E0.00970
G1 X105.303 Y111.043 E0.01003
G1 X105.522 Y111.285 E0.01025
G1 X105.701 Y111.537 E0.00970
G1 X105.851 Y111.818 E0.00999
G1 X105.966 Y112.115 E0.00999
G1 X106.044 Y112.424 E0.00999
G1 X106.083 Y112.741 E0.00999
G1 X106.083 Y113.059 E0.00999
G1 X106.044 Y113.376 E0.00999
G1 X105.966 Y113.685 E0.00999
G1 X105.851 Y113.982 E0.00999
G1 X105.701 Y114.263 E0.00999
G1 X105.516 Y114.523 E0.00999
G1 X105.302 Y114.758 E0.00999
G1 X105.060 Y114.965 E0.00999
G1 X104.794 Y115.141 E0.00999
G1 X104.509 Y115.283 E0.00999
G1 X104.208 Y115.389 E0.00999
G1 X103.897 Y115.458 E0.00999
G1 X103.580 Y115.487 E0.00999
G1 X103.261 Y115.477 E0.00999
G1 X102.946 Y115.428 E0.00999
G1 X102.639 Y115.341 E0.01003
G1 X102.338 Y115.212 E0.01025
G1 X102.070 Y115.058 E0.00970
G1 X101.816 Y114.865 E0.00999
G1 X101.587 Y114.644 E0.00999
G1 X101.388 Y114.395 E0.00999
G1 X101.220 Y114.124 E0.00999
G1 X101.087 Y113.835 E0.00999
G1 X100.990 Y113.531 E0.00999
G1 X100.931 Y113.218 E0.00999
G1 X100.912 Y112.900 E0.00999
G1 X100.931 Y112.582 E0.00999
G1 X100.990 Y112.269 E0.00999
G1 X101.087 Y111.964 E0.01003
G1 X101.225 Y111.668 E0.01025
G1 X101.388 Y111.405 E0.00970
G1 X101.587 Y111.156 E0.00999
G1 X101.816 Y110.935 E0.00999
G1 X102.070 Y110.742 E0.00999
G1 X102.346 Y110.583 E0.00999
G1 X102.640 Y110.459 E0.00999
G1 X102.947 Y110.371 E0.01003
G1 X103.271 Y110.323 E0.01025
G1 X103.580 Y110.313 E0.00970
G1 X103.897 Y110.342 E0.00999
G1 X104.150 Y110.398 E0.00811
G1 X104.069 Y110.766 F10800.000
G1 F1800
G1 X104.362 Y110.865 E0.00969
G1 X104.612 Y110.991 E0.00879
G1 X104.832 Y111.136 E0.00826
G1 X105.039 Y111.313 E0.00855
G1 X105.227 Y111.521 E0.00879
G1 X105.379 Y111.736 E0.00826
G1 X105.508 Y111.976 E0.00853
G1 X105.606 Y112.230 E0.00853
G1 X105.673 Y112.494 E0.00853
G1 X105.706 Y112.764 E0.00853
G1 X105.706 Y113.036 E0.00853
G1 X105.673 Y113.306 E0.00853
G1 X105.606 Y113.570 E0.00853
G1 X105.508 Y113.824 E0.00853
G1 X105.379 Y114.064 E0.00853
G1 X105.222 Y114.286 E0.00853
G1 X105.039 Y114.487 E0.00853
G1 X104.832 Y114.664 E0.00853
G1 X104.605 Y114.814 E0.00853
G1 X104.362 Y114.936 E0.00853
G1 X104.105 Y115.026 E0.00853
G1 X103.839 Y115.084 E0.00853
G1 X103.568 Y115.109 E0.00853
G1 X103.296 Y115.101 E0.00853
G1 X103.027 Y115.059 E0.00853
G1 X102.765 Y114.985 E0.00855
G1 X102.507 Y114.874 E0.00879
G1 X102.279 Y114.743 E0.00826
G1 X102.062 Y114.579 E0.00853
G1 X101.866 Y114.389 E0.00853
G1 X101.696 Y114.177 E0.00853
G1 X101.553 Y113.946 E0.00853
G1 X101.439 Y113.698 E0.00853
G1 X101.356 Y113.439 E0.00853
G1 X101.306 Y113.172 E0.00853
G1 X101.290 Y112.900 E0.00853
G1 X101.306 Y112.628 E0.00853
G1 X101.356 Y112.361 E0.00853
G1 X101.439 Y112.101 E0.00855
G1 X101.557 Y111.847 E0.00879
G1 X101.696 Y111.623 E0.00826
G1 X101.866 Y111.411 E0.00853
G1 X102.062 Y111.221 E0.00853
G1 X102.279 Y111.057 E0.00853
G1 X102.515 Y110.921 E0.00853
G1 X102.765 Y110.815 E0.00853
G1 X103.028 Y110.741 E0.00855
G1 X103.305 Y110.699 E0.00879
G1 X103.568 Y110.691 E0.00826
G1 X103.839 Y110.716 E0.00853
G1 X104.010 Y110.753 E0.00550
G1 X104.288 Y110.548 F10800.000
G1 F8640
G1 X104.362 Y110.865 E-0.08515
G1 X104.612 Y110.991 E-0.06472
G1 X104.832 Y111.136 E-0.06085
G1 X105.039 Y111.313 E-0.06294
G1 X105.227 Y111.521 E-0.06472
G1 X105.379 Y111.736 E-0.06085
G1 X105.508 Y111.976 E-0.06284
G1 X105.606 Y112.230 E-0.06284
G1 X105.673 Y112.494 E-0.06284
G1 X105.706 Y112.764 E-0.06284
G1 X105.706 Y113.036 E-0.06284
G1 X105.681 Y113.236 E-0.04658
G1 E-0.04000 F2100.00000
G1 Z0.800 F10800.000
G1 X105.163 Y93.237
G1 Z0.200
G1 E0.80000 F2100.00000
G1 F1800
G1 X105.163 Y81.263 E0.37544
G1 X137.837 Y81.263 E1.02448
G1 X137.837 Y93.237 E0.37544
G1 X105.223 Y93.237 E1.02259
G1 X105.540 Y92.860 F10800.000
G1 F1800
G1 X105.540 Y81.640 E0.35180
G1 X137.460 Y81.640 E1.00083
G1 X137.460 Y92.860 E0.35180
G1 X105.600 Y92.860 E0.99895
G1 X105.143 Y92.905 F10800.000
G1 F8640
G1 X105.582 Y89.569 E-0.76000
G1 E-0.04000 F2100.00000
G1 Z0.800 F10800.000
G1 X137.225 Y111.668
G1 Z0.200
G1 E0.80000 F2100.00000
G1 F1800
G1 X137.388 Y111.405 E0.00970
G1 X137.587 Y111.156 E0.00999
G1 X137.816 Y110.935 E0.00999
G1 X138.070 Y110.742 E0.00999
G1 X138.346 Y110.583 E0.00999
G1 X138.640 Y110.459 E0.00999
G1 X138.947 Y110.371 E0.01003
G1 X139.271 Y110.323 E0.01025
G1 X139.580 Y110.313 E0.00970
G1 X139.897 Y110.342 E0.00999
G1 X140.208 Y110.411 E0.00999
G1 X140.510 Y110.517 E0.01003
G1 X140.802 Y110.664 E0.01025
G1 X141.060 Y110.835 E0.00970
G1 X141.303 Y111.043 E0.01003
G1 X141.522 Y111.285 E0.01025
G1 X141.701 Y111.537 E0.00970
G1 X141.851 Y111.818 E0.00999
G1 X141.966 Y112.115 E0.00999
G1 X142.044 Y112.424 E0.00999
G1 X142.083 Y112.741 E0.00999
G1 X142.083 Y113.059 E0.00999
G1 X142.044 Y113.376 E0.00999
G1 X141.966 Y113.685 E0.00999
G1 X141.851 Y113.982 E0.00999
G1 X141.701 Y114.263 E0.00999
G1 X141.516 Y114.523 E0.00999
G1 X141.302 Y114.758 E0.00999
G1 X141.060 Y114.965 E0.00999
G1 X140.794 Y115.141 E0.00999
G1 X140.509 Y115.283 E0.00999
G1 X140.208 Y115.389 E0.00999
G1 X139.897 Y115.458 E0.00999
G1 X139.580 Y115.487 E0.00999
G1 X139.261 Y115.477 E0.00999
G1 X138.946 Y115.428 E0.00999
G1 X138.640 Y115.341 E0.00999
G1 X138.346 Y115.217 E0.00999
G1 X138.070 Y115.058 E0.00999
G1 X137.816 Y114.865 E0.00999
G1 X137.587 Y114.644 E0.00999
G1 X137.388 Y114.395 E0.00999
G1 X137.220 Y114.124 E0.00999
G1 X137.087 Y113.835 E0.00999
G1 X136.990 Y113.531 E0.00999
G1 X136.931 Y113.218 E0.00999
G1 X136.912 Y112.900 E0.00999
G1 X136.931 Y112.582 E0.00999
G1 X136.990 Y112.269 E0.00999
G1 X137.087 Y111.964 E0.01003
G1 X137.199 Y111.722 E0.00837
G1 X137.541 Y111.881 F10800.000
G1 F1800
G1 X137.696 Y111.623 E0.00943
G1 X137.866 Y111.411 E0.00853
G1 X138.062 Y111.221 E0.00853
G1 X138.279 Y111.057 E0.00853
G1 X138.515 Y110.921 E0.00853
G1 X138.765 Y110.815 E0.00853
G1 X139.028 Y110.741 E0.00855
G1 X139.305 Y110.699 E0.00879
G1 X139.568 Y110.691 E0.00826
G1 X139.839 Y110.716 E0.00853
G1 X140.105 Y110.774 E0.00853
G1 X140.362 Y110.865 E0.00855
G1 X140.612 Y110.991 E0.00879
G1 X140.832 Y111.136 E0.00826
G1 X141.039 Y111.313 E0.00855
G1 X141.227 Y111.521 E0.00879
G1 X141.379 Y111.736 E0.00826
G1 X141.508 Y111.976 E0.00853
G1 X141.606 Y112.230 E0.00853
G1 X141.673 Y112.494 E0.00853
G1 X141.706 Y112.764 E0.00853
G1 X141.706 Y113.036 E0.00853
G1 X141.673 Y113.306 E0.00853
G1 X141.606 Y113.570 E0.00853
G1 X141.508 Y113.824 E0.00853
G1 X141.379 Y114.064 E0.00853
G1 X141.222 Y114.286 E0.00853
G1 X141.039 Y114.487 E0.00853
G1 X140.832 Y114.664 E0.00853
G1 X140.605 Y114.814 E0.00853
G1 X140.362 Y114.936 E0.00853
G1 X140.105 Y115.026 E0.00853
G1 X139.839 Y115.084 E0.00853
G1 X139.568 Y115.109 E0.00853
G1 X139.296 Y115.101 E0.00853
G1 X139.027 Y115.059 E0.00853
G1 X138.765 Y114.985 E0.00853
G1 X138.515 Y114.879 E0.00853
G1 X138.279 Y114.743 E0.00853
G1 X138.062 Y114.579 E0.00853
G1 X137.866 Y114.389 E0.00853
G1 X137.696 Y114.177 E0.00853
G1 X137.553 Y113.946 E0.00853
G1 X137.439 Y113.698 E0.00853
G1 X137.356 Y113.439 E0.00853
G1 X137.306 Y113.172 E0.00853
G1 X137.290 Y112.900 E0.00853
G1 X137.306 Y112.628 E0.00853
G1 X137.356 Y112.361 E0.00853
G1 X137.439 Y112.101 E0.00855
G1 X137.516 Y111.935 E0.00573
G1 X137.380 Y111.627 F10800.000
G1 F8640
G1 X137.696 Y111.623 E-0.08324
G1 X137.866 Y111.411 E-0.06284
G1 X138.062 Y111.221 E-0.06284
G1 X138.279 Y111.057 E-0.06284
G1 X138.515 Y110.921 E-0.06284
G1 X138.765 Y110.815 E-0.06284
G1 X139.028 Y110.741 E-0.06294
G1 X139.305 Y110.699 E-0.06472
G1 X139.568 Y110.691 E-0.06085
G1 X139.839 Y110.716 E-0.06284
G1 X140.105 Y110.774 E-0.06284
G1 X140.302 Y110.844 E-0.04837
G1 E-0.04000 F2100.00000
G1 Z0.800 F10800.000
G1 X145.063 Y87.137
G1 Z0.200
G1 E0.80000 F2100.00000
G1 F1800
G1 X152.063 Y87.137 E0.21948
G1 X152.063 Y135.963 E1.53090
G1 X97.937 Y135.963 E1.69708
G1 X97.937 Y74.037 E1.94164
G1 X145.063 Y74.037 E1.47760
G1 X145.063 Y87.077 E0.40886
G1 X145.440 Y86.760 F10800.000
G1 F1800
G1 X152.440 Y86.760 E0.21948
G1 X152.440 Y136.340 E1.55455
G1 X97.560 Y136.340 E1.72072
G1 X97.560 Y73.660 E1.96529
G1 X145.440 Y73.660 E1.50124
G1 X145.440 Y86.700 E0.40886
G1 X145.608 Y87.123 F10800.000
G1 F8640
G1 X148.731 Y86.728 E-0.76000
G1 E-0.04000 F2100.00000
G1 Z0.800 F10800.000
G1 X151.950 Y87.804
G1 Z0.200
G1 E0.80000 F2100.00000
G1 F1800
G1 X151.565 Y87.420 E0.01711
G1 X151.030 Y87.420 E0.01685
G1 X151.780 Y88.170 E0.03339
G1 X151.780 Y88.705 E0.01685
G1 X150.495 Y87.420 E0.05722
G1 X149.959 Y87.420 E0.01685
G1 X151.780 Y89.241 E0.08105
G1 X151.780 Y89.776 E0.01685
G1 X149.424 Y87.420 E0.10488
G1 X148.889 Y87.420 E0.01685
G1 X151.780 Y90.311 E0.12871
G1 X151.780 Y90.847 E0.01685
G1 X148.353 Y87.420 E0.15254
G1 X147.818 Y87.420 E0.01685
G1 X151.780 Y91.382 E0.17637
G1 X151.780 Y91.917 E0.01685
G1 X147.283 Y87.420 E0.20020
G1 X146.747 Y87.420 E0.01685
G1 X151.780 Y92.453 E0.22403
G1 X151.780 Y92.988 E0.01685
G1 X146.212 Y87.420 E0.24786
G1 X145.677 Y87.420 E0.01685
G1 X151.780 Y93.523 E0.27169
G1 X151.780 Y94.059 E0.01685
G1 X145.141 Y87.420 E0.29552
G1 X144.780 Y87.420 E0.01137
G1 X144.780 Y87.059 E0.01137
G1 X132.041 Y74.320 E0.56706
G1 X132.577 Y74.320 E0.01685
G1 X144.780 Y86.523 E0.54323
G1 X144.780 Y85.988 E0.01685
G1 X133.112 Y74.320 E0.51940
G1 X133.647 Y74.320 E0.01685
G1 X144.780 Y85.453 E0.49557
G1 X144.780 Y84.917 E0.01685
G1 X134.183 Y74.320 E0.47174
G1 X134.718 Y74.320 E0.01685
G1 X144.780 Y84.382 E0.44791
G1 X144.780 Y83.847 E0.01685
G1 X135.253 Y74.320 E0.42408
G1 X135.789 Y74.320 E0.01685
G1 X144.780 Y83.311 E0.40025
G1 X144.780 Y82.776 E0.01685
G1 X136.324 Y74.320 E0.37642
G1 X136.859 Y74.320 E0.01685
G1 X144.780 Y82.241 E0.35259
G1 X144.780 Y81.705 E0.01685
G1 X137.395 Y74.320 E0.32876
G1 X137.930 Y74.320 E0.01685
G1 X144.780 Y81.170 E0.30492
G1 X144.780 Y80.635 E0.01685
G1 X138.465 Y74.320 E0.28109
G1 X139.001 Y74.320 E0.01685
G1 X144.780 Y80.099 E0.25726
G1 X144.780 Y79.564 E0.01685
G1 X139.536 Y74.320 E0.23343
G1 X140.071 Y74.320 E0.01685
G1 X144.780 Y79.029 E0.20960
G1 X144.780 Y78.493 E0.01685
G1 X140.607 Y74.320 E0.18577
G1 X141.142 Y74.320 E0.01685
G1 X144.780 Y77.958 E0.16194
G1 X144.780 Y77.423 E0.01685
G1 X141.677 Y74.320 E0.13811
G1 X142.213 Y74.320 E0.01685
G1 X144.780 Y76.887 E0.11428
G1 X144.780 Y76.352 E0.01685
G1 X142.748 Y74.320 E0.09045
G1 X143.283 Y74.320 E0.01685
G1 X144.780 Y75.817 E0.06662
G1 X144.780 Y75.281 E0.01685
G1 X143.819 Y74.320 E0.04279
G1 X144.354 Y74.320 E0.01685
G1 X144.950 Y74.916 E0.02652
G1 F8640
G1 X144.354 Y74.320 E-0.19452
G1 X143.819 Y74.320 E-0.12361
G1 X144.780 Y75.281 E-0.31392
G1 X144.780 Y75.817 E-0.12361
G1 X144.767 Y75.803 E-0.00433
G1 E-0.04000 F2100.00000
G1 Z0.800 F10800.000
G1 X151.950 Y94.764
G1 Z0.200
G1 E0.80000 F2100.00000
G1 F1800
G1 X131.506 Y74.320 E0.91004
G1 X130.971 Y74.320 E0.01685
G1 X137.631 Y80.980 E0.29647
G1 X137.096 Y80.980 E0.01685
G1 X130.435 Y74.320 E0.29647
G1 X129.900 Y74.320 E0.01685
G1 X136.560 Y80.980 E0.29647
G1 X136.025 Y80.980 E0.01685
G1 X129.365 Y74.320 E0.29647
G1 X128.829 Y74.320 E0.01685
G1 X135.489 Y80.980 E0.29647
G1 X134.954 Y80.980 E0.01685
G1 X128.294 Y74.320 E0.29647
G1 X127.759 Y74.320 E0.01685
G1 X134.419 Y80.980 E0.29647
G1 X133.883 Y80.980 E0.01685
G1 X127.223 Y74.320 E0.29647
G1 X126.688 Y74.320 E0.01685
G1 X133.348 Y80.980 E0.29647
G1 X132.813 Y80.980 E0.01685
G1 X126.153 Y74.320 E0.29647
G1 X125.617 Y74.320 E0.01685
G1 X132.277 Y80.980 E0.29647
G1 X131.742 Y80.980 E0.01685
G1 X125.082 Y74.320 E0.29647
G1 X124.546 Y74.320 E0.01685
G1 X131.207 Y80.980 E0.29647
G1 X130.671 Y80.980 E0.01685
G1 X124.011 Y74.320 E0.29647
G1 X123.476 Y74.320 E0.01685
G1 X130.136 Y80.980 E0.29647
G1 X129.601 Y80.980 E0.01685
G1 X122.940 Y74.320 E0.29647
G1 X122.405 Y74.320 E0.01685
G1 X129.065 Y80.980 E0.29647
G1 X128.530 Y80.980 E0.01685
G1 X121.870 Y74.320 E0.29647
G1 X121.334 Y74.320 E0.01685
G1 X127.995 Y80.980 E0.29647
G1 X127.459 Y80.980 E0.01685
G1 X120.799 Y74.320 E0.29647
G1 X120.264 Y74.320 E0.01685
G1 X126.924 Y80.980 E0.29647
G1 X126.389 Y80.980 E0.01685
G1 X119.728 Y74.320 E0.29647
G1 X119.193 Y74.320 E0.01685
G1 X125.853 Y80.980 E0.29647
G1 X125.318 Y80.980 E0.01685
G1 X118.658 Y74.320 E0.29647
G1 X118.122 Y74.320 E0.01685
G1 X124.783 Y80.980 E0.29647
G1 X124.247 Y80.980 E0.01685
G1 X117.587 Y74.320 E0.29647
G1 X117.052 Y74.320 E0.01685
G1 X123.712 Y80.980 E0.29647
G1 X123.177 Y80.980 E0.01685
G1 X116.516 Y74.320 E0.29647
G1 X115.981 Y74.320 E0.01685
G1 X122.641 Y80.980 E0.29647
G1 X122.106 Y80.980 E0.01685
G1 X115.446 Y74.320 E0.29647
G1 X114.910 Y74.320 E0.01685
G1 X121.571 Y80.980 E0.29647
G1 X121.035 Y80.980 E0.01685
G1 X114.375 Y74.320 E0.29647
G1 X113.840 Y74.320 E0.01685
G1 X120.500 Y80.980 E0.29647
G1 X119.965 Y80.980 E0.01685
G1 X113.304 Y74.320 E0.29647
G1 X112.769 Y74.320 E0.01685
G1 X119.429 Y80.980 E0.29647
G1 X118.894 Y80.980 E0.01685
G1 X112.234 Y74.320 E0.29647
G1 X111.698 Y74.320 E0.01685
G1 X118.359 Y80.980 E0.29647
G1 X117.823 Y80.980 E0.01685
G1 X111.163 Y74.320 E0.29647
G1 X110.628 Y74.320 E0.01685
G1 X117.288 Y80.980 E0.29647
