; generated by Slic3r Prusa Edition 1.39.1-prusa3d-win64 on 2018-06-11 at 18:17:33

; 

; external perimeters extrusion width = 0.45mm
; perimeters extrusion width = 0.45mm
; infill extrusion width = 0.45mm
; solid infill extrusion width = 0.45mm
; top infill extrusion width = 0.40mm
; first layer extrusion width = 0.42mm

M107
M115 U3.1.1-RC5 ; tell printer latest fw version
M201 X1000 Y1000 Z200 E5000 ; sets maximum accelerations, mm/sec^2
M203 X200 Y200 Z12 E120 ; sets maximum feedrates, mm/sec
M204 S1250 T1250 ; sets acceleration (S) and retract acceleration (T)
M205 X10 Y10 Z0.4 E2.5 ; sets the jerk limits, mm/sec
M205 S0 T0 ; sets the minimum extruding and travel feed rate, mm/sec
M83  ; extruder relative mode
M104 S215 ; set extruder temp
M140 S60 ; set bed temp
M190 S60 ; wait for bed temp
M109 S215 ; wait for extruder temp
G28 W ; home all without mesh bed level
G80 ; mesh bed leveling
G1 Y-3.0 F1000.0 ; go outside print area
G92 E0.0
G1 X60.0 E9.0  F1000.0 ; intro line
G1 X100.0 E12.5  F1000.0 ; intro line
G92 E0.0
M221 S100
M900 K30; Filament gcode
G21 ; set units to millimeters
G90 ; use absolute coordinates
M83 ; use relative distances for extrusion
;BEFORE_LAYER_CHANGE
;0.2


G1 E-0.80000 F2100.00000
G1 Z0.600 F10800.000
;AFTER_LAYER_CHANGE
;0.2
G1 X119.039 Y97.545 F10800.000
G1 Z0.200 F10800.000
G1 E0.80000 F2100.00000
M204 S500
G1 F900
G1 X119.613 Y96.894 E0.02722
G1 X120.280 Y96.379 E0.02642
G1 X121.011 Y96.006 E0.02571
G1 X121.827 Y95.765 E0.02668
G1 X122.697 Y95.682 E0.02741
G1 X123.651 Y95.786 E0.03009
G1 X124.592 Y96.105 E0.03116
G1 X129.804 Y99.048 E0.18767
G1 X130.334 Y99.439 E0.02066
G1 X130.756 Y99.875 E0.01902
G1 X131.124 Y100.419 E0.02060
G1 X131.377 Y100.984 E0.01942
G1 X131.574 Y102.104 E0.03564
G1 X131.575 Y110.592 E0.26614
G1 X131.518 Y111.246 E0.02057
G1 X131.230 Y112.146 E0.02965
G1 X130.682 Y112.986 E0.03146
G1 X129.930 Y113.646 E0.03135
G1 X129.059 Y114.075 E0.03044
G1 X127.831 Y114.285 E0.03908
G1 X124.609 Y114.285 E0.10102
G1 X123.905 Y114.187 E0.02229
G1 X123.191 Y113.905 E0.02406
G1 X122.563 Y113.455 E0.02420
G1 X122.067 Y112.870 E0.02406
G1 X121.729 Y112.181 E0.02406
G1 X118.355 Y101.423 E0.35351
G1 X118.212 Y100.699 E0.02315
G1 X118.190 Y99.919 E0.02445
G1 X118.324 Y99.065 E0.02710
G1 X118.601 Y98.290 E0.02581
G1 X119.008 Y97.597 E0.02521
G1 F8640
G1 X119.613 Y96.894 E-0.21409
G1 F8640
G1 X120.280 Y96.379 E-0.19459
G1 F8640
G1 X121.011 Y96.006 E-0.18934
G1 F8640
G1 X121.683 Y95.807 E-0.16198
G1 E-0.04000 F2100.00000
G1 Z0.800 F10800.000
G1 X130.453 Y100.101 F10800.000
G1 Z0.200 F10800.000
G1 E0.80000 F2100.00000
G1 F900
G1 X131.014 Y101.088 E0.03560
G1 X131.197 Y102.106 E0.03243
G1 X131.156 Y111.126 E0.28283
G1 X130.904 Y111.954 E0.02713
G1 X130.415 Y112.719 E0.02846
G1 X129.736 Y113.322 E0.02846
G1 X128.955 Y113.711 E0.02737
G1 X127.830 Y113.908 E0.03582
G1 X124.634 Y113.908 E0.10020
G1 X124.050 Y113.834 E0.01848
G1 X123.410 Y113.595 E0.02141
G1 X122.849 Y113.205 E0.02141
G1 X122.401 Y112.690 E0.02141
G1 X122.092 Y112.076 E0.02154
G1 X118.719 Y101.325 E0.35329
G1 X118.589 Y100.678 E0.02071
G1 X118.564 Y99.999 E0.02131
G1 X118.669 Y99.240 E0.02402
G1 X118.929 Y98.481 E0.02513
G1 X119.329 Y97.788 E0.02510
G1 X119.840 Y97.198 E0.02449
G1 X120.463 Y96.710 E0.02482
G1 X121.134 Y96.363 E0.02368
G1 X121.893 Y96.136 E0.02484
G1 X122.699 Y96.059 E0.02536
G1 X123.610 Y96.164 E0.02876
G1 X124.490 Y96.474 E0.02927
G1 X129.598 Y99.365 E0.18401
G1 X130.408 Y100.062 E0.03350
G1 X130.152 Y100.329 F10800.000
G1 F900
G1 X130.652 Y101.195 E0.03135
G1 X130.820 Y102.113 E0.02925
G1 X130.790 Y111.031 E0.27962
G1 X130.572 Y111.774 E0.02428
G1 X130.142 Y112.458 E0.02532
G1 X129.536 Y113.002 E0.02552
G1 X128.852 Y113.348 E0.02405
G1 X127.855 Y113.530 E0.03175
G1 X124.185 Y113.478 E0.11511
G1 X123.622 Y113.280 E0.01870
G1 X123.127 Y112.948 E0.01870
G1 X122.729 Y112.503 E0.01870
G1 X122.454 Y111.969 E0.01882
G1 X119.091 Y101.254 E0.35214
G1 X118.936 Y100.145 E0.03510
G1 X119.016 Y99.417 E0.02297
G1 X119.241 Y98.707 E0.02333
G1 X119.601 Y98.055 E0.02337
G1 X120.071 Y97.499 E0.02282
G1 X120.609 Y97.065 E0.02167
G1 X121.264 Y96.717 E0.02325
G1 X121.961 Y96.507 E0.02283
G1 X122.697 Y96.436 E0.02317
G1 X123.529 Y96.532 E0.02628
G1 X124.338 Y96.819 E0.02690
G1 X129.391 Y99.680 E0.18206
G1 X130.107 Y100.290 E0.02949
G1 F8640
G1 X130.652 Y101.195 E-0.24399
G1 F8640
G1 X130.820 Y102.113 E-0.21541
G1 F8640
G1 X130.815 Y103.415 E-0.30060
G1 E-0.04000 F2100.00000
G1 Z0.800 F10800.000
G1 X127.249 Y102.719 F10800.000
G1 Z0.200 F10800.000
G1 E0.80000 F2100.00000
G1 F900
G1 X127.248 Y110.061 E0.23020
G1 X125.651 Y110.061 E0.05007
G1 X125.651 Y103.651 E0.20098
G1 X122.433 Y100.429 E0.14279
G1 X122.376 Y100.346 E0.00315
G1 X122.346 Y100.256 E0.00297
G1 X122.343 Y100.147 E0.00344
G1 X122.387 Y100.017 E0.00431
G1 X122.478 Y99.911 E0.00438
G1 X122.614 Y99.848 E0.00471
G1 X122.759 Y99.845 E0.00454
G1 X122.906 Y99.915 E0.00511
G1 X125.892 Y102.712 E0.12829
G1 X127.189 Y102.719 E0.04065
G1 F8640
G1 X127.215 Y106.010 E-0.76000
G1 E-0.04000 F2100.00000
G1 Z0.800 F10800.000
G1 X126.042 Y102.336 F10800.000
G1 Z0.200 F10800.000
G1 E0.80000 F2100.00000
G1 F900
G1 X127.626 Y102.344 E0.04966
G1 X127.625 Y110.438 E0.25379
G1 X125.274 Y110.438 E0.07371
G1 X125.274 Y103.807 E0.20791
G1 X122.099 Y100.617 E0.14113
G1 X122.038 Y100.515 E0.00373
G1 X121.971 Y100.306 E0.00689
G1 X121.964 Y100.118 E0.00589
G1 X121.988 Y99.991 E0.00405
G1 X122.057 Y99.829 E0.00555
G1 X122.163 Y99.685 E0.00557
G1 X122.260 Y99.600 E0.00407
G1 X122.420 Y99.512 E0.00570
G1 X122.546 Y99.475 E0.00414
G1 X122.730 Y99.462 E0.00577
G1 X122.835 Y99.475 E0.00333
G1 X123.048 Y99.555 E0.00713
G1 X123.143 Y99.619 E0.00359
G1 X125.998 Y102.295 E0.12270
G1 X126.192 Y101.960 F10800.000
G1 F900
G1 X127.830 Y101.967 E0.05137
G1 X127.943 Y102.005 E0.00373
G1 X127.991 Y102.065 E0.00242
G1 X128.002 Y110.645 E0.26903
G1 X127.981 Y110.734 E0.00285
G1 X127.923 Y110.781 E0.00236
G1 X127.742 Y110.815 E0.00576
G1 X124.897 Y110.815 E0.08919
G1 X124.897 Y103.963 E0.21484
G1 X121.873 Y100.936 E0.13418
G1 X121.790 Y100.835 E0.00409
G1 X121.699 Y100.684 E0.00552
G1 X121.634 Y100.522 E0.00548
G1 X121.595 Y100.356 E0.00536
G1 X121.586 Y100.090 E0.00834
G1 X121.625 Y99.881 E0.00664
G1 X121.728 Y99.640 E0.00822
G1 X121.883 Y99.429 E0.00823
G1 X122.043 Y99.289 E0.00665
G1 X122.274 Y99.162 E0.00827
G1 X122.478 Y99.102 E0.00668
G1 X122.740 Y99.083 E0.00821
G1 X122.912 Y99.104 E0.00544
G1 X123.078 Y99.153 E0.00544
G1 X123.235 Y99.226 E0.00544
G1 X123.379 Y99.324 E0.00545
G1 X126.148 Y101.919 E0.11898
G1 X126.299 Y102.345 F10800.000
G1 F8640
G1 X127.830 Y101.967 E-0.38858
G1 F8640
G1 X127.943 Y102.005 E-0.02748
G1 F8640
G1 X127.991 Y102.065 E-0.01783
G1 F8640
G1 X127.993 Y103.478 E-0.32611
G1 E-0.04000 F2100.00000
G1 Z0.800 F10800.000
G1 X127.136 Y103.597 F10800.000
G1 Z0.200 F10800.000
G1 E0.80000 F2100.00000
G1 F900
G1 X126.537 Y102.998 E0.02663
G1 X126.000 Y102.996 E0.01692
G1 X126.966 Y103.962 E0.04301
G1 X126.966 Y104.497 E0.01684
G1 X123.777 Y101.309 E0.14190
G1 X123.728 Y101.197 F10800.000
G1 F900
G1 X122.695 Y100.196 E0.04364
G1 X122.692 Y100.197 F10800.000
G1 F900
G1 X122.689 Y100.188 E0.00026
G1 F8640
G1 X122.692 Y100.197 E-0.00228
G1 E-0.79772 F2100.00000
G1 Z0.800 F10800.000
G1 X127.136 Y105.202 F10800.000
G1 Z0.200 F10800.000
G1 E0.80000 F2100.00000
G1 F900
G1 X125.934 Y104.001 E0.05346
G1 X125.934 Y104.536 E0.01684
G1 X126.966 Y105.567 E0.04591
G1 X126.966 Y106.103 E0.01684
G1 X125.934 Y105.071 E0.04591
G1 X125.934 Y105.606 E0.01684
G1 X126.966 Y106.638 E0.04590
G1 X126.966 Y107.173 E0.01684
G1 X125.934 Y106.141 E0.04590
G1 X125.934 Y106.677 E0.01684
G1 X126.966 Y107.708 E0.04590
G1 X126.966 Y108.243 E0.01684
G1 X125.934 Y107.212 E0.04590
G1 X125.934 Y107.747 E0.01684
G1 X126.966 Y108.778 E0.04590
G1 X126.965 Y109.313 E0.01684
G1 X125.934 Y108.282 E0.04589
G1 X125.934 Y108.817 E0.01684
G1 X126.895 Y109.778 E0.04275
G1 X126.360 Y109.778 E0.01684
G1 X125.765 Y109.183 E0.02649
M106 S255
;BEFORE_LAYER_CHANGE
;0.25


G1 F8640
G1 X126.360 Y109.778 E-0.19436
G1 F8640
G1 X126.895 Y109.778 E-0.12355
G1 F8640
G1 X125.934 Y108.817 E-0.31367
G1 F8640
G1 X125.934 Y108.282 E-0.12358
G1 F8640
G1 X125.949 Y108.297 E-0.00484
G1 E-0.04000 F2100.00000
G1 Z0.800 F10800.000
;AFTER_LAYER_CHANGE
;0.25
M104 S210 ; set temperature
G1 X122.067 Y112.870 F10800.000
G1 Z0.250 F10800.000
G1 E0.80000 F2100.00000
G1 F900
G1 X121.729 Y112.181 E0.00653
G1 X118.355 Y101.423 E0.09592
G1 X118.212 Y100.699 E0.00628
G1 X118.190 Y99.919 E0.00663
G1 X118.324 Y99.065 E0.00735
G1 X118.601 Y98.290 E0.00700
G1 X119.039 Y97.545 E0.00735
G1 X119.613 Y96.894 E0.00739
G1 X120.280 Y96.379 E0.00717
G1 X121.011 Y96.006 E0.00698
G1 X121.827 Y95.765 E0.00724
G1 X122.697 Y95.682 E0.00744
G1 X123.651 Y95.786 E0.00816
G1 X124.592 Y96.105 E0.00845
G1 X129.804 Y99.048 E0.05092
G1 X130.334 Y99.439 E0.00561
G1 X130.756 Y99.875 E0.00516
G1 X131.124 Y100.419 E0.00559
G1 X131.377 Y100.984 E0.00527
G1 X131.574 Y102.104 E0.00967
G1 X131.575 Y110.592 E0.07222
G1 X131.518 Y111.246 E0.00558
G1 X131.230 Y112.146 E0.00804
G1 X130.682 Y112.986 E0.00854
G1 X129.930 Y113.646 E0.00851
G1 X129.059 Y114.075 E0.00826
G1 X127.831 Y114.285 E0.01060
G1 X124.609 Y114.285 E0.02741
G1 X123.905 Y114.187 E0.00605
G1 X123.191 Y113.905 E0.00653
G1 X122.563 Y113.455 E0.00657
G1 X122.106 Y112.915 E0.00602
G1 F8640
G1 X121.729 Y112.181 E-0.19068
G1 F8640
G1 X120.991 Y109.828 E-0.56932
G1 E-0.04000 F2100.00000
G1 Z0.850 F10800.000
G1 X125.791 Y110.027 F10800.000
G1 Z0.250 F10800.000
G1 E0.80000 F2100.00000
M204 S300
G1 F900
G1 X125.791 Y103.670 E0.05805
G1 X122.496 Y100.372 E0.04256
G1 X122.437 Y100.269 E0.00109
G1 X122.435 Y100.116 E0.00139
G1 X122.519 Y99.988 E0.00140
G1 X122.645 Y99.931 E0.00126
G1 X122.747 Y99.931 E0.00093
G1 X122.853 Y99.982 E0.00107
G1 X125.803 Y102.745 E0.03691
G1 X127.289 Y102.755 E0.01358
G1 X127.289 Y110.027 E0.06640
G1 X125.851 Y110.027 E0.01313
M204 S500
G1 X125.352 Y110.466 F10800.000
M204 S300
G1 F900
G1 X125.352 Y103.851 E0.06040
G1 X122.118 Y100.604 E0.04184
G1 X122.059 Y100.505 E0.00106
G1 X121.994 Y100.304 E0.00193
G1 X121.988 Y100.119 E0.00169
G1 X122.012 Y99.992 E0.00118
G1 X122.061 Y99.870 E0.00120
G1 X122.162 Y99.721 E0.00164
G1 X122.252 Y99.636 E0.00113
G1 X122.398 Y99.548 E0.00156
G1 X122.560 Y99.497 E0.00155
G1 X122.710 Y99.485 E0.00138
G1 X122.834 Y99.499 E0.00114
G1 X123.036 Y99.575 E0.00198
G1 X123.128 Y99.638 E0.00101
G1 X125.977 Y102.307 E0.03565
G1 X127.729 Y102.319 E0.01599
G1 X127.728 Y110.466 E0.07440
G1 X125.412 Y110.466 E0.02116
M204 S500
G1 F8640
G1 X125.382 Y107.175 E-0.76000
G1 E-0.04000 F2100.00000
G1 Z0.850 F10800.000
G1 X124.912 Y104.033 F10800.000
G1 Z0.250 F10800.000
G1 E0.80000 F2100.00000
M204 S300
G1 F900
G1 X121.844 Y100.962 E0.03964
G1 X121.664 Y100.702 E0.00289
G1 X121.597 Y100.534 E0.00165
G1 X121.557 Y100.362 E0.00161
G1 X121.547 Y100.086 E0.00252
G1 X121.588 Y99.869 E0.00202
G1 X121.671 Y99.663 E0.00203
G1 X121.825 Y99.436 E0.00250
G1 X121.984 Y99.284 E0.00200
G1 X122.216 Y99.145 E0.00247
G1 X122.474 Y99.063 E0.00247
G1 X122.717 Y99.043 E0.00223
G1 X122.921 Y99.067 E0.00187
G1 X123.092 Y99.116 E0.00163
G1 X123.255 Y99.193 E0.00164
G1 X123.403 Y99.294 E0.00164
G1 X126.152 Y101.869 E0.03440
G1 X127.875 Y101.880 E0.01573
G1 X128.048 Y101.945 E0.00168
G1 X128.144 Y102.055 E0.00134
G1 X128.168 Y102.192 E0.00126
G1 X128.168 Y110.599 E0.07677
G1 X128.127 Y110.751 E0.00144
G1 X127.994 Y110.860 E0.00157
G1 X127.903 Y110.890 E0.00088
G1 X127.750 Y110.905 E0.00140
G1 X124.912 Y110.906 E0.02591
G1 X124.912 Y104.093 E0.06221
M204 S500
G1 X125.066 Y103.664 F10800.000
G1 F8640
G1 X122.609 Y101.742 E-0.76000
G1 E-0.04000 F2100.00000
G1 Z0.850 F10800.000
G1 X125.648 Y103.340 F10800.000
G1 Z0.250 F10800.000
G1 E0.80000 F2100.00000
M204 S800
G1 F900
G1 X125.913 Y103.075 E0.00357
G1 X126.558 Y103.080 E0.00614
G1 X126.112 Y103.525 E0.00601
G1 X126.120 Y104.166 E0.00611
G1 X126.960 Y103.326 E0.01132
G1 X126.960 Y103.975 E0.00618
G1 X126.120 Y104.814 E0.01132
G1 X126.120 Y105.463 E0.00618
G1 X126.960 Y104.623 E0.01132
G1 X126.960 Y105.272 E0.00618
G1 X126.120 Y106.111 E0.01132
G1 X126.120 Y106.760 E0.00618
G1 X126.960 Y105.921 E0.01132
G1 X126.960 Y106.569 E0.00618
G1 X126.120 Y107.409 E0.01132
G1 X126.120 Y108.057 E0.00618
G1 X126.960 Y107.218 E0.01132
G1 X126.960 Y107.866 E0.00618
G1 X126.120 Y108.706 E0.01132
G1 X126.120 Y109.355 E0.00618
G1 X126.960 Y108.515 E0.01132
G1 X126.960 Y109.164 E0.00618
G1 X126.228 Y109.895 E0.00986
M204 S500
G1 F8640
G1 X126.960 Y109.164 E-0.23887
G1 F8640
G1 X126.960 Y108.515 E-0.14977
G1 F8640
G1 X126.120 Y109.355 E-0.27414
G1 F8640
G1 X126.120 Y108.934 E-0.09722
G1 E-0.04000 F2100.00000
G1 Z0.850 F10800.000
G1 X125.552 Y102.963 F10800.000
G1 Z0.250 F10800.000
G1 E0.80000 F2100.00000
G1 F900
G1 X123.647 Y101.119 E0.00960
G1 F900
G1 X122.692 Y100.191 E0.00249
;BEFORE_LAYER_CHANGE
;0.3


G1 F8640
G1 X123.647 Y101.119 E-0.30746
G1 E-0.49254 F2100.00000
G1 Z0.850 F10800.000
;AFTER_LAYER_CHANGE
;0.3
G1 X123.651 Y95.786 F10800.000
G1 Z0.300 F10800.000
G1 E0.80000 F2100.00000
G1 F900
G1 X124.592 Y96.105 E0.00845
G1 X129.804 Y99.048 E0.05092
G1 X130.334 Y99.439 E0.00561
G1 X130.756 Y99.875 E0.00516
G1 X131.124 Y100.419 E0.00559
G1 X131.377 Y100.984 E0.00527
G1 X131.574 Y102.104 E0.00967
G1 X131.575 Y110.592 E0.07222
G1 X131.518 Y111.246 E0.00558
G1 X131.230 Y112.146 E0.00804
G1 X130.682 Y112.986 E0.00854
G1 X129.930 Y113.646 E0.00851
G1 X129.059 Y114.075 E0.00826
G1 X127.831 Y114.285 E0.01060
G1 X124.609 Y114.285 E0.02741
G1 X123.905 Y114.187 E0.00605
G1 X123.191 Y113.905 E0.00653
G1 X122.563 Y113.455 E0.00657
G1 X122.067 Y112.870 E0.00653
G1 X121.729 Y112.181 E0.00653
G1 X118.355 Y101.423 E0.09592
G1 X118.212 Y100.699 E0.00628
G1 X118.190 Y99.919 E0.00663
G1 X118.324 Y99.065 E0.00735
G1 X118.601 Y98.290 E0.00700
G1 X119.039 Y97.545 E0.00735
G1 X119.613 Y96.894 E0.00739
G1 X120.280 Y96.379 E0.00717
G1 X121.011 Y96.006 E0.00698
G1 X121.827 Y95.765 E0.00724
G1 X122.697 Y95.682 E0.00744
G1 X123.591 Y95.780 E0.00765
G1 F8640
G1 X124.592 Y96.105 E-0.24299
G1 F8640
G1 X126.542 Y97.206 E-0.51701
G1 E-0.04000 F2100.00000
G1 Z0.900 F10800.000
G1 X122.753 Y99.929 F10800.000
G1 Z0.300 F10800.000
G1 E0.80000 F2100.00000
M204 S300
G1 F900
G1 X122.857 Y99.980 E0.00106
G1 X125.782 Y102.720 E0.03660
G1 X127.340 Y102.733 E0.01423
G1 X127.340 Y110.051 E0.06682
G1 X125.791 Y110.051 E0.01414
G1 X125.791 Y103.674 E0.05823
G1 X122.499 Y100.380 E0.04253
G1 X122.450 Y100.310 E0.00078
G1 X122.426 Y100.233 E0.00074
G1 X122.424 Y100.162 E0.00065
G1 X122.453 Y100.068 E0.00089
G1 X122.539 Y99.969 E0.00120
G1 X122.693 Y99.924 E0.00147
M204 S500
G1 F8640
G1 X122.857 Y99.980 E-0.03989
G1 F8640
G1 X125.133 Y102.112 E-0.72010
G1 E-0.04000 F2100.00000
G1 Z0.900 F10800.000
G1 X125.352 Y103.856 F10800.000
G1 Z0.300 F10800.000
G1 E0.80000 F2100.00000
M204 S300
G1 F900
G1 X122.111 Y100.599 E0.04195
G1 X122.019 Y100.420 E0.00184
G1 X121.989 Y100.291 E0.00121
G1 X121.984 Y100.129 E0.00148
G1 X122.007 Y99.997 E0.00123
G1 X122.066 Y99.855 E0.00140
G1 X122.168 Y99.710 E0.00162
G1 X122.282 Y99.609 E0.00139
G1 X122.400 Y99.542 E0.00124
G1 X122.549 Y99.495 E0.00143
G1 X122.708 Y99.481 E0.00146
G1 X122.925 Y99.521 E0.00201
G1 X123.134 Y99.638 E0.00219
G1 X125.957 Y102.282 E0.03532
G1 X127.779 Y102.297 E0.01664
G1 X127.779 Y110.486 E0.07477
G1 X125.352 Y110.490 E0.02217
G1 X125.352 Y103.916 E0.06003
M204 S500
G1 X124.912 Y104.038 F10800.000
M204 S300
G1 F900
G1 X121.845 Y100.969 E0.03962
G1 X121.664 Y100.709 E0.00289
G1 X121.600 Y100.557 E0.00151
G1 X121.551 Y100.350 E0.00194
G1 X121.543 Y100.097 E0.00231
G1 X121.583 Y99.873 E0.00208
G1 X121.678 Y99.642 E0.00228
G1 X121.839 Y99.415 E0.00254
G1 X122.025 Y99.250 E0.00228
G1 X122.224 Y99.137 E0.00209
G1 X122.463 Y99.062 E0.00229
G1 X122.714 Y99.040 E0.00230
G1 X122.925 Y99.064 E0.00193
G1 X123.081 Y99.108 E0.00148
G1 X123.275 Y99.201 E0.00197
G1 X123.411 Y99.295 E0.00150
G1 X126.132 Y101.844 E0.03405
G1 X127.897 Y101.859 E0.01611
G1 X127.993 Y101.885 E0.00091
