; generated by Slic3r Prusa Edition 1.39.1-prusa3d-win64 on 2018-06-12 at 06:36:29

; 

; external perimeters extrusion width = 0.45mm
; perimeters extrusion width = 0.45mm
; infill extrusion width = 0.45mm
; solid infill extrusion width = 0.45mm
; top infill extrusion width = 0.40mm
; first layer extrusion width = 0.42mm

M107
M115 U3.1.1-RC5 ; tell printer latest fw version
M201 X1000 Y1000 Z200 E5000 ; sets maximum accelerations, mm/sec^2
M203 X200 Y200 Z12 E120 ; sets maximum feedrates, mm/sec
M204 S1250 T1250 ; sets acceleration (S) and retract acceleration (T)
M205 X10 Y10 Z0.4 E2.5 ; sets the jerk limits, mm/sec
M205 S0 T0 ; sets the minimum extruding and travel feed rate, mm/sec
M83  ; extruder relative mode
M104 S215 ; set extruder temp
M140 S60 ; set bed temp
M190 S60 ; wait for bed temp
M109 S215 ; wait for extruder temp
G28 W ; home all without mesh bed level
G80 ; mesh bed leveling
G1 Y-3.0 F1000.0 ; go outside print area
G92 E0.0
G1 X60.0 E9.0  F1000.0 ; intro line
G1 X100.0 E12.5  F1000.0 ; intro line
G92 E0.0
M221 S100
M900 K30; Filament gcode
G21 ; set units to millimeters
G90 ; use absolute coordinates
M83 ; use relative distances for extrusion
;BEFORE_LAYER_CHANGE
;0.2


G1 E-0.80000 F2100.00000
G1 Z0.600 F10800.000
;AFTER_LAYER_CHANGE
;0.2
G1 X118.647 Y97.178 F10800.000
G1 Z0.200 F10800.000
G1 E0.80000 F2100.00000
M204 S500
G1 F1259
G1 X119.388 Y96.431 E0.03299
G1 X120.169 Y95.882 E0.02992
G1 X121.027 Y95.476 E0.02978
G1 X122.043 Y95.201 E0.03299
G1 X122.998 Y95.119 E0.03005
G1 X123.931 Y95.197 E0.02937
G1 X124.944 Y95.465 E0.03285
G1 X130.848 Y97.924 E0.20052
G1 X131.350 Y98.224 E0.01834
G1 X131.790 Y98.615 E0.01848
G1 X132.150 Y99.082 E0.01848
G1 X132.416 Y99.608 E0.01848
G1 X132.631 Y100.700 E0.03490
G1 X132.610 Y112.116 E0.35795
G1 X132.400 Y112.931 E0.02637
G1 X131.978 Y113.664 E0.02651
G1 X131.379 Y114.255 E0.02637
G1 X130.641 Y114.666 E0.02651
G1 X129.566 Y114.881 E0.03436
G1 X122.482 Y114.838 E0.22211
G1 X121.715 Y114.605 E0.02515
G1 X121.028 Y114.182 E0.02529
G1 X120.472 Y113.598 E0.02529
G1 X120.084 Y112.891 E0.02529
G1 X117.486 Y101.892 E0.35434
G1 X117.370 Y100.823 E0.03371
G1 X117.440 Y99.861 E0.03024
G1 X117.708 Y98.826 E0.03353
G1 X118.106 Y97.964 E0.02978
G1 X118.613 Y97.227 E0.02804
G1 F8640
G1 X119.388 Y96.431 E-0.25657
G1 F8640
G1 X120.169 Y95.882 E-0.22031
G1 F8640
G1 X121.027 Y95.476 E-0.21931
G1 F8640
G1 X121.294 Y95.404 E-0.06380
G1 E-0.04000 F2100.00000
G1 Z0.800 F10800.000
G1 X131.500 Y98.857 F10800.000
G1 Z0.200 F10800.000
G1 E0.80000 F2100.00000
G1 F1259
G1 X132.056 Y99.725 E0.03233
G1 X132.254 Y100.709 E0.03145
G1 X132.239 Y112.036 E0.35517
G1 X132.063 Y112.759 E0.02333
G1 X131.697 Y113.411 E0.02345
G1 X131.172 Y113.939 E0.02333
G1 X130.521 Y114.308 E0.02345
G1 X129.558 Y114.504 E0.03082
G1 X122.587 Y114.473 E0.21856
G1 X121.904 Y114.277 E0.02231
G1 X121.290 Y113.909 E0.02243
G1 X120.794 Y113.399 E0.02231
G1 X120.444 Y112.775 E0.02243
G1 X117.858 Y101.828 E0.35268
G1 X117.750 Y100.962 E0.02736
G1 X117.804 Y99.969 E0.03119
G1 X118.013 Y99.099 E0.02805
G1 X118.411 Y98.193 E0.03102
G1 X118.906 Y97.458 E0.02780
G1 X119.524 Y96.810 E0.02808
G1 X120.317 Y96.233 E0.03073
G1 X121.122 Y95.843 E0.02805
G1 X122.099 Y95.574 E0.03178
G1 X122.999 Y95.496 E0.02831
G1 X123.870 Y95.569 E0.02741
G1 X124.822 Y95.822 E0.03089
G1 X130.664 Y98.254 E0.19841
G1 X131.452 Y98.822 E0.03045
G1 X131.213 Y99.102 F10800.000
G1 F1259
G1 X131.699 Y99.848 E0.02790
G1 X131.877 Y100.716 E0.02778
G1 X131.867 Y111.967 E0.35277
G1 X131.722 Y112.596 E0.02024
G1 X131.412 Y113.162 E0.02024
G1 X130.962 Y113.625 E0.02024
G1 X130.400 Y113.950 E0.02036
G1 X129.547 Y114.127 E0.02731
G1 X122.681 Y114.106 E0.21527
G1 X122.080 Y113.942 E0.01953
G1 X121.545 Y113.630 E0.01941
G1 X121.109 Y113.191 E0.01941
G1 X120.800 Y112.650 E0.01953
G1 X118.228 Y101.755 E0.35100
G1 X118.128 Y100.957 E0.02520
G1 X118.172 Y100.062 E0.02812
G1 X118.356 Y99.260 E0.02580
G1 X118.675 Y98.498 E0.02589
G1 X119.176 Y97.723 E0.02894
G1 X119.763 Y97.103 E0.02675
G1 X120.507 Y96.559 E0.02891
G1 X121.250 Y96.198 E0.02592
G1 X122.165 Y95.945 E0.02974
G1 X122.996 Y95.873 E0.02616
G1 X123.805 Y95.940 E0.02544
G1 X124.699 Y96.179 E0.02903
G1 X130.487 Y98.588 E0.19658
G1 X131.164 Y99.068 E0.02602
G1 F8640
G1 X131.699 Y99.848 E-0.21841
G1 F8640
G1 X131.877 Y100.716 E-0.20460
G1 F8640
G1 X131.876 Y102.175 E-0.33699
G1 E-0.04000 F2100.00000
G1 Z0.800 F10800.000
G1 X128.536 Y101.714 F10800.000
G1 Z0.200 F10800.000
G1 E0.80000 F2100.00000
G1 F1259
G1 X128.536 Y110.786 E0.28444
G1 X123.964 Y110.786 E0.14334
G1 X123.964 Y102.335 E0.26496
G1 X122.839 Y102.276 E0.03531
G1 X122.695 Y102.253 E0.00458
G1 X122.303 Y102.117 E0.01300
G1 X122.164 Y102.037 E0.00505
G1 X121.915 Y101.836 E0.01003
G1 X121.721 Y101.597 E0.00965
G1 X121.592 Y101.358 E0.00852
G1 X121.499 Y101.069 E0.00951
G1 X121.474 Y100.910 E0.00504
G1 X121.474 Y100.590 E0.01006
G1 X121.499 Y100.431 E0.00504
G1 X121.592 Y100.140 E0.00956
G1 X121.721 Y99.903 E0.00846
G1 X121.915 Y99.665 E0.00965
G1 X122.035 Y99.557 E0.00504
G1 X122.304 Y99.382 E0.01006
G1 X122.604 Y99.268 E0.01006
G1 X122.761 Y99.234 E0.00504
G1 X123.064 Y99.217 E0.00951
G1 X123.333 Y99.253 E0.00852
G1 X123.625 Y99.349 E0.00964
G1 X123.888 Y99.500 E0.00951
G1 X124.192 Y99.783 E0.01302
G1 X124.367 Y100.053 E0.01008
G1 X124.426 Y100.186 E0.00458
G1 X124.526 Y100.588 E0.01300
G1 X124.586 Y101.714 E0.03535
G1 X128.476 Y101.714 E0.12198
G1 F8640
G1 X128.498 Y105.006 E-0.76000
G1 E-0.04000 F2100.00000
G1 Z0.800 F10800.000
G1 X124.943 Y101.337 F10800.000
G1 Z0.200 F10800.000
G1 E0.80000 F2100.00000
G1 F1259
G1 X128.913 Y101.337 E0.12447
G1 X128.913 Y111.163 E0.30808
G1 X123.587 Y111.163 E0.16699
G1 X123.587 Y102.693 E0.26557
G1 X122.800 Y102.652 E0.02471
G1 X122.612 Y102.622 E0.00598
G1 X122.304 Y102.530 E0.01008
G1 X121.958 Y102.353 E0.01216
G1 X121.648 Y102.103 E0.01250
G1 X121.401 Y101.798 E0.01229
G1 X121.248 Y101.516 E0.01008
G1 X121.130 Y101.148 E0.01212
G1 X121.098 Y100.950 E0.00628
G1 X121.098 Y100.550 E0.01254
G1 X121.182 Y100.159 E0.01254
G1 X121.249 Y99.982 E0.00592
G1 X121.401 Y99.702 E0.01001
G1 X121.514 Y99.546 E0.00603
G1 X121.797 Y99.264 E0.01254
G1 X122.133 Y99.046 E0.01254
G1 X122.506 Y98.903 E0.01254
G1 X122.901 Y98.840 E0.01255
G1 X123.088 Y98.840 E0.00585
G1 X123.407 Y98.882 E0.01008
G1 X123.592 Y98.932 E0.00602
G1 X123.958 Y99.095 E0.01255
G1 X124.114 Y99.197 E0.00585
G1 X124.359 Y99.405 E0.01008
G1 X124.603 Y99.707 E0.01217
G1 X124.703 Y99.881 E0.00628
G1 X124.781 Y100.055 E0.00597
G1 X124.872 Y100.363 E0.01008
G1 X124.902 Y100.549 E0.00590
G1 X124.940 Y101.277 E0.02287
G1 X125.301 Y100.960 F10800.000
G1 F1800
G1 X129.290 Y100.960 E0.12508
G1 X129.290 Y111.540 E0.33173
G1 X123.210 Y111.540 E0.19063
G1 X123.210 Y103.051 E0.26617
G1 X122.761 Y103.027 E0.01411
G1 X122.528 Y102.990 E0.00738
G1 X122.172 Y102.885 E0.01163
G1 X121.753 Y102.670 E0.01478
G1 X121.559 Y102.529 E0.00752
G1 X121.221 Y102.191 E0.01497
G1 X121.082 Y102.000 E0.00743
G1 X120.905 Y101.674 E0.01163
G1 X120.760 Y101.226 E0.01474
G1 X120.723 Y100.989 E0.00752
G1 X120.710 Y100.750 E0.00752
G1 X120.723 Y100.511 E0.00752
G1 X120.760 Y100.274 E0.00752
G1 X120.906 Y99.824 E0.01481
G1 X121.082 Y99.500 E0.01157
G1 X121.381 Y99.130 E0.01492
G1 X121.560 Y98.970 E0.00752
G1 X121.754 Y98.829 E0.00752
G1 X121.961 Y98.709 E0.00752
G1 X122.180 Y98.612 E0.00752
G1 X122.409 Y98.538 E0.00752
G1 X122.643 Y98.488 E0.00752
G1 X123.113 Y98.463 E0.01474
G1 X123.480 Y98.511 E0.01163
G1 X123.933 Y98.659 E0.01492
G1 X124.147 Y98.768 E0.00752
G1 X124.340 Y98.894 E0.00724
G1 X124.623 Y99.135 E0.01163
G1 X124.778 Y99.308 E0.00730
G1 X124.919 Y99.502 E0.00752
G1 X125.135 Y99.924 E0.01487
G1 X125.241 Y100.280 E0.01163
G1 X125.277 Y100.509 E0.00729
G1 X125.298 Y100.900 E0.01227
G1 X125.313 Y101.360 F10800.000
G1 X124.426 Y100.833 F10800.000
G1 F1259
G1 X123.110 Y99.518 E0.06045
G1 X122.931 Y99.502 E0.00585
G1 X122.609 Y99.568 E0.01070
G1 X124.457 Y101.416 E0.08493
G1 F8640
G1 X122.609 Y99.568 E-0.60342
G1 F8640
G1 X122.931 Y99.502 E-0.07604
G1 F8640
G1 X123.110 Y99.518 E-0.04153
G1 F8640
G1 X123.230 Y99.637 E-0.03901
G1 E-0.04000 F2100.00000
G1 Z0.800 F10800.000
G1 X123.584 Y102.202 F10800.000
G1 Z0.200 F10800.000
G1 E0.80000 F2100.00000
G1 F1259
G1 X121.800 Y100.418 E0.08198
G1 X121.757 Y100.612 E0.00645
G1 X121.769 Y100.940 E0.01068
G1 X123.000 Y102.171 E0.05658
G1 F8640
G1 X121.769 Y100.940 E-0.40199
G1 F8640
G1 X121.757 Y100.612 E-0.07590
G1 F8640
G1 X121.800 Y100.418 E-0.04580
G1 F8640
G1 X122.524 Y101.142 E-0.23631
G1 E-0.04000 F2100.00000
G1 Z0.800 F10800.000
G1 X128.423 Y102.619 F10800.000
G1 Z0.200 F10800.000
G1 E0.80000 F2100.00000
G1 F1259
G1 X127.801 Y101.997 E0.02858
G1 X127.248 Y101.997 E0.01797
G1 X128.253 Y103.002 E0.04619
G1 X128.253 Y103.555 E0.01797
G1 X126.695 Y101.997 E0.07159
G1 X126.143 Y101.997 E0.01797
G1 X128.253 Y104.107 E0.09700
G1 X128.253 Y104.660 E0.01797
G1 X125.590 Y101.997 E0.12241
G1 X125.037 Y101.997 E0.01797
G1 X128.253 Y105.213 E0.14781
G1 X128.253 Y105.766 E0.01797
G1 X122.245 Y99.758 E0.27614
G1 X121.973 Y100.038 E0.01270
G1 X128.253 Y106.318 E0.28866
G1 X128.253 Y106.871 E0.01797
G1 X124.247 Y102.865 E0.18413
G1 X124.247 Y103.418 E0.01797
G1 X128.253 Y107.424 E0.18413
G1 X128.253 Y107.977 E0.01797
G1 X124.247 Y103.971 E0.18413
G1 X124.247 Y104.523 E0.01797
G1 X128.253 Y108.530 E0.18413
G1 X128.253 Y109.082 E0.01797
G1 X124.247 Y105.076 E0.18413
G1 X124.247 Y105.629 E0.01797
G1 X128.253 Y109.635 E0.18413
G1 X128.253 Y110.188 E0.01797
G1 X124.247 Y106.182 E0.18413
G1 X124.247 Y106.734 E0.01797
G1 X128.016 Y110.503 E0.17321
G1 X127.463 Y110.503 E0.01797
G1 X124.247 Y107.287 E0.14781
G1 X124.247 Y107.840 E0.01797
G1 X126.910 Y110.503 E0.12240
G1 X126.357 Y110.503 E0.01797
G1 X124.247 Y108.393 E0.09700
G1 X124.247 Y108.946 E0.01797
G1 X125.804 Y110.503 E0.07159
G1 X125.252 Y110.503 E0.01797
G1 X124.247 Y109.498 E0.04618
G1 X124.247 Y110.051 E0.01797
G1 X124.869 Y110.673 E0.02857
M106 S255
;BEFORE_LAYER_CHANGE
;0.25


G1 F8640
G1 X124.247 Y110.051 E-0.20301
G1 F8640
G1 X124.247 Y109.498 E-0.12763
G1 F8640
G1 X125.252 Y110.503 E-0.32811
G1 F8640
G1 X125.690 Y110.503 E-0.10125
G1 E-0.04000 F2100.00000
G1 Z0.800 F10800.000
;AFTER_LAYER_CHANGE
;0.25
M104 S210 ; set temperature
G1 X122.482 Y114.838 F10800.000
G1 Z0.250 F10800.000
G1 E0.80000 F2100.00000
G1 F900
G1 X121.715 Y114.605 E0.00682
G1 X121.028 Y114.182 E0.00686
G1 X120.472 Y113.598 E0.00686
G1 X120.084 Y112.891 E0.00686
G1 X117.486 Y101.892 E0.09615
G1 X117.370 Y100.823 E0.00915
G1 X117.440 Y99.861 E0.00820
G1 X117.708 Y98.826 E0.00910
G1 X118.106 Y97.964 E0.00808
G1 X118.647 Y97.178 E0.00812
G1 X119.388 Y96.431 E0.00895
G1 X120.169 Y95.882 E0.00812
G1 X121.027 Y95.476 E0.00808
G1 X122.043 Y95.201 E0.00895
G1 X122.998 Y95.119 E0.00815
G1 X123.931 Y95.197 E0.00797
G1 X124.944 Y95.465 E0.00891
G1 X130.848 Y97.924 E0.05441
G1 X131.350 Y98.224 E0.00498
G1 X131.790 Y98.615 E0.00501
G1 X132.150 Y99.082 E0.00501
G1 X132.416 Y99.608 E0.00501
G1 X132.631 Y100.700 E0.00947
G1 X132.610 Y112.116 E0.09713
G1 X132.400 Y112.931 E0.00716
G1 X131.978 Y113.664 E0.00719
G1 X131.379 Y114.255 E0.00716
G1 X130.641 Y114.666 E0.00719
G1 X129.566 Y114.881 E0.00932
G1 X122.542 Y114.838 E0.05976
G1 F8640
G1 X121.715 Y114.605 E-0.19855
G1 F8640
G1 X121.028 Y114.182 E-0.18623
G1 F8640
G1 X120.472 Y113.598 E-0.18623
G1 F8640
G1 X120.084 Y112.891 E-0.18623
G1 F8640
G1 X120.081 Y112.879 E-0.00278
G1 E-0.04000 F2100.00000
G1 Z0.850 F10800.000
G1 X124.104 Y110.646 F10800.000
G1 Z0.250 F10800.000
G1 E0.80000 F2100.00000
M204 S300
G1 F900
G1 X124.104 Y102.203 E0.07710
G1 X122.854 Y102.137 E0.01142
G1 X122.710 Y102.114 E0.00134
G1 X122.450 Y102.031 E0.00250
G1 X122.122 Y101.834 E0.00349
G1 X121.917 Y101.629 E0.00265
G1 X121.830 Y101.510 E0.00134
G1 X121.705 Y101.265 E0.00252
G1 X121.613 Y100.897 E0.00347
G1 X121.613 Y100.604 E0.00267
G1 X121.674 Y100.318 E0.00267
G1 X121.840 Y99.977 E0.00346
G1 X121.916 Y99.871 E0.00119
G1 X122.014 Y99.763 E0.00133
G1 X122.241 Y99.579 E0.00267
G1 X122.501 Y99.447 E0.00267
G1 X122.784 Y99.372 E0.00267
G1 X123.049 Y99.357 E0.00243
G1 X123.308 Y99.390 E0.00238
G1 X123.570 Y99.477 E0.00252
G1 X123.804 Y99.611 E0.00246
G1 X124.000 Y99.778 E0.00235
G1 X124.169 Y99.988 E0.00246
G1 X124.294 Y100.231 E0.00249
G1 X124.387 Y100.601 E0.00349
G1 X124.454 Y101.854 E0.01145
G1 X128.396 Y101.854 E0.03600
G1 X128.396 Y110.646 E0.08029
G1 X124.164 Y110.646 E0.03865
M204 S500
G1 F8640
G1 X124.140 Y107.355 E-0.76000
G1 E-0.04000 F2100.00000
G1 Z0.850 F10800.000
G1 X124.870 Y101.414 F10800.000
G1 Z0.250 F10800.000
G1 E0.80000 F2100.00000
M204 S300
G1 F900
G1 X128.836 Y101.414 E0.03621
G1 X128.836 Y111.086 E0.08831
G1 X123.664 Y111.086 E0.04722
G1 X123.664 Y102.620 E0.07730
G1 X122.808 Y102.575 E0.00783
G1 X122.432 Y102.495 E0.00351
G1 X122.265 Y102.431 E0.00164
G1 X121.985 Y102.278 E0.00291
G1 X121.702 Y102.046 E0.00334
G1 X121.462 Y101.750 E0.00348
G1 X121.366 Y101.584 E0.00176
G1 X121.291 Y101.417 E0.00166
G1 X121.202 Y101.111 E0.00291
G1 X121.165 Y100.750 E0.00331
G1 X121.175 Y100.558 E0.00176
G1 X121.255 Y100.182 E0.00351
G1 X121.318 Y100.019 E0.00160
G1 X121.467 Y99.742 E0.00287
G1 X121.575 Y99.594 E0.00167
G1 X121.846 Y99.323 E0.00351
G1 X122.169 Y99.114 E0.00351
G1 X122.527 Y98.977 E0.00351
G1 X122.907 Y98.918 E0.00351
G1 X123.078 Y98.917 E0.00156
G1 X123.394 Y98.958 E0.00291
G1 X123.570 Y99.006 E0.00167
G1 X123.921 Y99.163 E0.00351
G1 X124.067 Y99.258 E0.00159
G1 X124.307 Y99.463 E0.00288
G1 X124.537 Y99.748 E0.00335
G1 X124.634 Y99.915 E0.00176
G1 X124.707 Y100.078 E0.00163
G1 X124.797 Y100.383 E0.00291
G1 X124.824 Y100.555 E0.00159
G1 X124.867 Y101.354 E0.00731
M204 S500
G1 X125.287 Y100.975 F10800.000
M204 S300
G1 F900
G1 X129.275 Y100.975 E0.03642
G1 X129.275 Y111.525 E0.09634
G1 X123.225 Y111.525 E0.05524
G1 X123.225 Y103.037 E0.07751
G1 X122.762 Y103.012 E0.00423
G1 X122.527 Y102.975 E0.00218
G1 X122.080 Y102.830 E0.00429
G1 X121.749 Y102.650 E0.00344
G1 X121.568 Y102.517 E0.00205
G1 X121.233 Y102.183 E0.00432
G1 X120.974 Y101.784 E0.00435
G1 X120.878 Y101.569 E0.00215
G1 X120.772 Y101.207 E0.00344
G1 X120.725 Y100.750 E0.00420
G1 X120.775 Y100.277 E0.00435
G1 X120.918 Y99.835 E0.00424
G1 X121.095 Y99.508 E0.00340
G1 X121.393 Y99.140 E0.00432
G1 X121.763 Y98.841 E0.00435
G1 X122.187 Y98.626 E0.00435
G1 X122.647 Y98.503 E0.00435
G1 X123.106 Y98.478 E0.00420
G1 X123.480 Y98.527 E0.00344
G1 X123.929 Y98.674 E0.00432
G1 X124.141 Y98.782 E0.00218
G1 X124.331 Y98.905 E0.00206
G1 X124.614 Y99.147 E0.00340
G1 X124.765 Y99.315 E0.00206
G1 X124.906 Y99.508 E0.00218
G1 X125.120 Y99.925 E0.00428
G1 X125.227 Y100.286 E0.00344
G1 X125.262 Y100.509 E0.00206
G1 X125.284 Y100.915 E0.00371
M204 S500
G1 X125.298 Y101.375 F10800.000
G1 F8640
G1 X128.575 Y100.964 E-0.76000
G1 E-0.04000 F2100.00000
G1 Z0.850 F10800.000
G1 X124.647 Y101.985 F10800.000
G1 Z0.250 F10800.000
G1 E0.80000 F2100.00000
M204 S800
G1 F900
G1 X124.433 Y102.199 E0.00278
G1 X124.433 Y102.824 E0.00575
G1 X125.074 Y102.183 E0.00833
G1 X125.699 Y102.183 E0.00575
G1 X124.433 Y103.449 E0.01646
G1 X124.433 Y104.075 E0.00575
G1 X126.325 Y102.183 E0.02458
G1 X126.950 Y102.183 E0.00575
G1 X124.433 Y104.700 E0.03271
G1 X124.433 Y105.325 E0.00575
G1 X127.575 Y102.183 E0.04083
G1 X128.067 Y102.183 E0.00452
G1 X128.067 Y102.316 E0.00122
G1 X124.433 Y105.950 E0.04723
G1 X124.433 Y106.575 E0.00575
G1 X128.067 Y102.941 E0.04723
G1 X128.067 Y103.567 E0.00575
G1 X124.433 Y107.201 E0.04723
G1 X124.433 Y107.826 E0.00575
G1 X128.067 Y104.192 E0.04723
G1 X128.067 Y104.817 E0.00575
G1 X124.433 Y108.451 E0.04723
G1 X124.433 Y109.076 E0.00575
G1 X128.067 Y105.442 E0.04723
G1 X128.067 Y106.067 E0.00575
G1 X124.433 Y109.701 E0.04723
G1 X124.443 Y110.317 E0.00566
G1 X128.067 Y106.693 E0.04710
G1 X128.067 Y107.318 E0.00575
G1 X125.068 Y110.317 E0.03898
G1 X125.693 Y110.317 E0.00575
G1 X128.067 Y107.943 E0.03085
G1 X128.067 Y108.568 E0.00575
G1 X126.318 Y110.317 E0.02273
G1 X126.943 Y110.317 E0.00575
G1 X128.067 Y109.193 E0.01460
G1 X128.067 Y109.818 E0.00575
