; generated by Slic3r Prusa Edition 1.39.1-prusa3d-win64 on 2018-06-12 at 05:26:19

; 

; external perimeters extrusion width = 0.45mm
; perimeters extrusion width = 0.45mm
; infill extrusion width = 0.45mm
; solid infill extrusion width = 0.45mm
; top infill extrusion width = 0.40mm
; support material extrusion width = 0.30mm
; first layer extrusion width = 0.42mm

M107
M115 U3.1.1-RC5 ; tell printer latest fw version
M201 X1000 Y1000 Z200 E5000 ; sets maximum accelerations, mm/sec^2
M203 X200 Y200 Z12 E120 ; sets maximum feedrates, mm/sec
M204 S1250 T1250 ; sets acceleration (S) and retract acceleration (T)
M205 X10 Y10 Z0.4 E2.5 ; sets the jerk limits, mm/sec
M205 S0 T0 ; sets the minimum extruding and travel feed rate, mm/sec
M83  ; extruder relative mode
M104 S215 ; set extruder temp
M140 S60 ; set bed temp
M190 S60 ; wait for bed temp
M109 S215 ; wait for extruder temp
G28 W ; home all without mesh bed level
G80 ; mesh bed leveling
G1 Y-3.0 F1000.0 ; go outside print area
G92 E0.0
G1 X60.0 E9.0  F1000.0 ; intro line
G1 X100.0 E12.5  F1000.0 ; intro line
G92 E0.0
M221 S100
M900 K30; Filament gcode
G21 ; set units to millimeters
G90 ; use absolute coordinates
M83 ; use relative distances for extrusion
;BEFORE_LAYER_CHANGE
;0.2


G1 E-0.80000 F2100.00000
G1 Z0.600 F10800.000
;AFTER_LAYER_CHANGE
;0.2
G1 X113.204 Y93.026 F10800.000
G1 Z0.200 F10800.000
G1 E0.80000 F2100.00000
M204 S500
G1 F1480
G1 X114.039 Y92.539 E0.03031
G1 X114.991 Y92.370 E0.03031
G1 X123.854 Y92.541 E0.27795
G1 X124.386 Y92.606 E0.01681
G1 X129.799 Y94.622 E0.18109
G1 X130.559 Y95.186 E0.02968
G1 X131.083 Y95.974 E0.02968
G1 X131.255 Y96.504 E0.01745
G1 X131.316 Y97.061 E0.01758
G1 X131.316 Y105.004 E0.24904
G1 X131.158 Y105.875 E0.02777
G1 X130.793 Y106.570 E0.02460
G1 X125.671 Y113.444 E0.26879
G1 X125.191 Y113.924 E0.02129
G1 X124.608 Y114.271 E0.02129
G1 X124.110 Y114.436 E0.01643
G1 X123.586 Y114.503 E0.01656
G1 X117.217 Y114.504 E0.19970
G1 X116.560 Y114.416 E0.02078
G1 X115.944 Y114.174 E0.02078
G1 X115.304 Y113.699 E0.02498
G1 X114.826 Y113.057 E0.02511
G1 X112.466 Y107.715 E0.18309
G1 X112.297 Y107.194 E0.01720
G1 X112.234 Y106.649 E0.01720
G1 X112.270 Y94.679 E0.37530
G1 X112.589 Y93.771 E0.03018
G1 X113.166 Y93.072 E0.02843
G1 X113.452 Y93.311 F10800.000
G1 F1480
G1 X114.173 Y92.891 E0.02615
G1 X114.990 Y92.747 E0.02602
G1 X124.280 Y92.969 E0.29136
G1 X129.602 Y94.946 E0.17802
G1 X130.269 Y95.428 E0.02579
G1 X130.732 Y96.112 E0.02590
G1 X130.885 Y96.578 E0.01538
G1 X130.939 Y97.066 E0.01538
G1 X130.939 Y104.992 E0.24854
G1 X130.805 Y105.743 E0.02390
G1 X130.486 Y106.351 E0.02154
G1 X125.379 Y113.206 E0.26803
G1 X124.969 Y113.619 E0.01823
G1 X124.471 Y113.919 E0.01823
G1 X123.560 Y114.126 E0.02931
G1 X116.950 Y114.108 E0.20725
G1 X116.365 Y113.956 E0.01894
G1 X115.835 Y113.660 E0.01906
G1 X115.397 Y113.238 E0.01906
G1 X115.080 Y112.720 E0.01906
G1 X112.784 Y107.497 E0.17889
G1 X112.610 Y106.616 E0.02813
G1 X112.645 Y94.723 E0.37292
G1 X112.926 Y93.942 E0.02602
G1 X113.414 Y93.357 E0.02388
G1 F8640
G1 X114.173 Y92.891 E-0.20568
G1 F8640
G1 X114.990 Y92.747 E-0.19163
G1 F8640
G1 X116.561 Y92.785 E-0.36269
G1 E-0.04000 F2100.00000
G1 Z0.800 F10800.000
G1 X114.988 Y95.124 F10800.000
G1 Z0.200 F10800.000
G1 E0.80000 F2100.00000
G1 F1480
G1 X114.988 Y106.606 E0.36001
G1 X115.742 Y105.852 E0.03344
G1 X115.742 Y95.294 E0.33104
G1 X116.496 Y95.294 E0.02365
G1 X116.496 Y105.098 E0.30740
G1 X116.791 Y104.802 E0.01311
G1 X116.791 Y100.560 E0.13302
G1 X117.060 Y100.291 E0.01191
G1 X117.250 Y100.291 E0.00596
G1 X117.250 Y95.294 E0.15669
G1 X118.004 Y95.294 E0.02365
G1 X118.004 Y100.291 E0.15669
G1 X118.758 Y100.291 E0.02365
G1 X118.758 Y95.294 E0.15669
G1 X119.512 Y95.294 E0.02365
G1 X119.512 Y100.291 E0.15669
G1 X120.267 Y100.291 E0.02365
G1 X120.267 Y95.294 E0.15669
G1 X121.021 Y95.294 E0.02365
G1 X121.021 Y100.291 E0.15669
G1 X121.775 Y100.291 E0.02365
G1 X121.775 Y95.294 E0.15669
G1 X122.529 Y95.294 E0.02365
G1 X122.529 Y100.291 E0.15669
G1 X123.283 Y100.291 E0.02365
G1 X123.283 Y95.294 E0.15669
G1 X123.785 Y95.294 E0.01572
G1 X123.785 Y97.083 E0.05610
G1 X124.037 Y97.083 E0.00793
G1 X124.037 Y104.785 E0.24147
G1 X124.792 Y104.785 E0.02365
G1 X124.792 Y97.083 E0.24147
G1 X125.546 Y97.083 E0.02365
G1 X125.546 Y104.785 E0.24147
G1 X126.300 Y104.785 E0.02365
G1 X126.300 Y97.083 E0.24147
G1 X127.054 Y97.083 E0.02365
G1 X127.054 Y104.785 E0.24147
G1 X127.808 Y104.785 E0.02365
G1 X127.808 Y97.083 E0.24147
G1 X128.562 Y97.083 E0.02365
G1 X128.562 Y104.954 E0.24679
G1 F8640
G1 X128.562 Y101.663 E-0.76000
G1 E-0.04000 F2100.00000
G1 Z0.800 F10800.000
G1 X120.400 Y108.245 F10800.000
G1 Z0.200 F10800.000
G1 E0.80000 F2100.00000
G1 F1800
G1 X120.486 Y108.533 E0.00942
G1 X120.505 Y108.754 E0.00694
G1 X120.469 Y109.048 E0.00930
G1 X120.399 Y109.253 E0.00680
G1 X120.300 Y109.436 E0.00651
G1 X120.170 Y109.603 E0.00663
G1 X119.940 Y109.798 E0.00946
G1 X119.750 Y109.901 E0.00676
G1 X119.467 Y109.986 E0.00928
G1 X119.246 Y110.005 E0.00694
G1 X118.946 Y109.967 E0.00947
G1 X118.742 Y109.897 E0.00676
G1 X118.488 Y109.746 E0.00928
G1 X118.327 Y109.600 E0.00680
G1 X118.197 Y109.433 E0.00664
G1 X118.067 Y109.167 E0.00928
G1 X118.013 Y108.957 E0.00680
G1 X117.995 Y108.749 E0.00652
G1 X118.014 Y108.533 E0.00680
G1 X118.099 Y108.250 E0.00928
G1 X118.200 Y108.064 E0.00663
G1 X118.330 Y107.897 E0.00663
G1 X118.560 Y107.702 E0.00946
G1 X118.746 Y107.601 E0.00663
G1 X118.946 Y107.532 E0.00663
G1 X119.240 Y107.495 E0.00928
G1 X119.456 Y107.512 E0.00680
G1 X119.662 Y107.564 E0.00665
G1 X119.933 Y107.697 E0.00946
G1 X120.100 Y107.827 E0.00663
G1 X120.243 Y107.983 E0.00663
G1 X120.369 Y108.194 E0.00771
G1 X120.698 Y108.282 F10800.000
G1 F8640
G1 X120.486 Y108.533 E-0.08289
G1 F8640
G1 X120.505 Y108.754 E-0.05108
G1 F8640
G1 X120.469 Y109.048 E-0.06846
G1 F8640
G1 X120.399 Y109.253 E-0.05011
G1 F8640
G1 X120.300 Y109.436 E-0.04793
G1 F8640
G1 X120.170 Y109.603 E-0.04885
G1 F8640
G1 X119.940 Y109.798 E-0.06968
G1 F8640
G1 X119.750 Y109.901 E-0.04982
G1 F8640
G1 X119.467 Y109.986 E-0.06837
G1 F8640
G1 X119.246 Y110.005 E-0.05112
G1 F8640
G1 X118.946 Y109.967 E-0.06977
G1 F8640
G1 X118.742 Y109.897 E-0.04982
G1 F8640
G1 X118.548 Y109.782 E-0.05211
G1 E-0.04000 F2100.00000
G1 Z0.800 F10800.000
G1 X119.722 Y106.310 F10800.000
G1 Z0.200 F10800.000
G1 E0.80000 F2100.00000
G1 F1800
G1 X119.554 Y106.367 E0.00557
G1 X119.250 Y106.405 E0.00960
G1 X118.946 Y106.367 E0.00960
G1 X118.746 Y106.299 E0.00663
G1 X118.560 Y106.198 E0.00663
G1 X118.334 Y106.007 E0.00928
G1 X118.200 Y105.836 E0.00680
G1 X118.099 Y105.650 E0.00665
G1 X118.013 Y105.361 E0.00946
G1 X117.995 Y105.146 E0.00676
G1 X118.031 Y104.852 E0.00928
G1 X118.101 Y104.646 E0.00680
G1 X118.200 Y104.464 E0.00651
G1 X118.330 Y104.297 E0.00663
G1 X118.560 Y104.102 E0.00946
G1 X118.746 Y104.001 E0.00663
G1 X118.946 Y103.932 E0.00663
G1 X119.240 Y103.895 E0.00928
G1 X119.456 Y103.912 E0.00680
G1 X119.657 Y103.963 E0.00651
G1 X119.851 Y104.048 E0.00663
G1 X120.100 Y104.226 E0.00959
G1 X120.295 Y104.455 E0.00942
G1 X120.399 Y104.646 E0.00682
G1 X120.469 Y104.852 E0.00682
G1 X120.505 Y105.146 E0.00928
G1 X120.487 Y105.356 E0.00663
G1 X120.435 Y105.561 E0.00663
G1 X120.303 Y105.833 E0.00946
G1 X120.170 Y106.003 E0.00677
G1 X119.940 Y106.198 E0.00946
G1 X119.777 Y106.286 E0.00581
G1 X119.704 Y106.487 F10800.000
G1 X120.129 Y106.953 F10800.000
G1 F1480
G1 X120.368 Y106.824 E0.00852
G1 X120.717 Y106.528 E0.01437
G1 X120.946 Y106.234 E0.01168
G1 X121.147 Y105.822 E0.01437
G1 X121.234 Y105.481 E0.01105
G1 X121.263 Y105.131 E0.01102
G1 X121.208 Y104.683 E0.01414
G1 X121.092 Y104.342 E0.01129
G1 X120.919 Y104.026 E0.01129
G1 X120.614 Y103.667 E0.01478
G1 X120.226 Y103.389 E0.01497
G1 X119.903 Y103.248 E0.01105
G1 X119.579 Y103.166 E0.01047
G1 X119.222 Y103.137 E0.01124
G1 X118.774 Y103.194 E0.01414
G1 X118.442 Y103.308 E0.01102
G1 X118.214 Y103.431 E0.00813
G1 X118.214 Y101.714 E0.05385
G1 X122.536 Y101.714 E0.13550
G1 X122.536 Y110.786 E0.28444
G1 X120.058 Y110.786 E0.07769
G1 X120.015 Y110.615 E0.00552
G1 X120.368 Y110.424 E0.01258
G1 X120.717 Y110.128 E0.01437
G1 X120.934 Y109.850 E0.01105
G1 X121.093 Y109.556 E0.01047
G1 X121.208 Y109.217 E0.01124
G1 X121.263 Y108.767 E0.01420
G1 X121.230 Y108.391 E0.01184
G1 X121.095 Y107.940 E0.01478
G1 X120.851 Y107.529 E0.01497
G1 X120.612 Y107.270 E0.01105
G1 X120.334 Y107.054 E0.01105
G1 X120.183 Y106.980 E0.00529
G1 F8640
G1 X120.368 Y106.824 E-0.05585
G1 F8640
G1 X120.717 Y106.528 E-0.10580
G1 F8640
G1 X120.946 Y106.234 E-0.08598
G1 F8640
G1 X121.147 Y105.822 E-0.10579
G1 F8640
G1 X121.234 Y105.481 E-0.08134
G1 F8640
G1 X121.263 Y105.131 E-0.08115
G1 F8640
G1 X121.208 Y104.683 E-0.10417
G1 F8640
G1 X121.092 Y104.342 E-0.08317
G1 F8640
G1 X120.974 Y104.126 E-0.05675
G1 E-0.04000 F2100.00000
G1 Z0.800 F10800.000
G1 X118.214 Y110.461 F10800.000
G1 Z0.200 F10800.000
G1 E0.80000 F2100.00000
G1 F1480
G1 X118.481 Y110.619 E0.00973
G1 X118.435 Y110.786 E0.00541
G1 X118.214 Y110.786 E0.00694
G1 X118.214 Y110.521 E0.00830
G1 X117.837 Y111.163 F10800.000
G1 F1480
G1 X117.837 Y109.833 E0.04171
G1 X117.990 Y109.780 E0.00506
G1 X118.262 Y110.051 E0.01203
G1 X118.583 Y110.241 E0.01171
G1 X118.861 Y110.337 E0.00921
G1 X119.239 Y110.384 E0.01195
G1 X119.538 Y110.358 E0.00940
G1 X119.896 Y110.251 E0.01171
G1 X120.154 Y110.111 E0.00921
G1 X120.444 Y109.865 E0.01191
G1 X120.617 Y109.643 E0.00884
G1 X120.746 Y109.405 E0.00849
G1 X120.838 Y109.132 E0.00902
G1 X120.884 Y108.760 E0.01175
G1 X120.858 Y108.462 E0.00939
G1 X120.747 Y108.093 E0.01210
G1 X120.547 Y107.756 E0.01228
G1 X120.356 Y107.549 E0.00884
G1 X120.133 Y107.375 E0.00884
G1 X119.792 Y107.209 E0.01191
G1 X119.518 Y107.139 E0.00887
G1 X119.231 Y107.116 E0.00902
G1 X118.860 Y107.163 E0.01171
G1 X118.594 Y107.255 E0.00882
G1 X118.346 Y107.389 E0.00884
G1 X118.056 Y107.634 E0.01191
G1 X117.990 Y107.720 E0.00339
G1 X117.837 Y107.667 E0.00506
G1 X117.837 Y106.232 E0.04501
G1 X117.989 Y106.179 E0.00505
G1 X118.061 Y106.270 E0.00364
G1 X118.347 Y106.511 E0.01171
G1 X118.594 Y106.645 E0.00882
G1 X118.861 Y106.737 E0.00884
G1 X119.250 Y106.785 E0.01230
G1 X119.639 Y106.737 E0.01230
G1 X119.906 Y106.645 E0.00884
G1 X120.154 Y106.511 E0.00884
G1 X120.444 Y106.265 E0.01191
G1 X120.624 Y106.033 E0.00922
G1 X120.791 Y105.692 E0.01191
G1 X120.861 Y105.419 E0.00884
G1 X120.884 Y105.138 E0.00882
G1 X120.838 Y104.767 E0.01171
G1 X120.745 Y104.494 E0.00906
G1 X120.607 Y104.240 E0.00905
G1 X120.357 Y103.946 E0.01210
G1 X120.038 Y103.719 E0.01228
G1 X119.780 Y103.606 E0.00884
G1 X119.518 Y103.539 E0.00849
G1 X119.231 Y103.516 E0.00902
G1 X118.860 Y103.563 E0.01171
G1 X118.594 Y103.655 E0.00882
G1 X118.346 Y103.789 E0.00884
G1 X118.056 Y104.034 E0.01191
G1 X117.990 Y104.120 E0.00339
G1 X117.837 Y104.067 E0.00506
G1 X117.837 Y101.337 E0.08560
G1 X122.913 Y101.337 E0.15915
G1 X122.913 Y111.163 E0.30808
G1 X117.897 Y111.163 E0.15727
G1 X117.460 Y111.540 F10800.000
G1 F1800
G1 X117.460 Y100.960 E0.33173
G1 X123.290 Y100.960 E0.18280
G1 X123.290 Y111.540 E0.33173
G1 X117.520 Y111.540 E0.18091
G1 X117.527 Y111.146 F10800.000
G1 F8640
G1 X117.501 Y108.249 E-0.76000
G1 E-0.04000 F2100.00000
G1 Z0.800 F10800.000
G1 X118.644 Y110.738 F10800.000
G1 Z0.200 F10800.000
G1 E0.80000 F2100.00000
G1 F1480
G1 X119.253 Y110.773 E0.02040
G1 F1480
G1 X119.630 Y110.755 E0.01375
G1 X119.787 Y110.483 E0.01143
G1 X120.530 Y110.597 F10800.000
G1 F1480
G1 X120.702 Y110.417 E0.00175
G1 X121.439 Y110.673 F10800.000
G1 F1480
G1 X120.996 Y110.230 E0.01964
G1 X121.218 Y109.918 E0.01199
G1 X121.803 Y110.503 E0.02593
G1 X122.253 Y110.503 E0.01411
G1 X122.253 Y110.420 E0.00261
G1 X121.391 Y109.557 E0.03824
G1 X121.485 Y109.280 E0.00918
G1 X121.503 Y109.136 E0.00456
G1 X122.253 Y109.886 E0.03328
G1 X122.253 Y109.353 E0.01672
G1 X121.535 Y108.635 E0.03182
G1 X121.510 Y108.338 E0.00937
G1 X121.398 Y107.964 E0.01222
G1 X122.253 Y108.820 E0.03792
G1 X122.253 Y108.286 E0.01672
G1 X120.797 Y106.831 E0.06455
G1 X120.922 Y106.725 E0.00514
G1 X121.055 Y106.555 E0.00675
G1 X122.253 Y107.753 E0.05314
G1 X122.253 Y107.220 E0.01672
G1 X121.263 Y106.230 E0.04391
G1 X121.429 Y105.862 E0.01264
G1 X122.253 Y106.686 E0.03655
G1 X122.253 Y106.153 E0.01672
G1 X121.522 Y105.422 E0.03240
G1 X121.547 Y105.125 E0.00936
G1 X121.517 Y104.884 E0.00761
G1 X122.253 Y105.620 E0.03262
G1 X122.253 Y105.086 E0.01672
G1 X119.163 Y101.997 E0.13701
G1 X119.697 Y101.997 E0.01672
G1 X122.253 Y104.553 E0.11336
G1 X122.253 Y104.020 E0.01672
G1 X120.230 Y101.997 E0.08971
G1 X120.763 Y101.997 E0.01672
G1 X122.253 Y103.486 E0.06606
G1 X122.253 Y102.953 E0.01672
G1 X121.297 Y101.997 E0.04241
G1 X121.830 Y101.997 E0.01672
G1 X122.423 Y102.589 E0.02628
G1 F8640
G1 X121.830 Y101.997 E-0.19353
G1 F8640
G1 X121.297 Y101.997 E-0.12315
G1 F8640
G1 X122.253 Y102.953 E-0.31228
G1 F8640
G1 X122.253 Y103.486 E-0.12315
G1 F8640
G1 X122.229 Y103.462 E-0.00790
G1 E-0.04000 F2100.00000
G1 Z0.800 F10800.000
G1 X119.717 Y103.084 F10800.000
G1 Z0.200 F10800.000
G1 E0.80000 F2100.00000
G1 F1480
G1 X118.630 Y101.997 E0.04821
G1 X118.497 Y101.997 E0.00418
G1 X118.497 Y102.397 E0.01255
G1 X118.983 Y102.883 E0.02154
G1 X118.710 Y102.917 E0.00861
G1 X118.542 Y102.975 E0.00559
G1 X118.327 Y102.761 E0.00950
G1 F8640
G1 X118.542 Y102.975 E-0.06999
G1 F8640
G1 X118.710 Y102.917 E-0.04116
G1 F8640
G1 X118.983 Y102.883 E-0.06340
G1 F8640
G1 X118.497 Y102.397 E-0.15859
G1 F8640
G1 X118.497 Y101.997 E-0.09239
G1 F8640
G1 X118.630 Y101.997 E-0.03075
G1 F8640
G1 X119.560 Y102.927 E-0.30372
G1 E-0.04000 F2100.00000
G1 Z0.800 F10800.000
G1 X117.845 Y104.269 F10800.000
G1 Z0.200 F10800.000
G1 E0.80000 F2100.00000
G1 F1480
G1 X117.792 Y104.525 E0.00644
G1 F1480
G1 X117.771 Y104.651 E0.00305
G1 F1480
G1 X117.750 Y104.777 E0.00261
G1 F1480
G1 X117.727 Y105.132 E0.00602
G1 F1480
G1 X117.764 Y105.592 E0.00605
G1 F1480
G1 X117.843 Y106.030 E0.01041
G1 X118.026 Y106.522 F10800.000
G1 F1480
G1 X118.366 Y107.164 E0.01753
G1 X118.026 Y106.950 F10800.000
G1 F1480
G1 X118.868 Y106.950 E0.01947
G1 X118.366 Y106.736 F10800.000
G1 F1480
G1 X118.026 Y107.378 E0.01749
G1 X117.843 Y107.868 F10800.000
G1 F1480
G1 X117.789 Y108.137 E0.00667
G1 F1480
G1 X117.765 Y108.304 E0.00396
G1 F1480
G1 X117.740 Y108.471 E0.00327
G1 F1480
G1 X117.728 Y108.742 E0.00413
G1 F1480
G1 X117.771 Y109.263 E0.00687
G1 F1480
G1 X117.837 Y109.633 E0.00792
M106 S255
;BEFORE_LAYER_CHANGE
;0.25


G1 F8640
G1 X117.771 Y109.263 E-0.08685
G1 E-0.71315 F2100.00000
G1 Z0.800 F10800.000
;AFTER_LAYER_CHANGE
;0.25
M104 S210 ; set temperature
G1 X115.304 Y113.699 F10800.000
G1 Z0.250 F10800.000
G1 E0.80000 F2100.00000
G1 F900
G1 X114.826 Y113.057 E0.00681
G1 X112.466 Y107.715 E0.04968
G1 X112.297 Y107.194 E0.00467
G1 X112.234 Y106.649 E0.00467
G1 X112.270 Y94.679 E0.10183
G1 X112.589 Y93.771 E0.00819
G1 X113.204 Y93.026 E0.00822
G1 X114.039 Y92.539 E0.00822
G1 X114.991 Y92.370 E0.00822
G1 X123.854 Y92.541 E0.07542
G1 X124.386 Y92.606 E0.00456
G1 X129.799 Y94.622 E0.04914
G1 X130.559 Y95.186 E0.00805
G1 X131.083 Y95.974 E0.00805
G1 X131.255 Y96.504 E0.00474
G1 X131.316 Y97.061 E0.00477
G1 X131.316 Y105.004 E0.06757
G1 X131.158 Y105.875 E0.00754
G1 X130.793 Y106.570 E0.00667
G1 X125.671 Y113.444 E0.07293
G1 X125.191 Y113.924 E0.00578
G1 X124.608 Y114.271 E0.00578
G1 X124.110 Y114.436 E0.00446
G1 X123.586 Y114.503 E0.00449
G1 X117.217 Y114.504 E0.05419
G1 X116.560 Y114.416 E0.00564
G1 X115.944 Y114.174 E0.00564
G1 X115.352 Y113.735 E0.00627
G1 F8640
G1 X114.826 Y113.057 E-0.19821
G1 F8640
G1 X113.843 Y110.831 E-0.56179
G1 E-0.04000 F2100.00000
G1 Z0.850 F10800.000
G1 X118.316 Y109.611 F10800.000
G1 Z0.250 F10800.000
G1 E0.80000 F2100.00000
M204 S300
G1 F900
G1 X118.142 Y109.370 E0.00271
G1 X118.049 Y109.163 E0.00207
G1 X117.998 Y108.959 E0.00192
G1 X117.980 Y108.745 E0.00196
G1 X118.018 Y108.443 E0.00278
G1 X118.087 Y108.240 E0.00196
G1 X118.187 Y108.056 E0.00191
G1 X118.319 Y107.886 E0.00196
G1 X118.552 Y107.689 E0.00278
G1 X118.740 Y107.587 E0.00196
G1 X118.942 Y107.518 E0.00195
G1 X119.232 Y107.481 E0.00267
